lar-deeufba/potential_fields_with_aruco/src/custom_codes/csv_files/csv_to_eps/csv_files/ATTFORCE_AAPF_OriON.csv
Index Joint1 Joint2 Joint3 Joint4 Joint5 Joint6
0 -0.0013627644619158689 0.002021639770278917 0.03798615009605476 0.0056898315052890955 -0.0007852485986063069 0.0
1 -0.0013687359490765273 0.0020253503626526835 0.038179474160899375 0.005655046623078151 -0.0007728208931012214 0.0
2 -0.0014175624002840802 0.0020277152483480477 0.03834393602957599 0.005615158605302305 -0.0008467370299460753 0.0
3 -0.001421882390202869 0.002031234389034411 0.03852718615368425 0.005577638141814821 -0.0008298955346693431 0.0
4 -0.0014248957197745393 0.0020346632832019 0.03870506991250309 0.0055385749709276075 -0.0008098433587821943 0.0
5 -0.0014269999229013011 0.0020379862188087566 0.038877011747513415 0.005497864492020695 -0.000787390151713452 0.0
6 -0.0014849264233619277 0.002039517527217245 0.039010183140850696 0.005450691025103501 -0.0008772025720173457 0.0
7 -0.0014874709014497927 0.0020425677796524514 0.03916861441483487 0.0054067912896612145 -0.0008544307325558083 0.0
8 -0.0014892835545408795 0.002045497020029483 0.03932000431824346 0.0053610810071883196 -0.0008296155391967198 0.0
9 -0.0014903916363048178 0.002048300113485181 0.0394639394517508 0.005313492774859014 -0.0008028285671357787 0.0
10 -0.0015581750536234596 0.002048890639393716 0.039559281400994906 0.005258197419572141 -0.0009090599621544047 0.0
11 -0.0015595292072975572 0.00205140021939626 0.03968699935780865 0.005207097243897222 -0.0008814100770452893 0.0
12 -0.0015601515034372971 0.002053772594026257 0.03980607127805999 0.005153949278237246 -0.0008517563473552989 0.0
13 -0.0015600174329744867 0.002056003274503209 0.03991603621698894 0.0050986846918969235 -0.0008200813883709854 0.0
14 -0.0015752542476054196 0.002057557560471047 0.04000506889150274 0.005039187887435649 -0.0008180868463375281 0.0
15 -0.0015746456840541412 0.0020594603512190056 0.04009483887135559 0.004979507599860549 -0.000784409036496942 0.0
16 -0.0015731598581641857 0.0020612081513069615 0.0401740441936492 0.004917517943206636 -0.000748573163873167 0.0
17 -0.0015707438802849462 0.002062795491630072 0.040242133687551876 0.004853144740983558 -0.0007105298868961077 0.0
18 -0.0015916336936736817 0.002063431540807983 0.04028207426069145 0.004783684217337659 -0.0007169196196558648 0.0
19 -0.001588425911458457 0.002064649888209543 0.04032570629713034 0.004714392931089648 -0.0006764692355308826 0.0
20 -0.0015841035639507922 0.0020656893123329628 0.040356438220401726 0.004642503480829866 -0.0006336257462726726 0.0
21 -0.0016104868032372722 0.0020655140767247143 0.04035218928662193 0.004564750348328274 -0.000648391591633869 0.0
22 -0.001605089854866257 0.0020661407945292377 0.040354603831545606 0.004487521872295923 -0.0006028290132294693 0.0
23 -0.0015983377996583246 0.002066563583648314 0.04034203007759197 0.0044074658861708174 -0.0005546559457345289 0.0
24 -0.0016312544296250562 0.0020654451820426947 0.04028607383814818 0.004320603754679128 -0.0005793796011599256 0.0
25 -0.0016230792675636621 0.0020653952581370437 0.040240649380424154 0.004234755842494069 -0.0005281581097384011 0.0
26 -0.0016132377799432445 0.0020651069219851633 0.04017780167309642 0.0041458440753853205 -0.0004740752327413897 0.0
27 -0.001601590768517627 0.002064565302688777 0.040096617149790646 0.004053787796336018 -0.0004170342686178808 0.0
28 -0.0016446276964984085 0.00206194062299506 0.0399582382241396 0.003953420797495724 -0.0004570841567038096 0.0
29 -0.0016309061635821974 0.0020608108331614237 0.03983701931323139 0.0038549635377152064 -0.00039649320258201457 0.0
30 -0.00161494357402862 0.0020593748753443635 0.03969454354820467 0.003753146233730787 -0.00033264867337677123 0.0
31 -0.0016678035669933267 0.0020553106559758013 0.03948096761475985 0.0036413691100079535 -0.0003873027101775144 0.0
32 -0.0016491484199492056 0.0020531646898805517 0.03929225297652706 0.0035327433644380844 -0.0003194948481379631 0.0
33 -0.001627704168808766 0.0020506419671482007 0.03907907350146586 0.003420599371479028 -0.00024811032344321455 0.0
34 -0.0016922651552829905 0.002044805829588972 0.03877736618179384 0.003296335884528833 -0.0003197768497363899 0.0
35 -0.001667347105104669 0.002041416579387127 0.0385113323310826 0.0031771182862480657 -0.00024397712581805252 0.0
36 -0.0016389649418348442 0.0020375607040945677 0.038217553137257734 0.0030543448733959737 -0.00016426173247238496 0.0
37 -0.001717388995942806 0.0020295347138310667 0.03781353331769413 0.002916638906306461 -0.0002555457676586435 0.0
38 -0.0016845661556310074 0.0020246241016660263 0.03746052250737063 0.002786814052743445 -0.00017093353535062273 0.0
39 -0.0016474755298917993 0.0020191408154665333 0.037076858253225646 0.0026536102258742505 -8.207300109567742e-05 0.0
40 -0.0017421762331713566 0.0020084282314714163 0.03655623333183712 0.002501858632657118 -0.00019567085051168268 0.0
41 -0.0016994928515420545 0.002001687560669776 0.03610840454409613 0.002362117040262073 -0.00010142301909868038 0.0
42 -0.0016516337472560199 0.001994263800601085 0.035628139647410836 0.002219508785014421 -2.636388239989182e-06 0.0
43 -0.0017651916075572109 0.001980325320739957 0.03497864490817104 0.0020537950199306316 -0.00014114964520913186 0.0
44 -0.0017104477716385598 0.0019714671567291377 0.03443259317290297 0.0019058959199957778 -3.6512021299050135e-05 0.0
45 -0.0016495821546623165 0.001961835339810865 0.033854502106248255 0.0017561029617353839 7.286386097377621e-05 0.0
46 -0.0015823038462012516 0.0019514014663086464 0.03324512157303043 0.0016048955201325033 0.00018693306679097127 0.0
47 -0.0017233896063705589 0.001932635819704326 0.03241822327161758 0.0014227745578550815 1.3160119935659998e-05 0.0
48 -0.007515439609698643 0.0019656120863158185 0.032046841845417194 0.001180006362321533 -0.004602920195218203 0.0
49 -0.006673463958428877 0.001952763404535614 0.03136059365434591 0.0010303978501174744 -0.0038213203040703054 0.0
50 -0.006982680561278095 0.0019362160418628573 0.03044256420687663 0.0008259577717897007 -0.00411729174069074 0.0
51 -0.006139216477898667 0.0019200889202581285 0.029695533546410295 0.0006810039437394858 -0.0033501961193340636 0.0
52 -0.005322862385147067 0.0019017772615931633 0.02891788039324626 0.0005405027075168858 -0.002617113261011867 0.0
53 -0.005787854622519019 0.0018811067392919699 0.027862327763529038 0.00032430739122106316 -0.003053627068224528 0.0
54 -0.004967607764921741 0.0018605912515946583 0.027055107445690167 0.00019228829768153533 -0.002329151320122001 0.0
55 -0.00417809392499798 0.0018386034936366995 0.02623813638094094 6.72072726977304e-05 -0.0016401443052405113 0.0
56 -0.004794866953402896 0.0018150675775984192 0.02508172524224051 -0.00015633062674138198 -0.0022051283073770125 0.0
57 -0.003995074387362061 0.0017920797328967225 0.024273347262914104 -0.0002684904121527513 -0.0015163449705017946 0.0
58 -0.0032285524601749567 0.001768288547338056 0.023473849702164762 -0.00037200995163341006 -0.0008636402516337307 0.0
59 -0.003984221027730391 0.0017431752697439015 0.02225877231263011 -0.0005978810872211636 -0.0015396053946461932 0.0
60 -0.003202594522008552 0.0017195344279464825 0.02150260272512707 -0.0006852531422136912 -0.0008805574657724609 0.0
61 -0.002456453637922346 0.001695689689124401 0.020770512858073797 -0.0007630767565019779 -0.00025802984157471433 0.0
62 -0.0017451555043114528 0.001671950399843013 0.02006720829165397 -0.0008315580354008312 0.0003291375195010833 0.0
63 -0.002674827046871674 0.0016470238380438221 0.018834526094713568 -0.001055835813642188 -0.0004756779347177306 0.0
64 -0.001939835897337326 0.001624767292063513 0.01820972255713208 -0.0011061396063961676 0.00012800993784239055 0.0
65 -0.0012398895955233935 0.0016030506714419504 0.01762378381863688 -0.001146850942431258 0.0006972970454045805 0.0
66 -0.0005758448467773022 0.0015820226118601604 0.017075390250965296 -0.0011790787726187824 0.0012321145267561232 0.0
67 -0.0016488626842366576 0.0015587125459860884 0.015866347809044723 -0.0013987196064228493 0.0003302186653904249 0.0
68 -0.0009532498281955734 0.001540004058174779 0.015414946422511785 -0.0014128740310547707 0.0008901307192995846 0.0
69 -0.00029533988107857147 0.001522104799041442 0.015000838503670056 -0.0014195729350074977 0.0014150510906395814 0.0
70 0.00032621384058159207 0.0015051479382979635 0.014623433969654763 -0.0014195762184314588 0.0019065882188527281 0.0
71 0.0009127887504015124 0.0014892332340260583 0.014281678789365836 -0.0014136127595843228 0.00236634645768169 0.0
72 -0.0003056048684833399 0.0014691100825062209 0.013120178145985189 -0.0016289941942667534 0.0013785048021746852 0.0
73 0.0003235779453242149 0.0014558602766000521 0.01288000410204376 -0.0016063813215666809 0.00187402549802964 0.0
74 0.0009157773394207478 0.0014435214710060659 0.012669400450000437 -0.0015791207302868983 0.0023367374654326206 0.0
75 0.0014725953223694397 0.001432151380047677 0.012486552643558095 -0.0015479130983810571 0.0027683499252655003 0.0
76 0.0019956223511646658 0.0014217857746590104 0.012329553680562178 -0.001513385753372798 0.0031705330689862452 0.0
77 0.000673017763146884 0.0014043765163384713 0.01121283964724559 -0.0017240960711665653 0.0021308182109769013 0.0
78 0.0012475352731193914 0.0013965962482561493 0.01115296766596301 -0.0016744433403829144 0.0025765174420753134 0.0
79 0.0017858986778876277 0.00138956097258319 0.011110741798675761 -0.0016226997273646752 0.0029912088002649858 0.0
80 0.0022898713167631935 0.0013833000442190213 0.011084430593513293 -0.001569390537696451 0.003376647733902752 0.0
81 0.002761174397005912 0.001377827939112825 0.011072377379297211 -0.0015149600375288827 0.0037345298137666824 0.0
82 0.003201478734356087 0.001373146757860037 0.011073014897725855 -0.0014597790933923317 0.004066484444026093 0.0
83 0.0017914206753505246 0.0024627744743507974 0.04134402892564799 0.0020053611092898764 0.0041215660807431415 0.0
84 0.0022705457159093224 0.002152563836609576 0.03228330929598642 0.0009190417582479781 0.004225525673535499 0.0
85 0.0027352738295340663 0.0019338358094527692 0.025979905453435873 0.00019835694264762685 0.004381547604304327 0.0
86 0.0031817346015244803 0.0017794358318168856 0.021589358610578403 -0.0002775417599823753 0.004571577079971443 0.0
87 0.0016562994632398226 0.0015267618687188067 0.013732770952666205 -0.0012638843275662658 0.0031288831421502567 0.0
88 0.002188596671472832 0.001492554332958842 0.012891080740541103 -0.0013043820211758898 0.0035070986334278754 0.0
89 0.002685848846077744 0.001469310044970959 0.012359170227328579 -0.0013084136649777448 0.0038650080574474353 0.0
90 0.0031494659992542234 0.0014538366922103173 0.012041846846916018 -0.0012877074229519663 0.0042017446836712866 0.0
91 0.003580964367330506 0.0014438917018620612 0.011872331888966045 -0.0012504250120817838 0.004517050896186357 0.0
92 0.003981908511317059 0.0014379011026498158 0.0118038374417186 -0.0012022408333762606 0.004811115151792451 0.0
93 0.004353870608177271 0.001434760794089284 0.011803642784538017 -0.0011470875202051634 0.005084442720892014 0.0
94 0.0027676184743361887 0.0012716315529799724 0.006574786782943054 -0.0018135035504583867 0.0037517051042750293 0.0
95 0.00322101582333832 0.0013207486427962642 0.00809967227684747 -0.0015776132779344815 0.004147115291942826 0.0
96 0.003638247716554304 0.001356124085129546 0.009218036632910903 -0.0013900681806395358 0.004499695372032924 0.0
97 0.004022156713625774 0.00138189334203953 0.010047141771739296 -0.0012373860191886308 0.004815634697430856 0.0
98 0.004375259299833716 0.0014009760959427945 0.010670195897847977 -0.0011098896259290384 0.005099869539458432 0.0
99 0.00469979412351676 0.0014154285795297747 0.011146089743472379 -0.0010006649465907527 0.0053563722884998 0.0
100 0.004997765552886323 0.0014266954273095718 0.011516434539292148 -0.0009047825755231415 0.005588374935323834 0.0
101 0.00527098011651328 0.0014357887848336246 0.011810603093480598 -0.0008187284957943582 0.005798539592421114 0.0
102 0.005521075975852465 0.0014434152725255251 0.012049318504772921 -0.0007399935870394383 0.005989087621285035 0.0
103 0.005749546459696932 0.0014500657988087847 0.01224719829412192 -0.000666780394525734 0.006161897009828396 0.0
104 0.005957758849441939 0.001456079011520033 0.012414552846921017 -0.0005977950106014552 0.006318575698013154 0.0
105 0.004382399451136884 0.0012842611482006532 0.007002061682137396 -0.0012631450638755756 0.0050367718599998315 0.0
106 0.0046798543303855225 0.0013429749233880251 0.008716610963995066 -0.0010115191314920063 0.005332316612814789 0.0
107 0.0049480003112848565 0.0013847807854792838 0.009935762994535129 -0.0008180717560394737 0.005584041403212943 0.0
108 0.0051897551096799985 0.0014148559845596617 0.010807182097680468 -0.0006657220080020598 0.005800671325055909 0.0
109 0.005406492916041945 0.0014374726674855705 0.011453063153712539 -0.0005402832435234064 0.005989120123297752 0.0
110 0.005601325063293619 0.0014542657756247775 0.01192122159402146 -0.0004360430527057444 0.006153614188393536 0.0
111 0.005776003314986849 0.0014670304459903111 0.012263789723495275 -0.0003468504118830224 0.006297960730097821 0.0
112 0.005932039896202898 0.001477006849299594 0.012517045843235236 -0.000268404543184533 0.0064250857733946275 0.0
113 0.006070757899302355 0.001485048956059513 0.012706207899977501 -0.0001977005143776367 0.00653727146062419 0.0
114 0.006193328884064353 0.0014917422209079609 0.012848789593687834 -0.00013263852650965296 0.006636326659875819 0.0
115 0.00630080095896763 0.0014974855389564277 0.012956943236668697 -7.175020370470868e-05 0.006723709697850345 0.0
116 0.006394119890312761 0.0015025482751892258 0.013039092156871487 -1.4007599780140392e-05 0.006800616789594802 0.0
117 0.006474145139712391 0.0015071099307423152 0.013101066693381519 4.130973993852105e-05 0.006868045915444567 0.0
118 0.006541662218119264 0.0015112877273719232 0.013146894162704103 9.470716914483993e-05 0.006926843131557787 0.0
119 0.006597392357496853 0.0015151557904958116 0.013179348004643099 0.00014653910541123638 0.006977736310493785 0.0
120 0.006642000216753392 0.0015187584921584393 0.013200329504757236 0.00019705359146669765 0.007021359879911068 0.0
121 0.006676100132989762 0.0015221197348939295 0.013211133196447532 0.0002464232620184004 0.007058273104558513 0.0
122 0.006700261282203976 0.001525249414139254 0.013212631475329735 0.0002947668925838817 0.007088973725664101 0.0
123 0.006715012009429061 0.001528147919019922 0.01320540311031218 0.0003421644275183164 0.007113908250274657 0.0
124 0.006720843514850638 0.0015308092688180609 0.013189822791020994 0.00038866749443115453 0.007133479811645463 0.0
125 0.006718213030949089 0.001533223300167435 0.013166123610936385 0.0004343067945451072 0.0071480542576445785 0.0
126 0.006707546589764764 0.0015353771935446268 0.013134440749779689 0.00047909733071603 0.007157964936599172 0.0
127 0.006689426916612864 0.001537971309042756 0.013115223302731752 0.0005251913765122397 0.00716502311498462 0.0
128 0.006663965242633231 0.0015400568584208536 0.013081865869516294 0.0005697518096275979 0.007167555918288879 0.0
129 0.006631529959506721 0.0015416843632496881 0.013036250912913407 0.0006129735433695828 0.007165950771656488 0.0
130 0.006592459913178162 0.0015428843819651787 0.01297966783374143 0.0006549817860823737 0.007160535297948431 0.0
131 0.006547067938042461 0.0015436738719627925 0.012912995867435332 0.0006958528758653492 0.007151590681755679 0.0
132 0.006495643659945067 0.0015440606202492676 0.012836831543638141 0.0007356288156554735 0.007139361341591369 0.0
133 0.006438455777283172 0.0015440463382513465 0.012751577809205774 0.0007743274657615904 0.0071240619932022055 0.0
134 0.006375753973555859 0.001543628834624258 0.012657506689437591 0.0008119497481691506 0.007105882869532844 0.0
135 0.006307770576130944 0.0015428035540175898 0.012554803741653539 0.0008484848005009655 0.007084993640180766 0.0
136 0.0062347220493805975 0.0015415646825043515 0.01244360004512457 0.0008839137298339837 0.007061546416862331 0.0
137 0.006156810391820471 0.0015399059598005813 0.012323995728398367 0.0009182124176499209 0.007035678121527583 0.0
138 0.006074224493667163 0.0015378212961856255 0.012196077820460376 0.000951353689288192 0.007007512416229996 0.0
139 0.00598714150119566 0.0015353052623962367 0.012059934359927537 0.0009833090651272694 0.006977161338696771 0.0
140 0.005895728225830743 0.001532353499680516 0.0119156660910262 0.0010140502429857741 0.00694472674766593 0.0
141 0.005800142627762857 0.001528963081851627 0.011763396636118518 0.0010435504126400424 0.0069103016523950804 0.0
142 0.005700535395034316 0.001525132849625213 0.011603281706425009 0.0010717854674929493 0.0068739714777018195 0.0
143 0.0055970516287435195 0.0015208637284296483 0.011435517657649923 0.0010987351509346216 0.006835815296952405 0.0
144 0.005489832632791175 0.0015161590333770156 0.011260349490938903 0.00112438415292995 0.006795907048897564 0.0
145 0.005379017792348777 0.0015110247586755023 0.011078078227850972 0.0011487231541174071 0.006754316739210656 0.0
146 0.0052647662600116725 0.001505473795642083 0.01088917276212997 0.0011717611028367015 0.006711127997800364 0.0
147 0.005147273625835349 0.0014995284126420043 0.010694332067402142 0.0011935323811496832 0.006666449783711471 0.0
148 0.005026648686518222 0.0014931940527617787 0.010493785603687848 0.001214022809571484 0.00662031105254781 0.0
149 0.004903010671002042 0.0014864826543471406 0.010287923026214384 0.0012332359730158322 0.006572749670573917 0.0
150 0.004776490541068373 0.0014794119137981883 0.010077271711244576 0.0012511913177682397 0.006523811334933382 0.0
151 0.004647232044325681 0.00147200466389172 0.009862477744688708 0.0012679226327052876 0.006473548757699806 0.0
152 0.0045153924072150655 0.0014642882867068466 0.009644288187252714 0.0012834766778229854 0.00642202093045539 0.0
153 0.004381142579452502 0.001456294107978686 0.009423533213386896 0.0012979118021609645 0.006369292345054876 0.0
154 0.004244666972526965 0.0014480567432462819 0.009201107373824763 0.001311296458293829 0.006315432097800467 0.0
155 0.004106162671736682 0.001439613386237515 0.008977949775176844 0.0013237075747631094 0.006260512849585425 0.0
156 0.003965838140492529 0.001431003046506587 0.00875502340630679 0.0013352287919283497 0.006204609653019577 0.0
157 0.003823911473087563 0.0014222657559764887 0.008533294161616115 0.0013459486002943726 0.006147798687586183 0.0
158 0.0036806082836199384 0.001413441772285513 0.008313710307510172 0.0013559584427482608 0.006090155963951821 0.0
159 0.0035349434996677586 0.0014039136180081582 0.008079308589209211 0.0013637213191654103 0.0060299716536258135 0.0
160 0.0033892936349140595 0.001394711753844808 0.007857767104109528 0.0013718373590953317 0.005970178469188967 0.0
161 0.0032431016208882817 0.0013856407610844557 0.007643746296680722 0.0013797812186394252 0.005910045048227156 0.0
162 0.0030965732162534076 0.0013767040230145684 0.007437103677702601 0.0013875590476998424 0.005849562481138876 0.0
163 0.002949911133781465 0.0013679101007610722 0.007237831678367575 0.0013951929943279344 0.005788734166212083 0.0
164 0.002803312559363458 0.0013592703539321094 0.007045994079927538 0.0014027148305556757 0.005727570796524589 0.0
165 0.002656967166709957 0.0013507972609303638 0.006861681866359392 0.0014101614070878706 0.005666086886824999 0.0
166 0.0025110555860627846 0.0013425032628120405 0.006684983502125541 0.00141757146568132 0.005604298443223325 0.0
167 0.002365748283494132 0.0013343999980344329 0.006515965878937335 0.0014249834595182996 0.005542221475512254 0.0
168 0.0022212048047519674 0.0013264978270951544 0.006354663082469398 0.0014324341192757917 0.005479871123265778 0.0
169 0.0020775733357637494 0.0013188055696066944 0.006201070805553332 0.0014399575665476531 0.005417261220450131 0.0
170 0.0019349905315824405 0.0013113303942210858 0.006055144747348645 0.001447584823937447 0.005354404164388992 0.0
171 0.0017935815669021672 0.0013040778156360588 0.00591680173388796 0.0014553436072585867 0.005291310986994308 0.0
172 0.0016534603640860736 0.001297051763742528 0.0057859226045239125 0.0014632583130283112 0.0052279915514715225 0.0
173 0.0015147299585580721 0.0012902546985253316 0.0056623561516122205 0.0014713501359550803 0.005164454817744835 0.0
174 0.0013774829660010196 0.0012836877510969832 0.0055459235915706635 0.0014796372678685338 0.00510070913568525 0.0
175 0.0012418021206888575 0.0012773508765817035 0.0054364231946811255 0.0014881351425731553 0.005036762537639933 0.0
176 0.001107760859148687 0.0012712430087434394 0.005333634816649084 0.0014968567011969698 0.0049726230113700896 0.0
177 0.0009754239279685705 0.001265362209481695 0.00523732416339961 0.0015058126603531507 0.004908298741810062 0.0
178 0.0008448479987897761 0.0012597058087788116 0.005147246687102379 0.0015150117713069924 0.004843798315491168 0.0
179 0.0007160822772659123 0.001254270532520853 0.005063151060382383 0.0015244610627293104 0.004779130885399052 0.0
180 0.0005891690959988306 0.0012490526169566165 0.004984782210758626 0.0015341660628334097 0.004714306296764548 0.0
181 0.00046414448418918375 0.001244047909510702 0.004911883921609777 0.0015441309989933703 0.004649335176096236 0.0
182 0.0003408822230367803 0.001238544814630959 0.004824950016825007 0.0015525648059387651 0.004583131558185165 0.0
183 0.00021960350006395123 0.001233426353586045 0.004747905402168353 0.0015617154101365929 0.004517121209939105 0.0
184 0.00010031717473190288 0.0012286414159664123 0.004679238211371976 0.0015714689039255964 0.00445123271804511 0.0
185 -1.696914187434964e-05 0.0012241506786693007 0.004617767534524926 0.0015817401776521108 0.00438541806595824 0.0
186 -0.00013224951125643267 0.0012199235856068889 0.004562560335336308 0.0015924654348774769 0.004319646584317227 0.0
187 -0.00024551989864889985 0.0012159361114068617 0.004512869892108056 0.001603596650305723 0.004253900489126892 0.0
188 -0.00035677827126906714 0.0012121691045529244 0.004468090134109804 0.0016150974637641892 0.004188171585008055 0.0
189 -0.0004660246066759992 0.0012086070590450468 0.004427721725753503 0.0016269401365584545 0.004122458823586402 0.0
190 -0.0005732608418548386 0.0012052372031498616 0.004391346839533257 0.0016391032943547947 0.004056766489873008 0.0
191 -0.0006784907847001742 0.0012020488229125196 0.004358610359770889 0.0016515702527784056 0.003991102850202851 0.0
192 -0.0007817200031251142 0.001199032759563653 0.004329205849294992 0.0016643277750086217 0.003925479139799154 0.0
193 -0.0008829557023834008 0.0011961810357965503 0.004302865046252813 0.0016773651498236297 0.003859908800635619 0.0
194 -0.000982206597859276 0.00119348657758992 0.004279349979268952 0.001690673507472286 0.0037944069041487383 0.0
195 -0.0010794827881954246 0.0011909430069004625 0.004258447026241246 0.0017042453121329903 0.0037289897108394136 0.0
196 -0.0011758162062262246 0.0011891173159711203 0.004256180335475781 0.0017196256011499612 0.0036637702470015683 0.0
197 -0.0012701612321391108 0.0011872770056192816 0.0042519350736892215 0.0017348541560935709 0.0035984869854499765 0.0
198 -0.00136252637117799 0.0011854570433731456 0.004246635393366702 0.0017500285177837953 0.0035332154216639053 0.0
199 -0.0014529230887700623 0.0011836823522383 0.004240936917326986 0.0017652202480379652 0.0034680154771389617 0.0
200 -0.0015413651413918297 0.0011819704110374715 0.004235297193723704 0.0017804815153181263 0.0034029356487932515 0.0
201 -0.001627868068729821 0.001180333187947383 0.004230028017344723 0.0017958500064971339 0.0033380160283898327 0.0
202 -0.0017124488057117316 0.0011787785778582978 0.004225334261805839 0.0018113525903878554 0.0032732904976894095 0.0
203 -0.0017951253838443331 0.0011773114705319132 0.004221342678914249 0.0018270080502518814 0.003208788322575854 0.0
204 -0.0018759166992856253 0.001175934544066099 0.004218123237378021 0.0018428291218057198 0.0031445353092335792 0.0
205 -0.001954842330957638 0.0011746488540157263 0.004215704915111516 0.0018588240131328908 0.003080554641516871 0.0
206 -0.00203192239633817 0.0011734542705368403 0.004214087369710353 0.001874997538110646 0.0030168674865349533 0.0
207 -0.0021071774357621018 0.0011723498025340694 0.004213249547158361 0.0018913519615528771 0.0029534934319920573 0.0
208 -0.0021806283184191222 0.0011713338378231384 0.004213156017476045 0.0019078876293498795 0.002890450801644395 0.0
209 -0.0022522961649748758 0.0011704043208980437 0.004213761624014302 0.0019246034382903801 0.0028277568826730365 0.0
210 -0.00232220228303079 0.0011695588843652867 0.004215014882714661 0.0019414971863724393 0.0027654280895837097 0.0
211 -0.002390368112590665 0.0011687949459923488 0.004216860455721555 0.0019585658340508763 0.002703480082529224 0.0
212 -0.002456815179409425 0.001168109780253712 0.004219240940419917 0.0019758056991362764 0.0026419278530433786 0.0
213 -0.0025215650546262557 0.0011675005709768822 0.004222098152972773 0.0019932126022882326 0.00258078578659167 0.0
214 -0.002584639319475552 0.0011669644499937646 0.004225374039314998 0.002010781975737907 0.0025200677087306813 0.0
215 -0.0026460595341605687 0.0011664985254398203 0.0042290113122521265 0.002028508944659672 0.0024597869197634926 0.0
216 -0.0027058472101950688 0.001166099902404202 0.004232953887807605 0.002046388388212682 0.0023999562213907135 0.0
217 -0.0027651357001190883 0.0011651737335633895 0.004221799980894851 0.0020627588438333357 0.00233959018225867 0.0
218 -0.0028227499885131136 0.0011644652815972097 0.00421502421658763 0.0020797048297048534 0.002279860110620453 0.0
219 -0.002878720887104611 0.001163930081140374 0.004211451417607008 0.0020971057515511587 0.002220738601249031 0.0
220 -0.0029330771922402624 0.0011635348269859276 0.00421020918818194 0.0021148713481895422 0.002162208531395393 0.0
221 -0.002985846151075129 0.0011632544214152632 0.004210647868537857 0.0021329336955035294 0.002104260045415837 0.0
222 -0.0030370537981849136 0.0011630698011151563 0.004212281623637235 0.002151241300181351 0.0020468883899274776 0.0
223 -0.0030867251983363654 0.0011629663391427333 0.004214745115470161 0.002169754741084895 0.0019900923628828372 0.0
224 -0.0031348846214081273 0.0011629326707258427 0.00421776165803797 0.0021884434557725703 0.001933873204914433 0.0
225 -0.0031815556683547717 0.0011629598311970525 0.004221119827276666 0.002207283373646899 0.001878233808716026 0.0
226 -0.0032294885520425427 0.0011633102790633203 0.004233273244733441 0.002227228313305665 0.0018213169455131332 0.0
227 -0.0032758057769079066 0.0011635965392336096 0.004242330785339155 0.002246949473579442 0.00176502649353099 0.0
228 -0.0033205306848686825 0.0011638443317776937 0.00424902312074037 0.002266520824852747 0.001709388220026211 0.0
229 -0.003363687258995039 0.0011640717110574202 0.004253874084688378 0.0022859944997763782 0.001654421656745685 0.0
230 -0.003405299844507309 0.001164291164313848 0.004257257307714913 0.002305406676597584 0.0016001418127751094 0.0
231 -0.0034453929494213656 0.0011645111441410806 0.004259437559258828 0.0023247818922832114 0.0015465603902274367 0.0
232 -0.0034828293582890428 0.0011653460603262768 0.004276379040333032 0.002345925210209126 0.0014946111506343475 0.0
233 -0.003518886721953996 0.0011660200129334404 0.004287883078892418 0.002366559248115094 0.001443246739889607 0.0
234 -0.0035535796267720217 0.0011665821560713288 0.004295309472113623 0.0023868266407545413 0.0013925025775527403 0.0
235 -0.003586924200308533 0.0011670674922943235 0.004299636169589201 0.0024068290588135166 0.0013424047414221187 0.0
236 -0.0036189376367750602 0.0011675007881790688 0.004301564902828207 0.002426638418649223 0.0012929726348005818 0.0
237 -0.00364963785696751 0.00116789941762858 0.004301597883376751 0.0024463050505774426 0.001244220860564436 0.0
238 -0.003679043264587849 0.0011682754245659383 0.004300093435733489 0.002465863645642981 0.0011961605378874257 0.0
239 -0.003707172571592857 0.0011686370178738818 0.004297306308217764 0.0024853375811954826 0.0011488002274257505 0.0
240 -0.0037340446729585966 0.0011689896537823857 0.004293416850446644 0.0025047420644489925 0.001102146581581695 0.0
241 -0.0037596785568186674 0.0011693368187620195 0.004288552109117259 0.002524086415034282 0.0010562048018630578 0.0
242 -0.0037840932399286027 0.0011696805952037038 0.004282801063180441 0.002543375720968517 0.001010978961000304 0.0
243 -0.0038073077212751614 0.0011700220697087825 0.004276225613294036 0.002562612039073019 0.000966472230331429 0.0
244 -0.0038293409486981553 0.0011703616274446088 0.004268868498526775 0.0025817952645007672 0.0009226870408921249 0.0
245 -0.003850211794860468 0.001170699164100134 0.004260758991436802 0.0026009237601477423 0.0008796251981524225 0.0
246 -0.0038699390399475936 0.0011710342383033695 0.0042519169884935515 0.0026199948119807626 0.0008372879643696648 0.0
247 -0.0038885413592268415 0.0011713661810594388 0.004242355942640032 0.0026390049582698414 0.000795676118331963 0.0
248 -0.003906037314128391 0.0011716941741906418 0.004232084961221801 0.0026579502275628033 0.0007547899993238197 0.0
249 -0.003922445345889238 0.0011720173064401073 0.004221110302893722 0.0026768263106694613 0.0007146295400840822 0.0
250 -0.003937783771072796 0.0011723346134944997 0.004209436442174095 0.0026956286849622174 0.0006751942920822909 0.0
251 -0.003952086252986818 0.001172578355254983 0.004195279813817008 0.00271414489788507 0.0006364663727432294 0.0
252 -0.003965353598764803 0.0011728339679290566 0.004180959654023665 0.00273263883028075 0.0005984663875003216 0.0
253 -0.003977604191347459 0.001173094764291065 0.004166325276614241 0.0027510882749636357 0.0005611913176319108 0.0
254 -0.003988856148691158 0.0011733557234164934 0.004151270463621279 0.0027694760685081712 0.0005246383157125655 0.0
255 -0.003999127363024406 0.0011736130240651897 0.0041357208860198676 0.002787788681225801 0.0004888045594389554 0.0
256 -0.004008435528566254 0.0011738637113332022 0.004119625116909369 0.002806015208316097 0.00045368715412492846 0.0
257 -0.004016798161158387 0.0011741054586317493 0.004102948214056946 0.0028241466487352236 0.00041928306856419453 0.0
258 -0.004024232612231094 0.0011743363977951963 0.004085667138538241 0.0028421753902125664 0.00038558909372414334 0.0
259 -0.0040307560787972195 0.0011745549978390568 0.004067767484404046 0.0028600948418294227 0.000352601817030965 0.0
260 -0.004036385610656586 0.001174759978429394 0.004049241143700052 0.0028778991721197145 0.00032031760728224096 0.0
261 -0.00404113811563577 0.0011749502480987847 0.004030084638303268 0.002895583122555643 0.00028873260678997963 0.0
262 -0.004045030363436452 0.0011751248600904817 0.004010297926769282 0.002913141874832154 0.0002578427284347523 0.0
263 -0.0040480789884884604 0.0011752829807506664 0.003989883549320469 0.0029305709565046983 0.00022764365605132657 0.0
264 -0.0040503004920828915 0.0011754238668461314 0.003968846013381523 0.002947866173937829 0.00019813084707092258 0.0
265 -0.004051711243972686 0.0011755468492260707 0.003947191350128667 0.0029650235646766724 0.0001692995366922117 0.0
266 -0.004052327483570584 0.001175651320990563 0.003924926792561369 0.002982039363613097 0.0001411447430875645 0.0
267 -0.0040521653208323875 0.0011757367288586266 0.0039020605398921906 0.002998909978933331 0.0001136612733115573 0.0
268 -0.004051240736885392 0.0011758025668068212 0.003878601583235244 0.0030156319749883196 8.684372968721225e-05 0.0
269 -0.004049569584443 0.0011758483713187246 0.003854559574830197 0.0030322020600527374 6.068651651836883e-05 0.0
270 -0.004047167588032546 0.0011758737177771 0.0038299447281960886 0.0030486170775261365 3.5183847026476416e-05 0.0
271 -0.004044050344056353 0.0011758782176669706 0.003804767740284422 0.00306487399954949 1.0329750442034586e-05 0.0
272 -0.004040233320698702 0.0011758615163545158 0.0037790397293056112 0.0030809699223085883 -1.388192079609475e-05 0.0
273 -0.0040357318576892745 0.0011758232912751378 0.0037527721837470156 0.0030969020625072124 -3.745748376673004e-05 0.0
274 -0.004030561165930154 0.0011757632504136011 0.003725976919435669 0.0031126677546467934 -6.040341774067935e-05 0.0
275 -0.004024736326994026 0.0011756811309924786 0.003698666042398463 0.0031282644488526113 -8.272635682131186e-05 0.0
276 -0.0040182722924984446 0.0011755766983108547 0.003670851915964387 0.0031436897090667895 -0.00010443308256401986 0.0
277 -0.0040111838833636 0.0011754497446914754 0.0036425471309928835 0.0031589412114789305 -0.00012553051658662227 0.0
278 -0.004003485788958271 0.001175300088507572 0.003613764478463179 0.003174016743106141 -0.00014602571317946412 0.0
279 -0.003995192566141774 0.0011751275732686769 0.0035845169238782476 0.0031889142004594257 -0.0001659258519250058 0.0
280 -0.003986318638207701 0.0011749320667512218 0.003554817583111548 0.0032036315882538868 -0.00018523823033475472 0.0
281 -0.003976878293737556 0.0011747134601636632 0.0035246796994316074 0.0032181670181325073 -0.00020397025651241156 0.0
282 -0.0039668856853712865 0.0011744716673393726 0.0034941166215329156 0.0032325187073844242 -0.0002221294418511569 0.0
283 -0.003956354828503307 0.001174206623951973 0.0034631417824415004 0.0032466849776430526 -0.00023972339377369947 0.0
284 -0.003945299599911977 0.001173918286750176 0.0034317686792256757 0.0032606642535570286 -0.00025675980852324294 0.0
285 -0.003933733736331196 0.0011736066328093184 0.0034000108534471118 0.00327445506142726 -0.00027324646401370977 0.0
286 -0.0039216708329734935 0.0011732716587982352 0.0033678818723251016 0.003288056027808111 -0.00028919121274793825 0.0
287 -0.003909124342012941 0.001172913380260163 0.003335395310587245 0.003301465878070721 -0.00030460197481172396 0.0
288 -0.0038961075710369645 0.001172531830907024 0.003302564732997132 0.003314683434928657 -0.0003194867309518907 0.0
289 -0.003882633681477075 0.0011721270619265349 0.0032694036775512024 0.003327707616926362 -0.0003338535157470792 0.0
290 -0.0038687156870261907 0.0011716991413016332 0.003235925639336698 0.0033405374368909516 -0.00034771041087815256 0.0
291 -0.003854366452052559 0.0011712481531422456 0.0032021440550562873 0.0033531720003496103 -0.00036106553850661694 0.0
292 -0.003839598690018521 0.0011707741970289844 0.003168072288211775 0.0033656105039134594 -0.0003739270547679465 0.0
293 -0.003824424961913094 0.0011702773873688438 0.0031337236149510984 0.003377852233630217 -0.0003863031433871698 0.0
294 -0.0038088576747062263 0.0011697578527626524 0.003099111210573318 0.003389896563307005 -0.00039820200942301186 0.0
295 -0.0037929090798331355 0.0011692157353844497 0.003064248136695533 0.003401742952805914 -0.0004096318731471659 0.0
296 -0.003776591271716448 0.0011686511903725731 0.003029147329074948 0.003413390946313747 -0.00042060096406457126 0.0
297 -0.0037599161863333085 0.0011680643852325057 0.0029938215860842096 0.0034248401705880673 -0.0004311175150800319 0.0
298 -0.0037428955998344317 0.001167455499251433 0.002958283557835029 0.003436090333181498 -0.0004411897568162037 0.0
299 -0.0037255411272221284 0.0011668247229246031 0.0029225457359469656 0.0034471412206465235 -0.0004508259120878324 0.0
300 -0.003707864221092678 0.0011661722573933322 0.0028866204439509137 0.003457992696722272 -0.000460034190535854 0.0
301 -0.003689876170449762 0.0011654983138947327 0.002850519828321825 0.003468644700505524 -0.0004688227834256617 0.0
302 -0.003671588099592948 0.0011648031132231544 0.0028142558501314716 0.003479097244607832 -0.00047719985861188795 0.0
303 -0.0036530109670873476 0.0011640868852032553 0.0027778402773096242 0.0034893504133004303 -0.000485173555673308 0.0
304 -0.003634155564817655 0.0011633498681748202 0.0027412846775059724 0.0034994043606492334 -0.0004927519812193791 0.0
305 -0.0036150325171313475 0.001162592308489109 0.00270460041153553 0.003509259308641103 -0.0004999432043707821 0.0
306 -0.00359565228007372 0.0011618144600169902 0.002667798627401836 0.003518915545304122 -0.0005067552524149007 0.0
307 -0.003576025140718057 0.001161016583668515 0.0026308902548760737 0.0035283734228226194 -0.0005131961066373091 0.0
308 -0.0035561612165934003 0.0011601989469242112 0.0025938860006253185 0.0035376333556496864 -0.0005192736983298165 0.0
309 -0.003536070455212043 0.001159361823377844 0.0025567963438694248 0.003546695818618264 -0.0005249959049751447 0.0
310 -0.003515762633698027 0.0011585054922907615 0.0025196315325545517 0.0035555613450529455 -0.0005303705466077373 0.0
311 -0.0034952473585181274 0.0011576302381576295 0.0024824015800231592 0.003564230524883726 -0.0005354053823501795 0.0
312 -0.0034745340653161657 0.0011567363502837803 0.002445116262170907 0.0035727040027642115 -0.0005401081071242435 0.0
313 -0.0034529235889744158 0.0011555272155414397 0.0023999149547303373 0.0035800107896694204 -0.000543966892145595 0.0
314 -0.0034311905835072453 0.0011543892011589823 0.0023570465681559743 0.0035874164762966644 -0.0005475573677870884 0.0
315 -0.003409339688834182 0.0011532957769149698 0.002315808929583181 0.0035948337472372946 -0.000550881519955197 0.0
316 -0.003387375582643226 0.0011522284719275107 0.0022757130866147314 0.0036022017707961792 -0.000553942149173449 0.0
317 -0.0033653030077462646 0.001151174456124516 0.002236419197125395 0.0036094782675096496 -0.0005567426649964924 0.0
318 -0.0033431267837891092 0.001150124847817588 0.002197691687664513 0.003616633957646366 -0.0005592869357479068 0.0
319 -0.0033208518087806398 0.001149073529262899 0.0021593678852499408 0.0036236486738482035 -0.000561579177639738 0.0
320 -0.0032984830541714335 0.0011480163176373415 0.0021213360714927073 0.0036305086392591215 -0.0005636238720624767 0.0
321 -0.0032760255560134637 0.0011469503847033643 0.002083520126867823 0.0036372045614401728 -0.0005654257031232788 0.0
322 -0.00325348440390454 0.0011458738505011922 0.002045868784851453 0.0036437302973246592 -0.0005669895098142301 0.0
323 -0.003230864728854024 0.0011447854988350151 0.002008348111140686 0.0036500819179223413 -0.0005683202488169871 0.0
324 -0.003208171690817985 0.0011436845780072578 0.001970936239478524 0.0036562570528867093 -0.0005694229650985735 0.0
325 -0.0031854104663880437 0.001142570661228621 0.0019336196866760619 0.003662254431033224 -0.0005703027682675267 0.0
326 -0.003162586236936762 0.00114144354880817 0.001896390772951524 0.003668073558071293 -0.0005709648132358327 0.0
327 -0.003139704177402223 0.0011403031995985823 0.0018592458160412056 0.0036737144904318278 -0.0005714142841429097 0.0
328 -0.00311676944581258 0.001139149682929342 0.001822183867083086 0.003679177676402853 -0.0005716563807888745 0.0
329 -0.0030937871735969196 0.0011379831448903488 0.0017852058259088227 0.00368446384441683 -0.0005716963070312221 0.0
330 -0.003070762456692809 0.0011368037846686458 0.001748313822094285 0.0036895739243750234 -0.0005715392607461265 0.0
331 -0.0030477003474390614 0.0011356118379291782 0.0017115107822052596 0.003694508992124061 -0.0005711904250612446 0.0
332 -0.003024605847226634 0.001134407565132056 0.0016748001275247058 0.0036992702301609495 -0.0005706549606409562 0.0
333 -0.003001483899872573 0.0011331912433100875 0.0016381855632408404 0.003703858899716304 -0.0005699379988589705 0.0
334 -0.0029783393856773243 0.0011319631602726109 0.0016016709317670768 0.0037082763208184954 -0.0005690446357318342 0.0
335 -0.002955177116123373 0.0011307236105109618 0.0015652601110392548 0.003712523857957715 -0.0005679799265144495 0.0
336 -0.002932001829173142 0.0011294728922978743 0.0015289569443677226 0.0037166029096817816 -0.0005667488808792643 0.0
337 -0.0029088181851240047 0.0011282113056251383 0.00149276519243791 0.003720514900955163 -0.0005653564586150559 0.0
338 -0.0028856307629806857 0.0011269391507299719 0.0014566885008561827 0.003724261277461456 -0.0005638075657929454 0.0
339 -0.0028624440573063034 0.0011256567270354117 0.001420730378614283 0.0037278435012755313 -0.0005621070513550164 0.0
340 -0.002839262475515904 0.0011243643323821855 0.0013848941842233876 0.0037312630475030435 -0.0005602597040875997 0.0
341 -0.002816090335577394 0.0011230622624662278 0.0013491831172378383 0.003734521401605536 -0.0005582702499454797 0.0
342 -0.002792931864088707 0.0011217508104214445 0.001313600213561376 0.003737620057213065 -0.0005561433496983662 0.0
343 -0.0027697911946999412 0.0011204302665057196 0.0012781483434143796 0.0037405605142866636 -0.0005538835968726455 0.0
344 -0.0027466723668529984 0.00111910091786043 0.0012428302111656031 0.0037433442775332937 -0.0005514955159652068 0.0
345 -0.0027235793248123106 0.001117763048322774 0.0012076483564712878 0.0037459728550056424 -0.0005489835609076883 0.0
346 -0.002700515916962082 0.0011164169382763902 0.0011726051563283155 0.0037484477568393965 -0.0005463521137613971 0.0
347 -0.002677485895347488 0.001115062864529978 0.001137702827760843 0.003750770494094505 -0.0005436054836249244 0.0
348 -0.0026544929154386923 0.0011137011002168168 0.0011029434309448361 0.0037529425776774207 -0.0005407479057377907 0.0
349 -0.0026315405360979485 0.0011123319147102104 0.001068328872631738 0.003754965517328259 -0.0005377835407646433 0.0
350 -0.002608632219732116 0.0011109555735512014 0.0010338609097687978 0.003756840820661189 -0.0005347164742460944 0.0
351 -0.0025857713326128263 0.0011095723383861315 0.000999541153246264 0.003758569992250286 -0.0005315507162023858 0.0
352 -0.0025629611453499342 0.0011081824669123056 0.0009653710717208526 0.0037601545327554256 -0.0005282902008784797 0.0
353 -0.002540204833502301 0.001106786212830486 0.0009313519954778945 0.0037615959380842166 -0.0005249387866181727 0.0
354 -0.002517505478313959 0.001105383825803265 0.000897485120303796 0.003762895698587041 -0.0005215002558576412 0.0
355 -0.0024948660675620776 0.0011039755514187972 0.000863771511352438 0.003764055298283697 -0.0005179783152277862 0.0
356 -0.002472289496506008 0.0011025616311592062 0.0008302121069856769 0.0037650762141195025 -0.0005143765957567243 0.0
357 -0.0024497785689264837 0.0011011423023735297 0.0007968077225825681 0.003765959915250584 -0.0005106986531637181 0.0
358 -0.0024273359982449386 0.001099717798254728 0.0007635590543042968 0.0037667078623568394 -0.0005069479682364669 0.0
359 -0.0024049644087141124 0.0010982883478206403 0.0007304666828111647 0.0037673215069823516 -0.0005031279472845486 0.0
360 -0.002382666336671909 0.0010968541758986274 0.0006975310769247655 0.003767802290902377 -0.0004992419226623996 0.0
361 -0.002360444231849684 0.0010954155031138323 0.000664752597234014 0.0037681516455167763 -0.0004952931533547159 0.0
362 -0.002338300458729024 0.0010939725458807502 0.0006321314996378189 0.003768370991268867 -0.0004912848256191421 0.0
363 -0.002316237297939507 0.00109252551639814 0.0005996679388262927 0.0037684617370898105 -0.0004872200536801291 0.0
364 -0.0022942569476919663 0.001091074622647069 0.0005673619716962531 0.003768425279867811 -0.0004831018804692081 0.0
365 -0.002270088618295353 0.0010759245425331378 0.00018305448535282476 0.003719696286198567 -0.0004769178397826337 0.0
366 -0.002246341232901897 0.001064853006171304 -9.548914265905973e-05 0.0036841128116814233 -0.00047111998107528567 0.0
367 -0.002222991716874308 0.0010566855758413385 -0.0002987958287998928 0.003657882418549296 -0.0004656345464723055 0.0
368 -0.0021427041734137296 0.0010500223652525527 -0.0004477774962976537 0.0036363094193283515 -0.00041644126434026667 0.0
369 -0.002067974839984557 0.0010448715864324468 -0.0005583478687246216 0.003619599475124 -0.0003711832919260813 0.0
370 -0.001998365322531478 0.0010408053816763649 -0.000641588158935744 0.0036063643592545826 -0.00032953299250789645 0.0
371 -0.0019334720091565125 0.0010375191019667725 -0.0007053745240902043 0.0035956151144590004 -0.00029119259671133666 0.0
372 -0.0018729232829315789 0.0010347957563706838 -0.0007553054465531861 0.0035866471702944015 -0.0002558906289250281 0.0
373 -0.0018163769894476258 0.0010324807044709333 -0.0007953605812727522 0.0035789583819586905 -0.00022337903871840042 0.0
374 -0.001763518117999525 0.0010304636491669241 -0.0008283689163151986 0.0035721906275442547 -0.00019343082248675895 0.0
375 -0.001714056669483166 0.0010286658284885057 -0.0008563414857463129 0.0035660882287503162 -0.000165838001415836 0.0
376 -0.0016677256918045536 0.0010270309078427055 -0.0008807078497695075 0.0035604683679133897 -0.00014040986917588958 0.0
377 -0.0016242794678933412 0.0010255185049762839 -0.0009024841912271053 0.0035552000502768618 -0.0001169714512554033 0.0
378 -0.0015834918439086843 0.0010240995874231634 -0.0009223928114670173 0.0035501891485563695 -9.536213554297661e-05 0.0
379 -0.0015451546867752367 0.0010227532013976123 -0.0009409470817370661 0.0035453677742587047 -7.5434445090689e-05 0.0
380 -0.0015090764612537314 0.0010214641472229152 -0.000958511838909055 0.003540686725557907 -5.705293145960158e-05 0.0
381 -0.0014750809175571018 0.0010202213275332997 -0.0009753463248282483 0.0035361101219953507 -4.009317210626762e-05 0.0
382 -0.0014430058811966996 0.0010190165735809984 -0.0009916347154487683 0.0035316115931133653 -2.444085879088501e-05 0.0
383 -0.0014127021373366517 0.0010178438112481885 -0.0010075078268354538 0.003527171571002664 -9.990966498956672e-06 0.0
384 -0.0013840324024790682 0.0010166984683841914 -0.0010230585480738045 0.003522775366875129 3.3530057961269e-06 0.0
385 -0.0013568703768105945 0.0010155770535473071 -0.0010383528140050782 0.0035184118043349033 1.5679729829179388e-05 0.0
386 -0.0013310998710179584 0.001014476856465976 -0.0010534374066970046 0.0035140722478405927 2.7070684446476953e-05 0.0
387 -0.0013066140018296946 0.0010133957349192499 -0.00106834550205181 0.0035097499116411176 3.7600739141241864e-05 0.0
388 -0.0012833144509618525 0.001012331962961998 -0.0010831006131203742 0.003505439367722762 4.7338689488523235e-05 0.0
389 -0.0012611107825424076 0.0010112841226878368 -0.001097719393403189 0.003501136194935886 5.634774870751545e-05 0.0
390 -0.0012399198144578052 0.00101025102688727 -0.0011122136295450885 0.003496836728258251 6.468599913185893e-05 0.0
391 -0.0012196650394107281 0.001009231663627517 -0.0011265916576538755 0.0034925378790753477 7.240680698824998e-05 0.0
392 -0.0012002760917989399 0.0010082251563869932 -0.0011408593697942084 0.0034882370058259052 7.955920355720477e-05 0.0
393 -0.0011816882568236326 0.001007230735228697 -0.00115502092907963 0.0034839318203729454 8.618823550503738e-05 0.0
394 -0.0011638420185122946 0.0010062477158104199 -0.0011690792775823262 0.0034796203197251857 9.233528692548775e-05 0.0
395 -0.0011466826435977224 0.0010052754839630141 -0.0011830364969355825 0.0034753007357621124 9.80383754065171e-05 0.0
396 -0.001130159798431729 0.0010043134842292246 -0.0011968940642155365 0.003470971497760713 0.00010333242423862052 0.0
397 -0.0011142271963324845 0.0010033612112252982 -0.0012106530333774557 0.0034666312040445403 0.00010824951270091098 0.0
398 -0.001098842272966202 0.0010024182030199179 -0.001224314163780803 0.0034622786001524044 0.0001128191061995784 0.0
399 -0.0010839658875515957 0.0010014840359608358 -0.0012378780111129135 0.003457912561687583 0.00011706826788578164 0.0
400 -0.0010695620478490837 0.0010005583205464515 -0.001251344991596232 0.0034535320805483462 0.00012102185324556308 0.0
401 -0.0010555976570554813 0.0009996406980573266 -0.0012647154272245288 0.0034491362536212375 0.00012470268903266477 0.0
402 -0.0010420422808726912 0.0009987308377462998 -0.0012779895775299616 0.003444724273288878 0.00012813173780308455 0.0
403 -0.001028867933154323 0.000997828434444666 -0.0012911676617942034 0.003440295419293736 0.00013132824920827552 0.0
404 -0.0010160488786604455 0.0009969332064832365 -0.001304249874489928 0.0034358490516326907 0.00013430989910962596 0.0
405 -0.0010035614515650263 0.000996044893856754 -0.0013172363959249298 0.0034313846042526 0.0001370929174918289 0.0
406 -0.0009913838884676837 0.0009951632565803096 -0.0013301273994986021 0.003426901579382013 0.0001396922060736555 0.0
407 -0.0009794961747603326 0.0009942880732010824 -0.0013429230565693826 0.0034223995423812367 0.0001421214464419057 0.0
408 -0.0009678799032881478 0.0009934191394389152 -0.0013556235396405293 0.0034178781170256167 0.00014439319946907178 0.0
409 -0.0009565181443293527 0.0009925562669362193 -0.0013682290243700575 0.003413336981159199 0.00014651899671323042 0.0
410 -0.0009453953259948421 0.0009916992821028341 -0.0013807396907601563 0.0034087758626723894 0.000148509424442936 0.0
411 -0.0009344971242187987 0.0009908480250448764 -0.0013931557237799445 0.00340419453576795 0.00015037420087892436 0.0
412 -0.0009238103615777993 0.0009900023485689428 -0.0014054773136038153 0.003399592817487206 0.0001521222471964333 0.0
413 -0.0009133229142357759 0.0009891621172551783 -0.0014177046555852862 0.0033949705644750355 0.00015376175278867269 0.0
414 -0.0009030236263675332 0.0009883272065933995 -0.0014298379500613067 0.0033903276699644405 0.00015530023525204862 0.0
415 -0.0008929022314649518 0.0009874975021776304 -0.0014418774020489647 0.0033856640609650833 0.00015674459551676012 0.0
416 -0.0008829492799770659 0.0009866728989551315 -0.001453823220874124 0.0033809796956425866 0.0001581011685125611 0.0
417 -0.0008731560727784556 0.0009858533005260785 -0.001465675619768703 0.003376274560875517 0.00015937576972842847 0.0
418 -0.0008635146000007842 0.0009850386184908698 -0.0014774348154511694 0.003371548669979667 0.00016057373799599188 0.0
419 -0.0008540174847987666 0.0009842287718419228 -0.0014891010277081978 0.003366802060588794 0.0001616999748004452 0.0
420 -0.0008446579316561738 0.0009834236863971674 -0.001500674478987269 0.0033620347926821806 0.00016275898039818493 0.0
421 -0.000835429678868529 0.0009826232942727268 -0.0015121553940038732 0.0033572469467502736 0.00016375488699823328 0.0
422 -0.0008263269548682252 0.0009818275333923576 -0.0015235439993670527 0.003352438622089818 0.00016469148924378753 0.0
423 -0.000817344438084066 0.0009810363470312109 -0.0015348405232284597 0.0033476099352201115 0.0001655722722115288 0.0
424 -0.0008084772200521815 0.000980249683391861 -0.0015460451949529832 0.003342761018413052 0.00016640043712857507 0.0
425 -0.0007997207715168217 0.000979467495210505 -0.0015571582448118976 0.003337892018329644 0.00016717892499160588 0.0
426 -0.0007910709112818014 0.0009786897393914034 -0.0015681799036982567 0.003333003094756157 0.00016791043825695206 0.0
427 -0.0007825237775910007 0.0009779163766676685 -0.0015791104028646586 0.0033280944194333142 0.0001685974607578312 0.0
428 -0.0007740758018347825 0.0009771473712867457 -0.001589949973680837 0.003323166174972597 0.00016924227599188725 0.0
429 -0.0007657236843953138 0.0009763826907189352 -0.0016006988474103947 0.0033182185538538607 0.00016984698391075094 0.0
430 -0.0007574643724583079 0.000975622305387267 -0.0016113572550088186 0.003313251757498353 0.00017041351633302057 0.0
431 -0.0007492950396330823 0.0009748661884175322 -0.0016219254269357777 0.003308265995412817 0.00017094365109193547 0.0
432 -0.0007412130672347283 0.0009741143154068356 -0.001632403592986784 0.0033032614843989537 0.00017143902502052912 0.0
433 -0.0007332160270947936 0.0009733666642096682 -0.001642791982136476 0.003298238447824654 0.0001719011458682318 0.0
434 -0.000725301665776392 0.0009726232147399196 -0.0016530908224014324 0.003293197114951506 0.00017233140323604534 0.0
435 -0.000717467890080931 0.0009718839487881242 -0.0016633003407114564 0.0032881377203159076 0.00017273107860958862 0.0
436 -0.00070971275374123 0.0009711488498525498 -0.001673420762795972 0.0032830605031590357 0.0001731013545638384 0.0
437 -0.0007020344452063466 0.0009704179029833446 -0.001683452313080471 0.003277965706902763 0.00017344332320606305 0.0
438 -0.0006944312764275141 0.0009696910946386307 -0.0016933952145956788 0.0032728535786676546 0.00017375799392042475 0.0
439 -0.0006869016725665651 0.0009689684125518928 -0.0017032496888943712 0.003267724368830686 0.00017404630046946292 0.0
440 -0.0006794441625499801 0.0009682498456096648 -0.0017130159559790043 0.0032625783306191956 0.00017430910750627633 0.0
441 -0.000672057370401021 0.0009675353837388748 -0.0017226942342372115 0.0032574157197387517 0.00017454721654473965 0.0
442 -0.0006647400072864887 0.0009668250178031364 -0.00173228474038449 0.0032522367940324218 0.00017476137143220019 0.0
443 -0.0006574908642196234 0.0009661187395072383 -0.0017417876894157283 0.0032470418131688356 0.00017495226336558862 0.0
444 -0.0006503088053663224 0.0009654165413093057 -0.001751203294563317 0.0032418310383571054 0.00017512053548790366 0.0
445 -0.0006431927619053722 0.0009647184163401276 -0.0017605317672594817 0.003236604732086843 0.00017526678709958325 0.0
446 -0.0006361417263971178 0.0009640243583289558 -0.0017697733171065156 0.0032313631578907947 0.00017539157751658902 0.0
447 -0.0006291547476196493 0.0009633343615354002 -0.001778928151851923 0.003226106580128779 0.00017549542960383266 0.0
448 -0.000622230925834004 0.0009626484206869579 -0.0017879964773677578 0.0032208352637912697 0.00017557883301083503 0.0
449 -0.0006153694084437658 0.0009619665309217066 -0.0017969784976354937 0.003215549474320954 0.00017564224713380062 0.0
450 -0.0006085693860157857 0.0009612886877358347 -0.0018058744147337732 0.0032102494774511035 0.00017568610382730346 0.0
451 -0.000601830088634019 0.0009606148869355392 -0.0018146844288319808 0.0032049355390591124 0.00017571080988517825 0.0
452 -0.0005951507825576937 0.000959945124593091 -0.0018234087381854022 0.0031996079250344485 0.00017571674931064762 0.0
453 -0.0005885307671597365 0.0009592793970066528 -0.0018320475391344357 0.003194266901159568 0.0001757042853924944 0.0
454 -0.0005819693721223263 0.0009586177006635122 -0.0018406010261087088 0.003188912733002634 0.00017567376260338896 0.0
455 -0.0005754659548679491 0.0009579600322067084 -0.0018490693916295522 0.003183545685821853 0.00017562550833543662 0.0
456 -0.0005690198982075663 0.0009573063884044434 -0.0018574528263199195 0.0031781660244793873 0.00017555983448576035 0.0
457 -0.0005626306081870848 0.0009566567661223159 -0.0018657515189144116 0.0031727740133649087 0.00017547703890519092 0.0
458 -0.0005562975121160105 0.0009560111622981395 -0.0018739656562699245 0.0031673699163279247 0.00017537740672129637 0.0
459 -0.0005500200567640772 0.0009553695739189345 -0.0018820954233823245 0.0031619539966175167 0.0001752612115456318 0.0
460 -0.00054379770671046 0.0009547319980002162 -0.0018901410034009069 0.003156526516829807 0.00017512871657587956 0.0
461 -0.0005376299428345223 0.0009540984315671285 -0.001898102577647799 0.0031510877388616363 0.00017498017560060045 0.0
462 -0.0005315162609355247 0.0009534688716375027 -0.0019059803256363062 0.0031456379238706967 0.00017481583391530325 0.0
463 -0.0005254561704704675 0.0009528433152064951 -0.0019137744250926026 0.0031401773322408864 0.00017463592915732532 0.0
464 -0.0005194491934011447 0.0009522217592327947 -0.0019214850519783384 0.0031347062235529 0.00017444069206577764 0.0
465 -0.0005134948631405534 0.0009516042006262886 -0.00192911238051295 0.0031292248565595597 0.00017423034717332808 0.0
466 -0.0005075927235905771 0.0009509906362369082 -0.0019366565832000318 0.00312373348916504 0.00017400511343545246 0.0
467 -0.0005017423282635529 0.0009503810628447804 -0.0019441178308518834 0.0031182323784083024 0.0001737652048022699 0.0
468 -0.0004959432394808025 0.0009497754771514267 -0.0019514962926162167 0.0031127217804498616 0.00017351083073776364 0.0
469 -0.0004901950276412016 0.0009491738757719358 -0.0019587921360041307 0.0031072019505616944 0.0001732421966911557 0.0
470 -0.00048449727055452146 0.0009485762552280648 -0.0019660055269188495 0.0031016731431200255 0.00017295950452410195 0.0
471 -0.0004788495528338666 0.0009479826119422309 -0.001973136629683869 0.003096135611600893 0.00017266295289762384 0.0
472 -0.0004732514653423611 0.0009473929422322246 -0.0019801856070729624 0.003090589608577928 0.00017235273762213172 0.0
473 -0.0004677026046891212 0.000946807242306616 -0.0019871526203409768 0.0030850353857222153 0.00017202905197394365 0.0
474 -0.0004622025727711569 0.0009462255082608109 -0.0019940378292551014 0.0030794731938040844 0.00017169208698065717 0.0
475 -0.0004567509763568079 0.0009456477360737718 -0.0020008413921247846 0.003073903282696859 0.00017134203167837268 0.0
476 -0.0004513474267070897 0.0009450739216051414 -0.002007563465835244 0.003068325901381714 0.0001709790733432766 0.0
477 -0.0004459915392322039 0.0009445040605929368 -0.0020142042058794666 0.003062741297954154 0.00017060339769948358 0.0
478 -0.00044068293318009534 0.0009439381486516627 -0.0020207637663911997 0.0030571497196316133 0.0001702151891052773 0.0
479 -0.00043542123135394725 0.0009433761812708804 -0.002027242300176994 0.003051551412762294 0.00016981463071988814 0.0
480 -0.000430206059857001 0.0009428181538140153 -0.0020336399587518646 0.0030459466228345113 0.00016940190465192925 0.0
481 -0.00042503704786125713 0.0009422640615176691 -0.002039956892370697 0.003040335594487412 0.00016897719209183235 0.0
482 -0.0004199138273991469 0.0009417138994910441 -0.0020461932500649028 0.0030347185715217883 0.00016854067342893394 0.0
483 -0.000414836033175498 0.0009411676627157968 -0.0020523491796752484 0.0030290957969119816 0.00016809252835504326 0.0
484 -0.000409803302398353 0.0009406253460460741 -0.002058424827886556 0.0030234675128181076 0.00016763293595547528 0.0
485 -0.0004048152746266949 0.0009400869442087009 -0.0020644203402641623 0.0030178339605984655 0.00016716207478886867 0.0
486 -0.0003998715916343949 0.0009395524518037307 -0.0020703358612867056 0.0030121953808228148 0.0001666801229562952 0.0
487 -0.00039497189728791447 0.0009390218633049336 -0.0020761715343847885 0.003006552013285165 0.00016618725816130477 0.0
488 -0.00039011583743736074 0.0009384951730607125 -0.0020819275019731526 0.003000904097017611 0.0001656836577612126 0.0
489 -0.00038530305981961533 0.000937972375294902 -0.0020876039054895045 0.0029952518703035024 0.00016516949881048608 0.0
490 -0.0003805332139722836 0.0009374534641079255 -0.00209320088542753 0.0029895955706914193 0.00016464495809709957 0.0
491 -0.00037580595115746523 0.0009369384334778365 -0.002098718581375588 0.002983935435008503 0.00016411021217251363 0.0
492 -0.00037112092429498214 0.0009364272772616187 -0.0021041571320515803 0.002978271699374245 0.00016356543737555988 0.0
493 -0.00036647778790341605 0.0009359199891964574 -0.0021095166753404854 0.002972604599213898 0.00016301080985131532 0.0
494 -0.00036187619804924553 0.0009354165629011879 -0.0021147973483296423 0.002966934369272108 0.0001624465055648064 0.0
495 -0.00035731581230243834 0.0009349169918776856 -0.002119999287346723 0.0029612612436260444 0.0001618727003106286 0.0
496 -0.0003527962896985066 0.0009344212695123979 -0.002125122627995777 0.002955585455698653 0.00016128956971848846 0.0
497 -0.0003483172907065182 0.0009339293890778637 -0.0021301675051946874 0.00294990723827154 0.00016069728925502256 0.0
498 -0.0003438784772016927 0.0009334413437342934 -0.0021351340532118034 0.002944226823497718 0.00016009603422278341 0.0
499 -0.0003394795124433807 0.0009329571265311332 -0.002140022405703935 0.002938544442913973 0.0001594859797559047 0.0
500 -0.00033512006105698244 0.000932476730408724 -0.002144832695752424 0.0029328603274532132 0.0001588673008133764 0.0
501 -0.0003307997890197295 0.0009320001481998084 -0.0021495650559032026 0.0029271747074559903 0.0001582401721699924 0.0
502 -0.00032651836365030885 0.0009315273726313166 -0.002154219618200535 0.002921487812682584 0.00015760476840500655 0.0
503 -0.0003222754536013988 0.0009310583963258526 -0.0021587965142279434 0.002915799872323809 0.00015696126388908049 0.0
504 -0.00031807072885512317 0.0009305932118033721 -0.002163295875144426 0.0029101111150121096 0.00015630983276955444 0.0
505 -0.0003139038607214072 0.0009301318114828052 -0.002167717831722097 0.00290442176883213 0.00015565064895403728 0.0
506 -0.0003097745218383107 0.000929674187683627 -0.0021720625143845733 0.0028987320613308213 0.0001549838860929249 0.0
507 -0.00030568238617501595 0.000929220332627437 -0.002176330053245165 0.002893042219527242 0.00015430971756041426 0.0
508 -0.00030162712903600763 0.000928770238439547 -0.002180520578144014 0.0028873524699220493 0.00015362831643496032 0.0
509 -0.0002976084270676995 0.0009283238971504777 -0.002184634218687374 0.002881663038506405 0.00015293985547836671 0.0
510 -0.00029362595826625443 0.000927881300697533 -0.0021886711042842207 0.0028759741507707916 0.00015224450711432818 0.0
511 -0.00028967940198678353 0.0009274424409262258 -0.002192631364185906 0.0028702860317130507 0.00015154244340629379 0.0
512 -0.0002857684389538187 0.0009270073095917993 -0.0021965151275227957 0.0028645989058464056 0.00015083383603473773 0.0
513 -0.00028189275127300404 0.0009265758983606026 -0.0022003225233437605 0.002858912997206714 0.0001501188562738528 0.0
514 -0.0002780520224436073 0.0009261481988114931 -0.002204053680654252 0.0028532285293594857 0.00014939767496794512 0.0
515 -0.00027424593737201015 0.0009257242024372247 -0.002207708728453866 0.002847545725406569 0.00014867046250741683 0.0
516 -0.0002704741823858376 0.0009253039006457555 -0.002211287795775012 0.0028418648079922577 0.0001479373888045523 0.0
517 -0.00026673644524876267 0.0009248872847615549 -0.002214791011720682 0.0028361859993091027 0.00014719862326909543 0.0
518 -0.00026303241517604855 0.0009244743460268076 -0.002218218505503933 0.0028305095211031105 0.0001464543347835642 0.0
519 -0.00025936178285038185 0.0009240650756026985 -0.0022215704064842638 0.0028248355946788764 0.00014570469167860312 0.0
520 -0.00025572424043813195 0.0009236594645705417 -0.0022248468442069404 0.0028191644409039603 0.00014494986170826872 0.0
521 -0.00025211948160613976 0.0009232575039329156 -0.0022280479484411454 0.0028134962802129735 0.00014419001202519745 0.0
522 -0.0002485472015386842 0.0009228591846148047 -0.00223117384921694 0.002807831332611407 0.00014342530915587245 0.0
523 -0.0002450070969546454 0.0009224644974646132 -0.0022342246768643154 0.0028021698176787725 0.0001426559189759717 0.0
524 -0.0002414988661247674 0.0009220734332551863 -0.0022372005620508693 0.002796511954571499 0.00014188200668586187 0.0
525 -0.0002380222088892686 0.0009216859826848373 -0.0022401016358185514 0.0027908579620255446 0.0001411037367860856 0.0
526 -0.00023457682667550882 0.0009213021363782281 -0.002242928029622643 0.0027852080583582956 0.00014032127305300962 0.0
527 -0.00023116242251548674 0.0009209218848873322 -0.0022456798753676863 0.002779562461470469 0.00013953477851479053 0.0
528 -0.00022777870106360082 0.0009205452186922101 -0.0022483573054470577 0.002773921388847111 0.00013874441542737577 0.0
529 -0.0002244253686142907 0.0009201721282019156 -0.0022509604527779117 0.0027682850575588076 0.00013795034525077753 0.0
530 -0.00022110213311959115 0.0009198026037552274 -0.0022534894508395944 0.0027626536842620354 0.00013715272862560248 0.0
531 -0.000217808704206739 0.0009194366356214163 -0.002255944433709813 0.0027570274851994006 0.0001363517253497487 0.0
532 -0.0002145447931952721 0.000919074214000914 -0.0022583255361020805 0.002751406676199309 0.00013554749435561145 0.0
533 -0.00021131011311482023 0.0009187153290260413 -0.0022606328934008414 0.0027457914726755836 0.00013474019368705012 0.0
534 -0.00020810437872177575 0.0009183599707615871 -0.0022628666416986947 0.0027401820896263544 0.00013392998047724938 0.0
535 -0.00020492730651667357 0.0009180081292054078 -0.002265026917832332 0.002734578741632794 0.0001331170109263249 0.0
536 -0.00020177861476047232 0.0009176597942889934 -0.0022671138594177187 0.0027289816428574996 0.00013230144027980578 0.0
537 -0.0001986580234916215 0.0009173149558779653 -0.0022691276048862515 0.002723391007042443 0.00013148342280681037 0.0
538 -0.00019556525454222576 0.0009169736037725799 -0.002271068293519301 0.0027178070475066918 0.00013066311177896653 0.0
539 -0.00019250003155415324 0.0009166357277081825 -0.002272936065482787 0.002712229977143794 0.00012984065944955601 0.0
540 -0.0001894620799949802 0.000916301317355591 -0.0022747310618625 0.00270666000841867 0.0001290162170329289 0.0
541 -0.00018645112717351322 0.0009159703623214882 -0.00227645342469781 0.0027010973533643655 0.00012818993468437448 0.0
542 -0.00018346690225539607 0.000915642852148782 -0.0022781032970152423 0.002695542223578468 0.00012736196148009876 0.0
543 -0.00018050913627784088 0.0009153187763168568 -0.0022796808228631752 0.0026899948302189806 0.00012653244539793566 0.0
544 -0.0001775775621648913 0.0009149981242419281 -0.0022811861473432836 0.0026844553840003394 0.00012570153329788421 0.0
545 -0.0001746719147415341 0.000914680885277257 -0.0022826194166437816 0.0026789240951887667 0.0001248693709035443 0.0
546 -0.00017179193074812538 0.0009143670487133266 -0.0022839807780727097 0.0026734011735973216 0.00012403610278351697 0.0
547 -0.00016893734885425166 0.0009140566037780756 -0.0022852703800885074 0.002667886828580967 0.00012320187233332447 0.0
548 -0.00016610790967241723 0.0009137495396370245 -0.0022864883723320776 0.002662381269031077 0.00012236682175760025 0.0
549 -0.00016330335577104243 0.000913445845393403 -0.0022876349056574646 0.002656884703369807 0.00012153109205287105 0.0
550 -0.00016052343168770192 0.0009131455100882303 -0.0022887101321627367 0.002651397339544113 0.00012069482299034508 0.0
551 -0.000157767883941622 0.0009128485227003967 -0.002289714205219431 0.002645919385019629 0.00011985815309932432 0.0
552 -0.00015503646104589997 0.0009125548721466665 -0.0022906472795027593 0.0026404510467741126 0.00011902121965093811 0.0
553 -0.00015232891351972487 0.0009122645472817092 -0.002291509511020023 0.0026349925312908412 0.00011818415864203442 0.0
554 -0.00014964499389950403 0.0009119775368980274 -0.002292301057140037 0.0026295440445515063 0.00011734710477990411 0.0
555 -0.00014698445675054037 0.000911693829725961 -0.0022930220766198255 0.002624105792029213 0.00011651019146680508 0.0
556 -0.00014434705867781032 0.0009114134144335734 -0.0022936727296327198 0.0026186779786809594 0.00011567355078520106 0.0
557 -0.0001417325583365689 0.0009111362796265153 -0.002294253177795874 0.0026132608089398934 0.00011483731348325075 0.0
558 -0.00013914071644227077 0.0009108624138479351 -0.002294763584195163 0.0026078544867076045 0.00011400160896086484 0.0
559 -0.0001365487773360123 0.0009082533170877944 -0.0022877627258202898 0.002595787920713524 0.00011265987045147173 0.0
560 -0.0001339676876500497 0.0009016656409999539 -0.002268713703526439 0.0025724214188322125 0.00011047005844300692 0.0
561 -0.00013147712134659614 0.0008950795701682762 -0.0022511913910023638 0.0025491380225083726 0.00010828946168333655 0.0
562 -0.00012907058288697226 0.0008885125837563582 -0.002234745543539087 0.0025259911174200095 0.00010612142927233817 0.0
563 -0.0001267422105345426 0.0008819765224633474 -0.00221906597152926 0.0025030164318637486 0.00010396880419708416 0.0
564 -0.00012448669756739817 0.0008754793507884485 -0.002203938858469341 0.0024802375664331514 0.00010183401160225778 0.0
565 -0.00012229922724891432 0.0008690263696863568 -0.0021892167062043276 0.0024576697976527464 9.971912614161659e-05 0.0
566 -0.00012017541823989131 0.0008626210509621217 -0.0021747976559120734 0.0024353226941523083 9.762592438610678e-05 0.0
567 -0.00011811127809577358 0.0008562656113401398 -0.0021606112597970183 0.0024132019159051354 9.555592643046267e-05 0.0
568 -0.00011610316314980136 0.0008499614073770496 -0.0021466086910553175 0.002391310451443471 9.35104295814668e-05 0.0
569 -0.00011414774353996662 0.0008437092070832944 -0.0021327560075341694 0.002369649468429092 9.149053614523329e-05 0.0
570 -0.00011224197245651557 0.0008375093767017963 -0.002119029516465052 0.0023482188982399898 8.94971767357264e-05 0.0
571 -0.00011038305891212033 0.0008313620091050982 -0.0021054125848471664 0.0023270178375882685 8.753113011629388e-05 0.0
572 -0.00010856844349676383 0.000825267012022182 -0.0020918934445247656 0.002306044824284035 8.559304030265414e-05 0.0
573 -0.00010679577669537778 0.000819224168628073 -0.002078463681686466 0.0022852980264399378 8.368343145868038e-05 0.0
574 -0.00010506289943084288 0.0008132331791213805 -0.002065117197303358 0.0022647753721504946 8.18027209787618e-05 0.0
575 -0.00010336782555747209 0.000807293689225512 -0.0020518494916151615 0.0022444746382452117 7.995123105391977e-05 0.0
576 -0.00010170872607620907 0.0008014053096979939 -0.002038657171598784 0.0022243935109098538 7.81291989508833e-05 0.0
577 -0.00010008391487964265 0.0007955676296583554 -0.0020255376118777134 0.002204529626976945 7.633678618365104e-05 0.0
578 -9.849183586256341e-05 0.0007897802256686534 -0.002012488721219969 0.002184880601940253 7.45740867216819e-05 0.0
579 -9.693105125613695e-05 0.000784042667896699 -0.0019995087817021627 0.0021654440488559595 7.284113435242279e-05 0.0
580 -9.540023106124723e-05 0.0007783545242775276 -0.0019865963378797886 0.002146217590994863 7.113790929652492e-05 0.0
581 -9.389814347243505e-05 0.0007727153633020849 -0.0019737501203790056 0.0021271988702128955 6.94643441582767e-05 0.0
582 -9.242364619510957e-05 0.0007671247558662664 -0.0019609689931773438 0.0021083855523941373 6.78203292827601e-05 0.0
583 -9.097567856939451e-05 0.0007615822764774439 -0.0019482519171959637 0.0020897753308950387 6.620571758169737e-05 0.0
584 -8.955325442466314e-05 0.0007560875040231999 -0.0019355979251159138 0.0020713659286294445 6.462032888135184e-05 0.0
585 -8.815545559429823e-05 0.0007506400222420619 -0.0019230061039336916 0.002053155099230946 6.306395384095749e-05 0.0
586 -8.678142602867815e-05 0.0007452394199931062 -0.0019104755828366479 0.0020351406275949504 6.153635748393388e-05 0.0
587 -8.543036645031877e-05 0.0007398852913898895 -0.0018980055247536634 0.0020173203300046178 6.0037282379635016e-05 0.0
588 -8.410152950005262e-05 0.0007345772358442551 -0.0018855951204330293 0.001999692053982665 5.856645150979669e-05 0.0
589 -8.279421532902191e-05 0.0007293148580505794 -0.0018732435842668074 0.0019822536779642466 5.712357084972967e-05 0.0
590 -8.150776759359054e-05 0.0007240977679316441 -0.0018609501513209817 0.0019650031108567516 5.570833169254697e-05 0.0
591 -8.024156981738477e-05 0.0007189255805602271 -0.0018487140752002245 0.0019479382915303578 5.432041274002916e-05 0.0
592 -7.899504208494294e-05 0.000713797916066378 -0.0018365346264850972 0.0019310571882702014 5.295948198336917e-05 0.0
593 -7.77676380366129e-05 0.000708714399536379 -0.001824411091575326 0.0019143577982086897 5.162519839364129e-05 0.0
594 -7.655884213671038e-05 0.00070367466090814 -0.00181234277180855 0.0018978381467525936 5.0317213440257526e-05 0.0
595 -7.536816719002967e-05 0.0006986783348656094 -0.0018003289827737445 0.001881496287012824 4.903517245360667e-05 0.0
596 -7.41951520825573e-05 0.0006937250607341057 -0.0017883690537629064 0.0018653302992426288 4.7778715847524455e-05 0.0
597 -7.303935972670146e-05 0.0006888144823776594 -0.001776462327318396 0.0018493382902874927 4.654748021437365e-05 0.0
598 -7.190037519146982e-05 0.0006839462480991104 -0.0017646081588503768 0.0018335183930488894 4.53410993053676e-05 0.0
599 -7.0777804000852e-05 0.0006791200105433332 -0.0017528059163022685 0.0018178687659629155 4.4159204906948426e-05 0.0
600 -6.967127058423155e-05 0.0006743354266036359 -0.0017410549798555267 0.0018023875924938213 4.30014276236231e-05 0.0
601 -6.858041686540768e-05 0.000669592157331592 -0.0017293547416594344 0.001787073080643094 4.186739757590183e-05 0.0
602 -6.750490097704003e-05 0.0006648898678501274 -0.0017177046055810764 0.0017719234624734358 4.0756745021790694e-05 0.0
603 -6.644439608915303e-05 0.0006602282272696674 -0.0017061039869745265 0.0017569369936469084 3.966910090911586e-05 0.0
604 -6.539858934052813e-05 0.0006556069086074754 -0.0016945523124596014 0.0017421119529775076 3.860409736581067e-05 0.0
605 -6.43671808645531e-05 0.0006510255887098152 -0.0016830490197129082 0.0017274466419969494 3.7561368133571114e-05 0.0
606 -6.334988289983246e-05 0.0006464839481768773 -0.00167159355726765 0.001712939384533346 3.654054895102098e-05 0.0
607 -6.234641897820345e-05 0.0006419816712903014 -0.0016601853843206684 0.0016985885263021546 3.5541277891067536e-05 0.0
608 -6.135652318281677e-05 0.0006375184459432381 -0.001648823970546012 0.0016843924345090965 3.456319565711809e-05 0.0
609 -6.037993947034387e-05 0.0006330939635726315 -0.0016375087959151044 0.001670349497463993 3.360594584188642e-05 0.0
610 -5.941642105051484e-05 0.000628707919093779 -0.0016262393505213032 0.0016564581242055625 3.2669175153091475e-05 0.0
611 -5.846572981852479e-05 0.000624360010836835 -0.0016150151344123953 0.0016427167441360605 3.175253360884605e-05 0.0
612 -5.752763583508347e-05 0.0006200499404854501 -0.0016038356574227244 0.001629123806666274 3.085567470602239e-05 0.0
613 -5.660191684975467e-05 0.0006157774130170831 -0.0015927004390152023 0.0016156777808693104 2.997825556431181e-05 0.0
614 -5.568835786385037e-05 0.0006115421366451689 -0.0015816090081230666 0.0016023771551437079 2.911993704831133e-05 0.0
615 -5.478675072885199e-05 0.0006073438227628225 -0.001570560902999232 0.0015892204368847466 2.828038387013771e-05 0.0
616 -5.389689377752836e-05 0.0006031821858883068 -0.0015595556710650597 0.0015762061521645998 2.7459264674330693e-05 0.0
617 -5.301859148451206e-05 0.0005990569436117111 -0.0015485928687679546 0.0015633328454195425 2.6656252107031588e-05 0.0
618 -5.215165415393478e-05 0.0005949678165433362 -0.0015376720614369568 0.0015505990791456357 2.5871022870932128e-05 0.0
619 -5.129589763120616e-05 0.0005909145282631464 -0.0015267928231463693 0.0015380034336008792 2.510325776775698e-05 0.0
620 -5.045114303746561e-05 0.0005868968052716938 -0.0015159547365792652 0.0015255445065149626 2.435264172920108e-05 0.0
621 -4.9617216523467446e-05 0.0005829143769422342 -0.00150515739289486 0.0015132209128056844 2.361886383827303e-05 0.0
622 -4.879394904286515e-05 0.0005789669754738888 -0.001494400391599822 0.001501031284301564 2.290161734106395e-05 0.0
623 -4.7981176141597036e-05 0.0005750543358460623 -0.0014836833404214913 0.001488974269471127 2.220059965093844e-05 0.0
624 -4.717873776263872e-05 0.0005711761957738841 -0.0014730058551828146 0.0014770485331581861 2.151551234558284e-05 0.0
625 -4.638647806473458e-05 0.0005673322956646201 -0.0014623675596824714 0.0014652527563228015 2.0846061157721526e-05 0.0
626 -4.5604245253890675e-05 0.000563522378575135 -0.0014517680855749837 0.0014535856357881444 2.019195596023888e-05 0.0
627 -4.483189142621379e-05 0.0005597461901702772 -0.0014412070722546243 0.001442045883992793 1.955291074652932e-05 0.0
628 -4.406927242140788e-05 0.0005560034786821789 -0.001430684166740743 0.0014306322287483807 1.892864360647681e-05 0.0
629 -4.3316247685701915e-05 0.0005522939948703489 -0.0014201990235674865 0.0014193434130021496 1.8318876698778237e-05 0.0
630 -4.257268014404543e-05 0.0005486174919828133 -0.0014097513046714021 0.0014081781946051375 1.77233362196838e-05 0.0
631 -4.183843607973833e-05 0.0005449737257178222 -0.0013993406792866298 0.0013971353460844565 1.7141752369236696e-05 0.0
632 -4.1113385021734294e-05 0.0005413624541864822 -0.0013889668238384139 0.0013862136544207314 1.6573859314834678e-05 0.0
633 -4.03973996385182e-05 0.0005377834378761582 -0.001378629421839137 0.0013754119208301194 1.6019395152752916e-05 0.0
634 -3.9690355638185006e-05 0.000534236439614556 -0.0013683281637873817 0.0013647289605506262 1.5478101867822503e-05 0.0
635 -3.899213167411373e-05 0.0005307212245345303 -0.0013580627470678815 0.0013541636026327907 1.4949725291594963e-05 0.0
636 -3.8302609255891004e-05 0.000527237560039601 -0.001347832875854441 0.0013437146897345982 1.443401505918052e-05 0.0
637 -3.762167266454049e-05 0.0005237852157701133 -0.0013376382610128085 0.001333381077920455 1.3930724565282329e-05 0.0
638 -3.694920887291403e-05 0.0005203639635700599 -0.001327478620007615 0.0013231616364641294 1.3439610918898179e-05 0.0
639 -3.6285107469124016e-05 0.0005169735774545122 -0.0013173536768089243 0.0013130552476555398 1.2960434897918428e-05 0.0
640 -3.5629260584374175e-05 0.0005136138335777405 -0.0013072631618010375 0.001303060806611518 1.2492960902785097e-05 0.0
641 -3.498156282372e-05 0.0005102845102018081 -0.001297206811693718 0.0012931772210898987 1.2036956910053852e-05 0.0
642 -3.434191120018195e-05 0.0005069853876658589 -0.0012871843694335073 0.0012834034113075137 1.1592194425582278e-05 0.0
643 -3.371020507158323e-05 0.0005037162483558488 -0.0012771955841185784 0.00127373830976132 1.1158448437686745e-05 0.0
644 -3.308634608021497e-05 0.0005004768766749432 -0.001267240210912756 0.0012641808610532968 1.0735497370171859e-05 0.0
645 -3.2470238094830295e-05 0.0004972670590143919 -0.0012573180109623238 0.0012547300217184418 1.03231230355123e-05 0.0
646 -3.186178715471116e-05 0.0004940865837249241 -0.001247428751313666 0.0012453847600560437 9.921110588298139e-06 0.0
647 -3.1260901416272757e-05 0.0004909352410886092 -0.0012375722048334034 0.0012361440559639594 9.529248478644959e-06 0.0
648 -3.066749110137157e-05 0.00048781282329133675 -0.0012277481501278035 0.0012270069007763223 9.147328406032658e-06 0.0
649 -3.0081468447388033e-05 0.0004847191243956765 -0.0012179563714644682 0.0012179722971039795 8.775145273507699e-06 0.0
650 -2.9502747659094923e-05 0.0004816539403141623 -0.001208196658697227 0.00120903925867768 8.412497142208419e-06 0.0
651 -2.8931244862169482e-05 0.00047861706878321553 -0.0011984688071881137 0.00120020681019467 8.059185186273597e-06 0.0
652 -2.8366878057949336e-05 0.0004756083093373131 -0.0011887726177343691 0.0011914739871674838 7.715013648344287e-06 0.0
653 -2.780956707969457e-05 0.0004726274632837466 -0.001179107896494501 0.0011828398357758738 7.379789795479229e-06 0.0
654 -2.725923355025731e-05 0.00046967433367772743 -0.0011694744549155893 0.0011743034127211977 7.053323875506811e-06 0.0
655 -2.671580084070563e-05 0.0004667487252979516 -0.0011598721096627216 0.0011658637850834866 6.73542907406894e-06 0.0
656 -2.6179194030450738e-05 0.00046385044462252947 -0.0011503006825487002 0.0011575200301809448 6.425921471998123e-06 0.0
657 -2.5649339868075423e-05 0.0004609792998053418 -0.001140760000465309 0.0011492712354319804 6.124620003480714e-06 0.0
658 -2.5126166733169253e-05 0.000458135100652828 -0.0011312498953141084 0.0011411164982198098 5.831346414800886e-06 0.0
659 -2.4609604599567637e-05 0.0004553176586010597 -0.0011217702039408501 0.0011330549257590995 5.545925223404058e-06 0.0
660 -2.4099584998889646e-05 0.00045252678669329105 -0.0011123207680679586 0.0011250856349652601 5.2681836779145014e-06 0.0
661 -2.3596040985454735e-05 0.0004497622995577764 -0.0011029014342310163 0.001117207752325666 4.997951718443356e-06 0.0
