lar-deeufba/potential_fields_with_aruco/src/custom_codes/csv_files/csv_to_eps/csv_files/ATTFORCE_AAPF_OriOFF.csv
Index Joint1 Joint2 Joint3 Joint4 Joint5 Joint6
0 -0.0013627644619158689 0.002021639770278917 0.03798615009605476 0.0056898315052890955 -0.0007852485986063069 0.0
1 -0.0013786661569109367 0.002024736275202259 0.038154762452842265 0.005641648140305614 -0.0007900689339167498 0.0
2 -0.0013949538914302686 0.002027658010429832 0.03831499042011076 0.0055909080037042855 -0.0007950367742167716 0.0
3 -0.0014116399388025332 0.0020304000124050235 0.03846642132147727 0.005537545749023417 -0.0008001575973607643 0.0
4 -0.0014287368361173113 0.0020329570990938735 0.03860862399116562 0.005481494358447309 -0.0008054369220902529 0.0
5 -0.0014462573477449624 0.002035323836143058 0.03874114754327694 0.005422685080849601 -0.0008108802794870303 0.0
6 -0.0014642144195496257 0.0020374944987502914 0.038863520061281055 0.005361047375354443 -0.0008164931791135037 0.0
7 -0.0014826211223045419 0.002039463028881739 0.03897524720901232 0.005296508863120215 -0.0008222810690970896 0.0
8 -0.001501490582626326 0.00204122298746883 0.039075810766510836 0.005228995290647891 -0.0008282492893300958 0.0
9 -0.001520835899536004 0.002042767501224041 0.039164667096680976 0.005158430508614266 -0.000834403016865911 0.0
10 -0.0015406700445312002 0.0020440892037353014 0.03924124555206533 0.005084736471041495 -0.0008407472024978347 0.0
11 -0.0015610057428183982 0.0020451801705354856 0.039304946835189036 0.005007833260551633 -0.0008472864974105363 0.0
12 -0.0015818553331111802 0.0020460318479022447 0.03935514133107598 0.0049276391465291666 -0.0008540251686987589 0.0
13 -0.0016032306031565063 0.002046634975230131 0.03939116743685031 0.004844070684236968 -0.0008609670024578234 0.0
14 -0.0016251425979159112 0.0020469795009390606 0.039412329921007454 0.004757042864308386 -0.0008681151930711721 0.0
15 -0.0016476013971152871 0.0020470544920491536 0.039417898354178034 0.0046664693235728 -0.0008754722172592636 0.0
16 -0.0016706158587035656 0.0020468480377721257 0.0394071056642287 0.004572262629859005 -0.0008830396914213448 0.0
17 -0.0016941933246505474 0.002046347147755075 0.03937914688155749 0.004474334655244029 -0.0008908182108095863 0.0
18 -0.0017183392854978534 0.002045537645976574 0.03933317815563661 0.00437259705414387 -0.0008988071691395782 0.0
19 -0.0017430570001923883 0.002044404061751175 0.03926831614137367 0.004266961864625419 -0.0009070045573816102 0.0
20 -0.0017683470680265093 0.002042929519861037 0.0391836378737653 0.004157342253277951 -0.0009154067407172402 0.0
21 -0.001794206950039996 0.0020410956325158784 0.03907818127153456 0.004043653425804629 -0.0009240082130129448 0.0
22 -0.00182063043807365 0.0020388823966566274 0.03895094643471982 0.003925813727025032 -0.0009328013286893181 0.0
23 -0.0018476070708797019 0.0020362681010714025 0.03880089792698885 0.0038037459550103216 -0.0009417760125857303 0.0
24 -0.0018751214983752822 0.002033229248885389 0.0386269682599044 0.0036773789143359145 -0.0009509194493743631 0.0
25 -0.0019031527973611007 0.002029740502208634 0.03842806282210466 0.0035466492325957506 -0.0009602157553019581 0.0
26 -0.001931673744905106 0.0020257746570520106 0.03820306651943978 0.0034115034619700037 -0.000969645636566524 0.0
27 -0.001960650059185135 0.002021302658004852 0.03795085240986641 0.0032719004832977225 -0.0009791860404948464 0.0
28 -0.0019900396219444333 0.002016293663533507 0.03767029262588227 0.003127814223244227 -0.0009888098078839923 0.0
29 -0.002019791701843555 0.0020107151740001122 0.037360271873149525 0.002979236685208577 -0.000998485337389666 0.0
30 -0.0020498462038276563 0.0020045332354667734 0.03701970377153886 0.0028261812810444504 -0.0010081762756328366 0.0
31 -0.0020801329760093863 0.0019977127328507627 0.03664755025826068 0.0026686864330128443 -0.001017841249650621 0.0
32 -0.0021105712122087223 0.0019902177857969456 0.036242844195833374 0.002506819393379918 -0.0010274336612718902 0.0
33 -0.0021410689947525146 0.001982012259465215 0.03580471521439772 0.0023406802027668714 -0.001036901565713053 0.0
34 -0.0021715230278045077 0.001973060400005874 0.03533241866347017 0.002170405678266873 -0.0010461876588447286 0.0
35 -0.0022018186155791674 0.0019633276005388096 0.03482536735008315 0.0019961732896120275 -0.0010552293987783556 0.0
36 -0.002231829941342676 0.0019527812977424383 0.03428316549959599 0.0018182047482230206 -0.0010639592872058623 0.0
37 -0.002261420701078045 0.0019413919915878014 0.03370564409883824 0.0016367691025985565 -0.0010723053338121398 0.0
38 -0.002290445139056009 0.0019291343713943466 0.033092896482097525 0.001452185107865731 -0.0010801917226196764 0.0
39 -0.002318749520440989 0.0019159885205582705 0.03244531272011853 0.0012648226217943045 -0.0010875396919786161 0.0
40 -0.0023461740579676306 0.0019019411606391347 0.031763611100121436 0.001075102778919207 -0.0010942686299537788 0.0
41 -0.0023725552857251538 0.0018869868839438378 0.031048864777024423 0.0008834967131431865 -0.0011002973742616927 0.0
42 -0.002397728844042497 0.001871129313581757 0.030302521572419933 0.000690522640839505 -0.0011055456912478201 0.0
43 -0.0024215326071507534 0.0018543821226527217 0.0295264149369753 0.0004967411826853566 -0.0011099358926788217 0.0
44 -0.002443810052400375 0.001836769841279495 0.028722764304488103 0.0003027488921116227 -0.0011133945337821589 0.0
45 -0.002464413739765511 0.0018183283829165467 0.027894163467308324 0.00010917006684513925 -0.001115854122725618 0.0
46 -0.002483208746985586 0.0017991052305905545 0.027043556186902105 -8.335296051559162e-05 -0.00111725476241985 0.0
47 -0.0025000758926161607 0.001779159239560756 0.02617419898765388 -0.0002741707377380536 -0.0011175456417970532 0.0
48 -0.0025149145793212403 0.0017585600345343044 0.025289611908209098 -0.00046263839288174366 -0.0011166862967294585 0.0
49 -0.002527645104361007 0.0017373870053130768 0.02439351882339842 -0.0006481276180890908 -0.00111464757090295 0.0
50 -0.002538210313000141 0.0017157279320912525 0.02348977971077943 -0.0008300383939410555 -0.0011114122237262576 0.0
51 -0.0025465765111151242 0.001693677297632027 0.022582317831470397 -0.0010078099126773856 -0.0011069751542705235 0.0
52 -0.002552733601544119 0.0016713343652985568 0.021675045154718894 -0.0011809302056099871 -0.001101343235071797 0.0
53 -0.002556694459522429 0.0016488011169578242 0.020771789438263258 -0.00134894406791295 -0.0010945347747331662 0.0
54 -0.002558493610416915 0.0016261801515650037 0.019876226176906833 -0.0015114589927676014 -0.0010865786509675053 0.0
55 -0.0025581853130319534 0.001603572643341951 0.018991818181134632 -0.0016681489630469787 -0.001077513173768896 0.0
56 -0.002555841180433473 0.0015810764485988803 0.018121764907269237 -0.001818756087423373 -0.0010673847502702897 0.0
57 -0.0025515474856922546 0.0015587844340736363 0.017268962910286113 -0.0019630901950105093 -0.0010562464279208147 0.0
58 -0.002545402302176654 0.0015367830794441992 0.016435978014579713 -0.0021010266073473206 -0.001044156391182455 0.0
59 -0.002537512618600504 0.0015151513848720407 0.015625029073429084 -0.0022325023817374584 -0.0010311764800214783 0.0
60 -0.0025279915506382397 0.001493960093340745 0.01483798257400088 -0.0023575113631670013 -0.0010173707875524211 0.0
61 -0.0025169557467792474 0.0014732712189852127 0.014076356878364647 -0.0024760983947213185 -0.0010028043809630377 0.0
62 -0.002504523059433822 0.001453137857762087 0.013341334586152595 -0.0025883530231151494 -0.0009875421759148848 0.0
63 -0.0024908105259325184 0.0014336042462492684 0.012633781355317597 -0.0026944030029309044 -0.0009716479813153108 0.0
64 -0.0024759326801194765 0.0014147060280726553 0.011954269503528877 -0.0027944078573162332 -0.0009551837196624925 0.0
65 -0.0024600001951066855 0.0013964706850083438 0.011303104805214435 -0.002888552700728236 -0.000938208818649511 0.0
66 -0.0024431188420903508 0.0013789180905002972 0.010680355066271158 -0.0029770424763046494 -0.0009207797625948864 0.0
67 -0.0024253887389987807 0.0013620611463568033 0.010085879269609997 -0.003060096710708956 -0.0009029497874816526 0.0
68 -0.00240690385578304 0.0013459064679414328 0.009519356313871982 -0.0031379448455421083 -0.0008847687006793156 0.0
69 -0.002387751739755159 0.0013304550885433958 0.008980312594457866 -0.0032108221680741426 -0.0008662828054291974 0.0
70 -0.0023680134237864183 0.0013157031592211559 0.00846814788611799 -0.003278966335533203 -0.0008475349104932924 0.0
71 -0.0023477634816545506 0.0013016426258340022 0.007982159170929435 -0.0033426144661657556 -0.0008285644066126769 0.0
72 -0.002327070197694711 0.0012882618699235234 0.007521562210313682 -0.003402000755945045 -0.0008094073932528073 0.0
73 -0.002305995821591075 0.0012755463044166924 0.007085510784061408 -0.0034573545711043736 -0.0007900968412504402 0.0
74 -0.0022845968831915874 0.002334716437953689 0.03716701267954259 -0.00016512230820759418 -0.000623474177182964 0.0
75 -0.0022750290094496087 0.0020241991648822935 0.028026807202556972 -0.0012653691546427696 -0.0006482446288279765 0.0
76 -0.002258290473963565 0.0017896631281343004 0.021160304075541307 -0.002060717513430669 -0.0006606278158433456 0.0
77 -0.0022377138765153097 0.001612653342707721 0.015998920063572876 -0.002640396100340114 -0.0006641813788831662 0.0
78 -0.0022151728056040605 0.0014790849084967879 0.012115304822444183 -0.0030658172496321927 -0.0006613854324086275 0.0
79 -0.002191692740530467 0.0013782974496492689 0.009190079906116116 -0.0033797035594419805 -0.000653981975519141 0.0
80 -0.002167823051716988 0.0013022493130668586 0.00698475311206429 -0.003612161859453264 -0.0006432113675280892 0.0
81 -0.0021438514626673857 0.0012448792077231498 0.0053209961312542 -0.0037846844070957304 -0.0006299698890305748 0.0
82 -0.0021199242673155603 0.001201616973477193 0.004065190182061482 -0.003912795737304883 -0.0006149139758282057 0.0
83 -0.007671129152118021 0.0012337278994149325 0.002833495553243986 -0.004342075735556802 -0.005130543553681662 0.0
84 -0.007244842496675202 0.0012122757403912852 0.0022046499755452673 -0.004402135945816813 -0.0047744191059063724 0.0
85 -0.006841450086744578 0.0011957093347989103 0.0017323975797646632 -0.004443379439761846 -0.004437943376798868 0.0
86 -0.0064598122154063175 0.0011827625520530807 0.0013777386707323725 -0.004470342903675465 -0.0041201358126368 0.0
87 -0.006098843860322863 0.0011724919268098358 0.0011113107908800415 -0.004486464803589259 -0.003820063269409533 0.0
88 -0.00575750949852745 0.001164196355802871 0.0009110163949756142 -0.004494360598955034 -0.003536831941675848 0.0
89 -0.005434819371936697 0.0011573565321888815 0.0007602360261456181 -0.004496025694819144 -0.0032695831000425567 0.0
90 -0.005129826814304733 0.0011515892723673075 0.000646480809630867 -0.004492986308680231 -0.003017491051470357 0.0
91 -0.004841626296248523 0.00114661309178904 0.0005603754685401456 -0.0044864123413950775 -0.0027797623069955556 0.0
92 -0.004569351922045398 0.001142222282827768 0.0004948905053964064 -0.004477202254726418 -0.0025556353253883297 0.0
93 -0.004312176187436347 0.0011382674195521162 0.0004447624758736029 -0.004466047160249601 -0.002344380455227829 0.0
94 -0.004069308870142597 0.0011346407195235227 0.0004060563708869235 -0.004453479372787551 -0.0021452998626190086 0.0
95 -0.003839995972113636 0.0011312650740208892 0.0003758354104758173 -0.0044399092969920236 -0.001957727336152864 0.0
96 -0.003623518666305265 0.0011280858464755028 0.00035191203181906346 -0.00442565351874865 -0.0017810279248335116 0.0
97 -0.0034191922237845826 0.0011250647573707343 0.0003326602431892513 -0.004410956246270745 -0.0016145974024074732 0.0
98 -0.003226364911901063 0.0011221753395244582 0.0003168743413437137 -0.0043960057105049966 -0.0014578615722399297 0.0
99 -0.0030444168634581777 0.0011193995733439009 0.0003036626398732079 -0.004380946737162119 -0.0013102754369112995 0.0
100 -0.0028727589220578394 0.0011167254069766308 0.0002923676192610131 -0.0043658904059496115 -0.0011713222602364323 0.0
101 -0.0027108314713976886 0.0011141449385774034 0.0002825060021798306 -0.004350921489936653 -0.0010405125491673088 0.0
102 -0.0025581032572266947 0.0011116530927055659 0.0002737238427137846 -0.004336104200346325 -0.0009173829807739903 0.0
103 -0.0024140702105619623 0.001109246664367175 0.0002657629186774591 -0.004321486635535016 -0.0008014952962947956 0.0
104 -0.002278254280082762 0.001106923635617345 0.0002584356250524848 -0.004307104237229618 -0.00069243518076254 0.0
105 -0.0021502022806388402 0.0011046826933754778 0.000251606254329136 -0.004292982484628429 -0.0005898111433259972 0.0
106 -0.002029484763721166 0.0011025228950285904 0.00024517706970424635 -0.004279139002038938 -0.0004932534102903219 0.0
107 -0.0019156949146599195 0.001100443441913906 0.00023907797026250887 -0.004265585214046515 -0.00040241284018654414 0.0
108 -0.001808447480299697 0.0010984435309506107 0.00023325884425961802 -0.00425232765056217 -0.0003169598678682962 0.0
109 -0.0017073777299886168 0.001096522262344484 0.00022768393080280268 -0.0042393689800526565 -0.00023658348270804152 0.0
110 -0.0016121404519198119 0.0010946785870351462 0.00022232767932933608 -0.004226708830971859 -0.0001609902443898334 0.0
111 -0.0015193516889569884 0.0011344605423366 0.0013952905731640878 -0.004088008505534465 -7.711734215520421e-05 0.0
112 -0.0014330060685070242 0.0011636385441964603 0.002266425080099835 -0.003981276377139538 -1.1755821076490718e-06 0.0
113 -0.0013525433979704622 0.0011849276875986973 0.002912113529532798 -0.0038987395156656096 6.799765340474934e-05 0.0
114 -0.001277480765006605 0.0012003644074688737 0.003389847692791003 -0.00383443702620577 0.00013132082065160557 0.0
115 -0.0012073958300961546 0.001211470630219636 0.0037427155229815164 -0.0037838383968303245 0.0001895278653511771 0.0
116 -0.0011419147476560232 0.0012193805803413916 0.00400290515982853 -0.00374352245072426 0.0002432125077742091 0.0
117 -0.001080703249108503 0.0012249376326779271 0.004194402097499028 -0.003710917788260478 0.00029286123858874604 0.0
118 -0.0010234599272045176 0.001228767698026014 0.004335044329170021 -0.0036840982348745666 0.0003388779929369667 0.0
119 -0.0009699110849428971 0.0012313345090600226 0.004438076931417793 -0.003661624393896656 0.00038160266589318454 0.0
120 -0.0009198067193867369 0.0012329810948700068 0.0045133217603207446 -0.0036424223795080346 0.00042132505314867693 0.0
121 -0.0008729173439419406 0.001233960795887658 0.0045680540677129795 -0.0036256917989462047 0.00045829538269531186 0.0
122 -0.0008290314399139524 0.0012344604008161864 0.00460765750114947 -0.0036108363641018117 0.0004927322997507775 0.0
123 -0.0007879533865732884 0.0012346173739204555 0.004636112381442375 -0.003597411808678372 0.0005248289452353081 0.0
124 -0.0007495017590649272 0.0012345326626807742 0.004656359032426404 -0.0035850869302965047 0.000554757604751575 0.0
125 -0.000713507911727281 0.0012342802078260536 0.004670567741241175 -0.0035736145269486307 0.0005826732841058009 0.0
126 -0.0006798147847127845 0.0012339139973898087 0.004680339102580828 -0.003562809759101947 0.0006087164775293269 0.0
127 -0.0006482758867169975 0.0012334732942778464 0.004686852548882198 -0.003552534065952274 0.0006330153277467686 0.0
128 -0.0006187544177284367 0.0012329865071038764 0.0046909763708685 -0.003542683225287187 0.0006556873269738929 0.0
129 -0.0005911225040691448 0.0012324740542318505 0.004693349150088396 -0.0035331784984102732 0.0006768406704854384 0.0
130 -0.0005652605243315048 0.0012319504813402664 0.004694439989779437 -0.003523960068312761 0.0006965753463753774 0.0
131 -0.0005410565096460692 0.0012314260259308363 0.004694593035355872 -0.00351498218027912 0.0007149840241629787 0.0
132 -0.0005184056054022859 0.0012309077723612716 0.004694060362319728 -0.0035062095449539246 0.0007321527892114369 0.0
133 -0.0004972095843680596 0.0012304005038950758 0.004693026256823829 -0.003497614676740402 0.0007481617581927046 0.0
134 -0.0004773764033184977 0.0012299073306967956 0.004691625131366511 -0.0034891759246154707 0.0007630856020610429 0.0
135 -0.00045881979694269674 0.0012294301522329679 0.004689954736632351 -0.003480876015177532 0.0007769939964449707 0.0
136 -0.00044145890407151534 0.0012289699973535662 0.004688085898985985 -0.0034727009743984526 0.0007899520144722338 0.0
137 -0.00042521792224826395 0.0012285272740699038 0.004686069693144422 -0.0034646393292088002 0.000802020473386982 0.0
138 -0.0004100257874175806 0.0012281019527029394 0.004683942722450396 -0.003456681515762943 0.00081325624358889 0.0
139 -0.00039581587608910804 0.0012276936998993496 0.004681731003612619 -0.0034488194402949343 0.0008237125266852104 0.0
140 -0.0003825257277835568 0.0012273019764409776 0.004679452822845739 -0.0034410461525996314 0.000833439107622188 0.0
141 -0.00037009678591819385 0.001226926108392033 0.004677120834256731 -0.003433355602626309 0.000842482584822484 0.0
142 -0.0003584741555637194 0.0012265653386282964 0.004674743600292156 -0.0034257424584044176 0.0008508865813997855 0.0
143 -0.0003476063767210756 0.0012262188639453155 0.004672326721590039 -0.003418201969236036 0.0008586919398790399 0.0
144 -0.00033744521193717426 0.0012258858615775568 0.004669873664823139 -0.003410729862312248 0.0008659369023675234 0.0
145 -0.00032794544721845536 0.0012255655079534177 0.004667386368535701 -0.0034033222640263015 0.0008726572777539767 0.0
146 -0.0003190647053122747 0.0012252569917669326 0.004664865685869962 -0.0033959756395568175 0.0008788865972347375 0.0
147 -0.00031076327051940514 0.0012249595228986743 0.004662311707532521 -0.0033886867459891465 0.0008846562592512713 0.0
148 -0.0003030039242772692 0.0012246723383135853 0.004659723996884763 -0.003381452595492427 0.0008899956647587963 0.0
149 -0.0002957517908197803 0.0012243947057654463 0.004657101760604921 -0.003374270425989488 0.0008949323436159738 0.0
150 -0.00028897419227450177 0.0012241259259176192 0.004654443972147326 -0.0033671376774341627 0.0008994920727847359 0.0
151 -0.00028264051260770196 0.0012238653333279325 0.004651749460654335 -0.003360051972308281 0.000903698986947089 0.0
152 -0.0002767220698693188 0.001223612296626274 0.0046490169746122335 -0.0033530110993164005 0.0009075756820809427 0.0
153 -0.0002711919962291889 0.0012233662181256443 0.0046462452270675655 -0.0033460129995254496 0.0009111433124819144 0.0
154 -0.0002660251253293551 0.0012231265330427052 0.004643432927401302 -0.003339055754393875 0.0009144216816734812 0.0
155 -0.0002611978865083626 0.0012228927084565408 0.004640578803329845 -0.0033321375752790186 0.000917429327609615 0.0
156 -0.0002566882054820906 0.0012226642420989848 0.004637681615810567 -0.0033252567941188154 0.0009201836025408646 0.0
157 -0.00025247541109147564 0.0012224406610445158 0.004634740168820917 -0.0033184118550606675 0.0009227007478865095 0.0
158 -0.00024854014775167787 0.0012222215203485333 0.004631753315444676 -0.0033116013068682 0.0009249959644299862 0.0
159 -0.00024029449506273972 0.0011771696200339908 0.0033529613389764114 -0.0034480496175110674 0.0009224507980622233 0.0
160 -0.00023149177402259936 0.0011440030955803193 0.0024148172816827154 -0.003545791192553518 0.0009224661813699518 0.0
161 -0.00022243166498614106 0.0011195576520603146 0.0017259529143795608 -0.003615430180348854 0.0009242379945837584 0.0
162 -0.00021333601610223793 0.001101513518751318 0.001219632785509042 -0.003664611724982879 0.0009271721890929782 0.0
163 -0.0002043641330060478 0.001088168840259182 0.0008470400385943329 -0.0036988750271455886 0.0009308351598943765 0.0
164 -0.00019562676712522875 0.0010782745412042346 0.0005724294536467061 -0.0037222478797570274 0.0009349140096980844 0.0
165 -0.00018719785736272536 0.0010709136688175555 0.00036961126602454283 -0.0037376664670035562 0.0009391856666064581 0.0
166 -0.00017912393280746953 0.001065413052871676 0.00021939079401013116 -0.0037472748627067998 0.0009434933369233617 0.0
167 -0.0001714314271853328 0.0010612785305764932 0.00010769888183846969 -0.0037526404115813703 0.0009477287827357618 0.0
168 -0.00016413225948040767 0.001058147402231547 2.4224073618806137e-05 -0.0037549095500403057 0.0009518191067320144 0.0
169 -0.0001572280328298951 0.0010557535120707202 -3.8589475607070335e-05 -0.0037549210355060213 0.0009557169662593863 0.0
170 -0.00015071316009353992 0.0010539015932287316 -8.627677425473361e-05 -0.0037532884872129627 0.0009593933663434287 0.0
171 -0.0001445771697588634 0.001052448417110378 -0.0001228910252392191 -0.003750460689294263 0.0009628323762119459 0.0
172 -0.0001388063933394248 0.0010512889434304768 -0.00015139914269987446 -0.003746765712831373 0.0009660272716908337 0.0
173 -0.00013338519014692557 0.001050346146382804 -0.00017397196506670817 -0.0037424432289939317 0.0009689777296320272 0.0
174 -0.0001282968283788891 0.0010495635434004408 -0.00019219716840603832 -0.0037376681863097515 0.0009716877956521837 0.0
175 -0.00012352411230263428 0.0010488997105797477 -0.00020723542747602013 -0.003732568163867581 0.0009741644185380125 0.0
176 -0.00011904982277715402 0.0010483242581571623 -0.00021993491151177293 -0.003727236089442986 0.0009764163987623731 0.0
177 -0.00011485702118004913 0.0010478148786724926 -0.00023091519655808876 -0.003721739558867377 0.0009784536388597659 0.0
178 -0.00011092925384860627 0.001047355182917446 -0.00024062873519185846 -0.0037161276627436512 0.0009802866132882938 0.0
179 -0.00010725068443906768 0.0010469331141825754 -0.00024940586359497034 -0.0037104359851041434 0.0009819259974659102 0.0
180 -0.00010380617437629705 0.0010465397868207106 -0.00025748773772008016 -0.003704690261664722 0.0009833824119085007 0.0
181 -0.00010058132620170403 0.0010461686359896957 -0.0002650504228885011 -0.003698909055544315 0.0009846662493207597 0.0
182 -9.756250065629352e-05 0.0010458147954855886 -0.0002722225031580102 -0.0036931057130582807 0.000985787561230664 0.0
183 -9.47368154101068e-05 0.001045474642675026 -0.00027909794635076106 -0.0036872897922510827 0.0009867559871490272 0.0
184 -9.209213119205663e-05 0.001045145465779741 -0.00028574549752228336 -0.00368146810547263 0.000987580713906424 0.0
185 -8.961702949241568e-05 0.0010448252207010985 -0.0002922155336285354 -0.003675645479594052 0.0009882704562244175 0.0
186 -8.730078484745361e-05 0.001044512353337951 -0.00029854506257783386 -0.00366982530977616 0.000988833452060485 0.0
187 -8.51333338674802e-05 0.0010442056697842845 -0.0003047613667973711 -0.003664009962392229 0.0009892774680699767 0.0
188 -8.310524254689899e-05 0.0010439042415128625 -0.00031088465721738445 -0.003658201067806507 0.0009896098118414606 0.0
189 -8.120767294402063e-05 0.0010436073361115093 -0.00031693000522013855 -0.003652399732785758 0.0009898373485122886 0.0
190 -0.0001552810186333383 0.0010823768471761544 0.0007229044180368169 -0.003534100227500697 0.0009386888229569109 0.0
191 -0.00015812674232246844 0.0011456917850064465 0.0024957153231822374 -0.0033262682344501636 0.0009430934784240109 0.0
192 -0.0001622674147609265 0.0011912821752625917 0.003774668780373945 -0.0031737049579131887 0.0009443505319100314 0.0
193 -0.0001671406576397933 0.0012240252746572968 0.004694459084862936 -0.00306178955959153 0.0009435390366239391 0.0
194 -0.00017237845520624693 0.001247490543253963 0.0053542597869214465 -0.0029795327840114122 0.0009413913624515891 0.0
195 -0.0001777400017275077 0.001264273859582242 0.005826509616156383 -0.002918791528006755 0.0009384058397062579 0.0
196 -0.00018306876020449976 0.0012762544318663694 0.006163814328745151 -0.0028735919313789345 0.0009349216087176744 0.0
197 -0.0001882645950274693 0.0012847880934261544 0.006404215649738116 -0.002839582824412277 0.0009311688185876655 0.0
198 -0.00019326540270200984 0.0012908506339125007 0.006575137560626245 -0.0028136113709151056 0.0009273026221227287 0.0
199 -0.00019803482609582102 0.0012951430152352598 0.006696303551065478 -0.0027934017471462564 0.0009234264018977854 0.0
200 -0.00020255393537387258 0.0012981680608612621 0.00678187356000657 -0.0027773158748514368 0.0009196077560607327 0.0
201 -0.00020681554030397824 0.0013002860689091409 0.00684199921117719 -0.0027641772861192425 0.0009158895637956857 0.0
202 -0.00021082027500946823 0.0013017549923192472 0.00688395041865148 -0.0027531424988191293 0.0009122976762538492 0.0
203 -0.00021457389188204732 0.001302759389529929 0.00691292871283879 -0.0027436076222925555 0.0009088462759704095 0.0
204 -0.00021808538866255084 0.0013034312412030379 0.006932652913212964 -0.0027351408234442104 0.0009055416162413138 0.0
205 -0.00022136571389263013 0.0013038648947043341 0.0069457800589201564 -0.002727433640842875 0.0009023846301329004 0.0
206 -0.00022442687592906142 0.001304127779583405 0.0069542074875424235 -0.0027202659663841593 0.0008993727485216812 0.0
207 -0.00022728133443458508 0.0013042680831388286 0.0069592893651007175 -0.002713480901490782 0.0008965011636611514 0.0
208 -0.00022994158986297915 0.0013043202439679683 0.006961991745954259 -0.002706966728086138 0.000893763703718008 0.0
209 -0.00023241991168996228 0.0013043088810853582 0.006963003524097809 -0.002700643995397561 0.0008911534343327284 0.0
210 -0.00023472816369059802 0.0013042516024436854 0.006962815768260777 -0.002694456279468158 0.0008886630687660968 0.0
211 -0.00023687769685185435 0.0013041610114016722 0.006961778415414885 -0.0026883635760664294 0.0008862852440152578 0.0
212 -0.00023887928915526698 0.0013040461395187309 0.0069601407620462526 -0.002682337579882061 0.0008840127032923875 0.0
213 -0.00024074311756618725 0.0013039134692696148 0.006958080368823227 -0.002676358313713186 0.00088183841330134 0.0
214 -0.00024247875188746748 0.0013037676637771478 0.0069557236842914556 -0.002670411723119456 0.0008797556363183663 0.0
215 -0.00024409516319272816 0.0013036120873261053 0.0069531607533310944 -0.0026644879610912284 0.0008777579711430401 0.0
216 -0.00024560074172660343 0.0013034491765411156 0.006950455702378679 -0.0026585801655769946 0.0008758393727929966 0.0
217 -0.0002470033206956135 0.001303280705016973 0.006947654210875446 -0.002652683588844949 0.0008739941578625283 0.0
218 -0.000248310203465307 0.001303107971959581 0.0069447888330074516 -0.002646794977870291 0.0008722170003806557 0.0
219 -0.00024952819244984875 0.00130293193665166 0.006941882786753272 -0.002640912133726106 0.0008705029215377895 0.0
220 -0.0002506636185272323 0.0013027533143081386 0.006938952650623102 -0.002635033598550338 0.0008688472756160937 0.0
221 -0.0002517223701965101 0.001302572644422528 0.006936010282265286 -0.0026291584333853315 0.0008672457337336761 0.0
222 -0.00025270992196608583 0.0013023903395190856 0.006933064182984947 -0.0026232860607071323 0.000865694266501449 0.0
223 -0.0002536313616489146 0.0013022067199508836 0.006930120467860821 -0.0026174161529776887 0.0008641891263363267 0.0
224 -0.00025449141637511746 0.0013020220387622815 0.006927183555247698 -0.00261154855391568 0.0008627268299228893 0.0
225 -0.00025529447722112914 0.0013018364994771155 0.006924256656691572 -0.00260568322301088 0.0008613041411437276 0.0
226 -0.0002560446224182897 0.0013016502688498839 0.006921342124948327 -0.0025998201965355934 0.0008599180546771013 0.0
227 -0.00025674563914540035 0.00130146348602972 0.006918441701154566 -0.002593959560253445 0.0008585657803777996 0.0
228 -0.00025740104393678367 0.001301276269168722 0.006915556690351451 -0.0025881014304119194 0.0008572447285007605 0.0
229 -0.00025801410175580413 0.0013010887202084362 0.0069126880861226465 -0.002582245940592947 0.0008559524957880848 0.0
230 -0.0002585878437938589 0.0013009009283664798 0.006909836659105519 -0.0025763932326983343 0.000854686852414941 0.0
231 -0.0002591250840606865 0.001300712972694434 0.006907003019858423 -0.0025705434508475206 0.0008534457297732575 0.0
232 -0.00025962843483445867 0.0013005249239710411 0.006904187663531506 -0.0025646967373205275 0.000852227209061596 0.0
233 -0.0002601003210403805 0.0013003368461184796 0.006901391001627057 -0.0025588532299320003 0.0008510295106434402 0.0
234 -0.0002605429936248681 0.0013001487972753225 0.0068986133846011335 -0.0025530130604018136 0.0008498509841332515 0.0
235 -0.0002609585419903578 0.0012999608306213791 0.006895855117969979 -0.002547176353414982 0.0008486900991682519 0.0
236 -0.0002613489055538965 0.0012997729950221361 0.006893116473806641 -0.002541343226154716 0.0008475454368233394 0.0
237 -0.00026171588448731595 0.0012995853355412187 0.006890397698968668 -0.002535513788155815 0.0008464156816291165 0.0
238 -0.000262061149696223 0.0012993978938554583 0.0068876990210056666 -0.0025296881413715555 0.0008452996141525033 0.0
239 -0.0002623862520894661 0.0012992107085972383 0.006885020652417126 -0.00252386638037946 0.0008441961041028767 0.0
240 -0.0002626926311889561 0.0012990238156419904 0.006882362793739152 -0.0025180485926736334 0.000843104103927566 0.0
241 -0.0002629816231257599 0.0012988372483536993 0.006879725635798422 -0.0025122348590075703 0.0008420226428631569 0.0
242 -0.00026325446806582756 0.0012986510377975937 0.006877109361368792 -0.0025064252537631863 0.0008409508214107489 0.0
243 -0.00026351231710513423 0.001298465212927023 0.006874514146406217 -0.002500619845328524 0.0008398878062058311 0.0
244 -0.000263756238672155 0.0012982798007493144 0.006871940160975804 -0.0024948186964737946 0.0008388328252547293 0.0
245 -0.0002639872244724326 0.0012980948264744937 0.006869387569961329 -0.002489021864717797 0.0008377851635118573 0.0
246 -0.00026420619500768704 0.001297910313649572 0.006866856533614651 -0.0024832294026805512 0.0008367441587736767 0.0
247 -0.0002644140046998157 0.0012977262842806241 0.00686434720799072 -0.0024774413584191133 0.0008357091978668211 0.0
248 -0.0002646114466477905 0.0012975427589441949 0.006861859745295321 -0.002471657775745593 0.0008346797131095437 0.0
249 -0.0002647992570436708 0.0012973597568894967 0.006859394294171832 -0.0024658786945263205 0.0008336551790269745 0.0
250 -0.0002649781192719964 0.0012971772961323303 0.00685695099993908 -0.0024601041509625726 0.0008326351093021194 0.0
251 -0.0002651486677151425 0.0012969953935416112 0.006854530004792382 -0.0024543341778533343 0.0008316190539457906 0.0
252 -0.00026531149128556703 0.0012968140649193337 0.006852131447978929 -0.0024485688048402152 0.0008306065966698652 0.0
253 -0.0002654671367046998 0.0012966333250743708 0.006849755465947324 -0.0024428080586362433 0.0008295973524491696 0.0
254 -0.0002656161115461342 0.0012964531878909002 0.0068474021924834726 -0.0024370519632383398 0.000828590965258817 0.0
255 -0.0002657588870604561 0.0012962736663916829 0.006845071758828742 -0.0024313005401253958 0.000827587105974103 0.0
256 -0.00026589590079689816 0.0012960947727967392 0.006842764293787492 -0.0024255538084421886 0.000826585470421619 0.0
257 -0.0002660275590366917 0.0012959165185777266 0.006840479923823432 -0.002419811785170439 0.0008255857775705223 0.0
258 -0.00026615423905149637 0.0012957389145084404 0.006838218773149076 -0.0024140744852874448 0.0008245877678539874 0.0
259 -0.00026627629119921803 0.0012955619707115543 0.006835980963804557 -0.0024083419219137546 0.0008235912016116613 0.0
260 -0.00026639404086913 0.0012953856967021296 0.006833766615733508 -0.002402614106449818 0.0008225958576442578 0.0
261 -0.0002665077902870601 0.00129521010142786 0.006831575846849138 -0.002396891048703307 0.0008216015318722669 0.0
262 -0.0002666178201904606 0.001295035193306481 0.006829408773096421 -0.002391172757007117 0.0008206080360914698 0.0
263 -0.0002667243913830404 0.0012948609802605603 0.006827265508511545 -0.0023854592383286436 0.000819615196818046 0.0
264 -0.00026682774617727776 0.001294687469749707 0.006825146165274007 -0.0023797504983715653 0.0008186228542170917 0.0
265 -0.00026692810973297763 0.0012945146688004585 0.0068230508537546935 -0.002374046541670307 0.0008176308611084464 0.0
266 -0.0002670256912993685 0.001294342584034176 0.006820979682564236 -0.0023683473716772526 0.0008166390820442767 0.0
267 -0.00026712068536774696 0.0012941712216927278 0.0068189327585919095 -0.0023626529908444306 0.0008156473924531696 0.0
268 -0.00026721327274086925 0.0012940005876625603 0.006816910187047884 -0.002356963400698565 0.0008146556778461453 0.0
269 -0.0002673036215251302 0.0012938306874968723 0.006814912071497557 -0.0023512786019113325 0.0008136638330800748 0.0
270 -0.00026739188805125424 0.001293661526436311 0.006812938513896392 -0.002345598594364225 0.0008126717616742564 0.0
271 -0.0002674782177286647 0.0012934931094281772 0.006810989614621819 -0.0023399233772088486 0.0008116793751762912 0.0
272 -0.0002675627458377439 0.001293325441144193 0.006809065472501276 -0.002334252948923053 0.0008106865925741355 0.0
273 -0.0002676455982653947 0.0012931585259971122 0.0068071661848410955 -0.0023285873073627663 0.0008096933397502956 0.0
274 -0.00026772689218691276 0.0012929923681560499 0.0068052918474510865 -0.0023229264498103386 0.0008086995489759317 0.0
275 -0.0002678067366991299 0.0012928269715607968 0.0068034425546692765 -0.0023172703730192966 0.0008077051584411749 0.0
276 -0.0002678852334074667 0.0012926623399350454 0.006801618399383219 -0.0023116190732560553 0.0008067101118196986 0.0
277 -0.00026796247697041516 0.0012924984767987394 0.006799819473051988 -0.0023059725463384258 0.0008057143578649227 0.0
278 -0.00026803855560509406 0.0012923353854795159 0.006798045865725436 -0.0023003307876715666 0.000804717850035146 0.0
279 -0.00026811355155573034 0.0012921730691233515 0.0067962976660631644 -0.002294693792281237 0.0008037205461462207 0.0
280 -0.0002681875415287445 0.0012920115307044169 0.00679457496135101 -0.0022890615548448725 0.0008027224080490405 0.0
281 -0.0002682605970958074 0.0012918507730343039 0.006792877837518862 -0.002283434069720149 0.0008017234013308225 0.0
282 -0.0002683327850682533 0.0012916907987705149 0.006791206379154632 -0.002277811330971896 0.000800723495037668 0.0
283 -0.0002684041678439332 0.0012915316104244346 0.0067895606695202206 -0.0022721933323967525 0.0007997226614175917 0.0
284 -0.00026847480372916996 0.0012913732103686957 0.006787940790565066 -0.002266580067546253 0.0007987208756820429 0.0
285 -0.0002685447472374712 0.0012912156008440226 0.00678634682293898 -0.002260971529748321 0.0007977181157846979 0.0
286 -0.0002686140493664216 0.0012910587839656173 0.006784778846004999 -0.0022553677121271458 0.0007967143622164439 0.0
287 -0.00026868275785453495 0.0012909027617291058 0.006783236937851846 -0.0022497686076216232 0.0007957095978152551 0.0
288 -0.0002687509174195835 0.001290747536016022 0.006781721175304532 -0.0022441742090026817 0.0007947038075898181 0.0
289 -0.00026881856997956375 0.0012905931085989706 0.006780231633936151 -0.0022385845088891757 0.0007936969785560498 0.0
290 -0.00026888575485770955 0.0012904394811463944 0.0067787683880781635 -0.002232999499762793 0.000792689099585466 0.0
291 -0.0002689525089724802 0.0012902866552269888 0.006777331510829786 -0.0022274191739819755 0.0007916801612646919 0.0
292 -0.0002690188670141229 0.001290134632313887 0.006775921074068871 -0.0022218435237946702 0.0007906701557649552 0.0
293 -0.0002690848616078662 0.0012899834137884896 0.006774537148460939 -0.002216272541350324 0.0007896590767214877 0.0
294 -0.0002691505234658538 0.0012898330009440276 0.00677317980346732 -0.0022107062187111687 0.0007886469191213001 0.0
295 -0.00026921588152765415 0.0012896833949889593 0.0067718491073556295 -0.0022051445478623753 0.0007876336791994236 0.0
296 -0.00026928096309070327 0.001289534597050043 0.006770545127207116 -0.0021995875207218504 0.0007866193543426315 0.0
297 -0.00026934579393149524 0.0012893866081752625 0.006769267928925387 -0.002194035129149202 0.0007856039430000247 0.0
298 -0.00026941039841740723 0.0012892394293365318 0.006768017577244743 -0.002188487364954062 0.0007845874446005656 0.0
299 -0.00026947479961104357 0.0012890930614322246 0.006766794135737898 -0.00218294421990391 0.0007835698594761669 0.0
300 -0.00026953901936664697 0.0012889475052895159 0.006765597666823345 -0.0021774056857314056 0.000782551188790669 0.0
301 -0.0002696030784195396 0.001288802761666611 0.0067644282317737845 -0.0021718717541410323 0.0007815314344739809 0.0
302 -0.00026966699646920224 0.0012886588312547873 0.00676328589072299 -0.0021663424168155074 0.0007805105991609538 0.0
303 -0.00026973079225612006 0.0012885157146803189 0.006762170702673423 -0.0021608176654215987 0.0007794886861348661 0.0
304 -0.0002697944836333105 0.001288373412506267 0.00676108272550302 -0.0021552974916157026 0.0007784656992748671 0.0
305 -0.00026985808763245776 0.0012882319252341744 0.006760022015972791 -0.0021497818870488765 0.0007774416430074139 0.0
306 -0.0002699216205252467 0.0012880912533056348 0.006758988629733711 -0.00214427084337165 0.0007764165222612707 0.0
307 -0.0002699850978803365 0.0012879513971037794 0.00675798262133397 -0.0021387643522384307 0.0007753903424257443 0.0
308 -0.00027004853461630614 0.0012878123569546325 0.006757004044225005 -0.0021332624053117897 0.0007743631093119099 0.0
309 -0.00027011194505031667 0.0012876741331284273 0.0067560529507690575 -0.002127764994266237 0.0007733348291170104 0.0
310 -0.00027017534294386585 0.001287536725840813 0.006755129392245502 -0.002122272110791924 0.0007723055083910136 0.0
311 -0.00027023874154471475 0.001287400135254022 0.006754233418858248 -0.002116783746597941 0.0007712751540060091 0.0
312 -0.0002703021536260895 0.0012872643614778964 0.00675336507974102 -0.002111299893415668 0.0007702437731276307 0.0
313 -0.00027036559152275727 0.0012871294045709398 0.006752524422965238 -0.0021058205430015816 0.0007692113731887885 0.0
314 -0.0002704290671648409 0.0012869952645412535 0.006751711495546089 -0.0021003456871400974 0.0007681779618650844 0.0
315 -0.00027049259210884616 0.0012868619413474423 0.006750926343449355 -0.0020948753176461303 0.0007671435470522944 0.0
316 -0.0002705561775667085 0.0012867294348994332 0.006750169011597075 -0.0020894094263676473 0.000766108136845322 0.0
317 -0.0002706198344325804 0.001286597745059322 0.006749439543875551 -0.002083948005187741 0.0007650717395188156 0.0
318 -0.00027068357330774283 0.0012864668716420617 0.006748737983139806 -0.002078491046027032 0.0007640343635092007 0.0
319 -0.0002707474045236517 0.0012863368144162416 0.006748064371222001 -0.0020730385408454163 0.000762996017398066 0.0
320 -0.000270811338163522 0.001286207573104714 0.006747418748936359 -0.002067590481644144 0.0007619567098966598 0.0
321 -0.0002708753840820993 0.0012860791473852731 0.006746801156086764 -0.0020621468604674212 0.0007609164498317149 0.0
322 -0.00027093955192410233 0.0012859515368912355 0.006746211631472347 -0.0020567076694041715 0.0007598752461322647 0.0
323 -0.0002710038511415146 0.001285824741212027 0.006745650212894148 -0.0020512729005895698 0.0007588331078173154 0.0
324 -0.00027106829100931605 0.0012856987598937383 0.0067451169371617135 -0.0020458425462064477 0.000757790043984669 0.0
325 -0.0002711328806404407 0.0012855735924396255 0.006744611840098716 -0.002040416598486792 0.0007567460638003295 0.0
326 -0.0002711976289993266 0.0012854492383106567 0.006744134956550846 -0.0020349950497128236 0.0007557011764889382 0.0
327 -0.0002712625449147537 0.0012853256969259327 0.006743686320390497 -0.002029577892218435 0.0007546553913247591 0.0
328 -0.00027132763709165485 0.0012852029676631758 0.006743265964524129 -0.002024165118390193 0.0007536087176234044 0.0
329 -0.0002713929141220624 0.001285081049859158 0.006742873920898441 -0.002018756720668453 0.000752561164734215 0.0
330 -0.00027145838449539595 0.0012849599428101362 0.00674251022050727 -0.0020133526915482904 0.0007515127420331229 0.0
331 -0.00027152405660790785 0.0012848396457722034 0.0067421748933964385 -0.0020079530235806624 0.0007504634589161466 0.0
332 -0.00027158993877163614 0.0012847201579617414 0.006741867968672149 -0.0020025577093730398 0.0007494133247932398 0.0
333 -0.0002716560392224069 0.001284601478555713 0.0067415894745051766 -0.0019971667415905254 0.0007483623490828601 0.0
334 -0.0002717223661275742 0.0012844836066920964 0.006741339438139442 -0.0019917801129563845 0.0007473105412067168 0.0
335 -0.00027178892759328194 0.0012843665414701852 0.006741117885897023 -0.001986397816252975 0.0007462579105848896 0.0
336 -0.0002718557316708101 0.001284250281950921 0.00674092484318476 -0.0019810198443224137 0.0007452044666316124 0.0
337 -0.0002719227863629157 0.00128413482715723 0.00674076033450099 -0.001975646190067215 0.0007441502187510723 0.0
338 -0.0002719900996295659 0.0012840201760743273 0.006740624383441731 -0.0019702768464509527 0.0007430951763336552 0.0
339 -0.0002720576793932182 0.001283906327650009 0.006740517012706894 -0.001964911806498877 0.0007420393487525263 0.0
340 -0.00027212553354387424 0.0012837932807949475 0.006740438244106791 -0.0019595510632984562 0.0007409827453603839 0.0
341 -0.00027219366994379315 0.001283681034382989 0.0067403880985688605 -0.0019541946099998968 0.0007399253754864596 0.0
342 -0.00027226209643176866 0.0012835695872514148 0.00674036659614377 -0.0019488424398166645 0.0007388672484338498 0.0
343 -0.0002723308208271894 0.0012834589382012145 0.006740373756011906 -0.0019434945460259537 0.0007378083734770025 0.0
344 -0.0002723998509338678 0.0012833490859973408 0.006740409596489689 -0.0019381509219691603 0.0007367487598593806 0.0
345 -0.0002724691945436751 0.001283240029368956 0.006740474135035668 -0.0019328115610523452 0.0007356884167912694 0.0
346 -0.0002725388594396992 0.0012831317670097065 0.006740567388257802 -0.0019274764567465226 0.0007346273534479327 0.0
347 -0.00027260885339958166 0.0012830242975779458 0.00674068937191929 -0.0019221456025881266 0.0007335655789676454 0.0
348 -0.00027267918419835493 0.0012829176196969922 0.006740840100945476 -0.0019168189921793099 0.0007325031024500905 0.0
349 -0.0002727498596111909 0.0012828117319553176 0.0067410195894292025 -0.0019114966191884225 0.00073143993295483 0.0
350 -0.0002728208874160481 0.0012827066329068129 0.0067412278506382576 -0.0019061784773502012 0.0007303760794998437 0.0
351 -0.00027289227539609336 0.00128260232107099 0.006741464897021246 -0.0019008645604661515 0.0007293115510602416 0.0
352 -0.0002729640313419256 0.0012824987949332338 0.00674173074021503 -0.0018955548624047037 0.0007282463565671176 0.0
353 -0.0002730361630539103 0.0012823960529449623 0.006742025391049589 -0.0018902493771016994 0.0007271805049063342 0.0
354 -0.00027310867834410863 0.001282294093523875 0.00674234885955553 -0.0018849480985605011 0.0007261140049175956 0.0
355 -0.0002731815850382306 0.0012821929150541721 0.006742701154971028 -0.0018796510208521752 0.0007250468653935062 0.0
356 -0.00027325489097765424 0.0012820925158866928 0.006743082285746225 -0.0018743581381159943 0.0007239790950785953 0.0
357 -0.0002733286040210081 0.0012819928943392034 0.006743492259552363 -0.0018690694445593044 0.0007229107026686446 0.0
358 -0.00027340273204579796 0.0012818940486965056 0.006743931083285714 -0.001863784934458045 0.0007218416968100018 0.0
359 -0.00027347728295021615 0.0012817959772107048 0.006744398763076117 -0.00185850460215669 0.0007207720860987464 0.0
360 -0.00027355226465447416 0.001281698678101341 0.00674489530429178 -0.0018532284420686332 0.0007197018790802248 0.0
361 -0.0002736276851023534 0.001281602149555629 0.006745420711547236 -0.001847956448676172 0.0007186310842484097 0.0
362 -0.00027370355226257956 0.001281506389728605 0.006745974988708705 -0.0018426886165308046 0.0007175597100454017 0.0
363 -0.0002737798741301021 0.001281411396743314 0.00674655813890071 -0.0018374249402533676 0.0007164877648610014 0.0
364 -0.000273856658727522 0.001281317168691025 0.006747170164513584 -0.0018321654145340366 0.0007154152570321609 0.0
365 -0.00027393391410614524 0.0012812237036313506 0.006747811067208299 -0.0018269100341326721 0.0007143421948427363 0.0
366 -0.0002740116483474718 0.0012811309995924708 0.006748480847924164 -0.0018216587938787955 0.0007132685865228995 0.0
367 -0.00027408986956410137 0.0012810390545712755 0.006749179506884657 -0.0018164116886717758 0.0007121944402489902 0.0
368 -0.0002741685859009163 0.0012809478665335907 0.006749907043605474 -0.001811168713480726 0.0007111197641431596 0.0
369 -0.00027424780553632116 0.0012808574334142353 0.006750663456897609 -0.001805929863345063 0.0007100445662729921 0.0
370 -0.000274327536683156 0.001280767753117335 0.006751448744878288 -0.0018006951333740112 0.0007089688546513355 0.0
371 -0.00027440778758988134 0.0012806788235163653 0.006752262904973851 -0.0017954645187471519 0.0007078926372359699 0.0
372 -0.00027448856654146725 0.001280590642454378 0.006753105933928166 -0.001790238014714253 0.0007068159219294666 0.0
373 -0.000274569881860555 0.0012805032077441256 0.006753977827807939 -0.0017850156165954971 0.000705738716578869 0.0
374 -0.0002746517419082369 0.0012804165171682621 0.006754878582010619 -0.0017797973197813558 0.0007046610289756384 0.0
375 -0.0002747341550852666 0.0012803305684794906 0.006755808191270503 -0.0017745831197326985 0.0007035828668552939 0.0
376 -0.0002748171298329516 0.0012802453594006667 0.006756766649663744 -0.0017693730119810493 0.0007025042378972987 0.0
377 -0.00027490067463400617 0.0012801608876250267 0.006757753950617028 -0.0017641669921283417 0.0007014251497249521 0.0
378 -0.0002749847980136039 0.001280077150816311 0.006758770086913399 -0.0017589650558470409 0.0007003456099051524 0.0
379 -0.00027506950854016914 0.0012799941466088956 0.006759815050698108 -0.0017537671988802675 0.0006992656259483587 0.0
380 -0.00027515481482653264 0.0012799118726079597 0.0067608888334857176 -0.001748573417041768 0.0006981852053082737 0.0
381 -0.0002752407255306925 0.0012798303263896471 0.0067619914261671035 -0.00174338370621585 0.0006971043553818229 0.0
382 -0.00027532724935670007 0.0012797495055011827 0.006763122819015129 -0.0017381980623575202 0.0006960230835090486 0.0
383 -0.0002754143950555988 0.0012796694074610393 0.006764283001692009 -0.0017330164814923865 0.0006949413969729592 0.0
384 -0.0002755021714265585 0.0012795900297590875 0.006765471963255795 -0.0017278389597166924 0.0006938593029992438 0.0
385 -0.00027559058731750196 0.0012795113698566936 0.006766689692165969 -0.0017226654931974108 0.0006927768087563615 0.0
386 -0.0002756796516262113 0.0012794334251869108 0.0067679361762913864 -0.00171749607817209 0.0006916939213552709 0.0
387 -0.00027576937330101367 0.0012793561931546 0.006769211402916555 -0.0017123307109488594 0.0006906106478494801 0.0
388 -0.0002758597613419635 0.0012792796711365581 0.006770515358747764 -0.0017071693879064946 0.0006895269952347348 0.0
389 -0.0002759508248016982 0.0012792038564816588 0.006771848029919998 -0.0017020121054943463 0.0006884429704489414 0.0
390 -0.00027604257278630113 0.0012791287465110084 0.0067732094020041805 -0.0016968588602322401 0.0006873585803720878 0.0
391 -0.0002761350144561709 0.0012790543385180386 0.006774599460012781 -0.0016917096487105688 0.0006862738318261719 0.0
392 -0.0002762281590271808 0.0012789806297686711 0.0067760181884072065 -0.001686564467590173 0.0006851887315749056 0.0
393 -0.0002763220157714289 0.001278907617501432 0.006777465571104262 -0.0016814233136023208 0.0006841032863237281 0.0
394 -0.00027641659401825465 0.0012788352989275735 0.0067789415914825115 -0.0016762861835486961 0.0006830175027196314 0.0
395 -0.00027651190315525963 0.0012787636712312598 0.006780446232390733 -0.0016711530743011439 0.000681931387350966 0.0
396 -0.00027660795262920117 0.0012786927315695945 0.006781979476151775 -0.0016660239828019568 0.0006808449467473732 0.0
397 -0.0002767047519469662 0.0012786224770728136 0.006783541304571306 -0.0016608989060635693 0.0006797581873796327 0.0
398 -0.0002768023106766242 0.0012785529048444304 0.00678513169894517 -0.0016557778411684168 0.0006786711156594591 0.0
399 -0.0002769006384483816 0.0012784840119612695 0.00678675064006361 -0.001650660785269182 0.0006775837379393959 0.0
400 -0.00027699974495564263 0.001278415795473672 0.006788398108220485 -0.0016455477355884253 0.0006764960605126057 0.0
401 -0.0002770996399559247 0.0012783482524055699 0.006790074083218888 -0.0016404386894186345 0.000675408089612784 0.0
402 -0.0002772003332719963 0.0012782813797546284 0.006791778544378544 -0.0016353336441220947 0.000674319831413909 0.0
403 -0.0002773018347928314 0.0012782151744923555 0.0067935114705425835 -0.0016302325971307896 0.0006732312920301322 0.0
404 -0.0002774041544747855 0.001278149633564196 0.006795272840083629 -0.0016251355459464207 0.0006721424775155067 0.0
405 -0.00027750730234256485 0.0012780847538896836 0.006797062630911936 -0.0016200424881401432 0.0006710533938638663 0.0
406 -0.0002776112884903009 0.001278020532362526 0.006798880820481461 -0.0016149534213525812 0.0006699640470086382 0.0
407 -0.00027771612308273287 0.0012779569658507252 0.006800727385796994 -0.0016098683432936862 0.000668874442822573 0.0
408 -0.0002778218163562618 0.0012778940511966876 0.006802602303421168 -0.001604787251742629 0.000667784587117575 0.0
409 -0.00027792837862009056 0.00127783178521734 0.006804505549481614 -0.0015997101445476645 0.00066669448564447 0.0
410 -0.0002780358202573035 0.00127777016470423 0.006806437099677841 -0.001594637019626016 0.000665604144092822 0.0
411 -0.00027814415172609563 0.0012777091864236388 0.006808396929288336 -0.0015895678749637601 0.0006645135680906461 0.0
412 -0.00027825338356101157 0.001277648847116666 0.006810385013177052 -0.0015845027086157691 0.000663422763204113 0.0
413 -0.0002783635263739736 0.00127758914349938 0.006812401325801937 -0.001579441518705391 0.000662331734937411 0.0
414 -0.00027847459085546895 0.0012775300722628535 0.0068144458412200916 -0.001574384303424558 0.0006612404887325043 0.0
415 -0.0002785865877760287 0.001277471630073323 0.0068165185330964235 -0.0015693310610334686 0.0006601490299686626 0.0
416 -0.0002786995279871236 0.0012774138135722706 0.006818619374710598 -0.001564281789860461 0.00065905736396244 0.0
417 -0.00027881342242274147 0.0012773566193765068 0.006820748338963441 -0.0015592364883019742 0.0006579654959671487 0.0
418 -0.0002789282821003655 0.0012773000440782912 0.006822905398385143 -0.0015541951548222652 0.0006568734311727742 0.0
419 -0.00027904411812246027 0.0012772440842454295 0.0068250905251424085 -0.0015491577879532664 0.0006557811747055257 0.0
420 -0.0002791609416777203 0.0012771887364213291 0.006827303691044654 -0.0015441243862945714 0.0006546887316275667 0.0
421 -0.00027927876404240784 0.0012771339971251513 0.006829544867552967 -0.0015390949485130628 0.0006535961069366746 0.0
422 -0.0002793975965816476 0.001277079862851841 0.006831814025785777 -0.0015340694733429426 0.0006525033055659484 0.0
423 -0.00027951745075088173 0.0012770263300722977 0.006834111136528541 -0.0015290479595852953 0.0006514103323833844 0.0
424 -0.00027963833809712877 0.0012769733952333758 0.00683643617023862 -0.0015240304061082102 0.0006503171921916249 0.0
425 -0.00027976027026055226 0.0012769210547580291 0.00683878909705429 -0.0015190168118464132 0.0006492238897274629 0.0
426 -0.0002798832589757011 0.0012768693050453847 0.0068411698868020105 -0.001514007175801122 0.0006481304296615977 0.0
427 -0.00028000731607317727 0.0012768181424708267 0.006843578509003824 -0.0015090014970398553 0.0006470368165980842 0.0
428 -0.00028013245348090966 0.0012767675633861032 0.006846014932885697 -0.0015039997746961612 0.0006459430550740707 0.0
429 -0.00028025868322571035 0.0012767175641193564 0.00684847912738352 -0.001499002007969606 0.0006448491495593453 0.0
430 -0.0002803860174348517 0.0012766681409752485 0.00685097106115221 -0.0014940081961254085 0.0006437551044558528 0.0
431 -0.00028051446833748613 0.0012766192902350301 0.006853490702572974 -0.0014890183384942812 0.0006426609240973463 0.0
432 -0.00028064404826625767 0.0012765710081566377 0.006856038019761685 -0.0014840324344721312 0.0006415666127488931 0.0
433 -0.0002807747696588849 0.0012765232909747236 0.006858612980575293 -0.001479050483520036 0.0006404721746064204 0.0
434 -0.00028090664505981083 0.001276476134900774 0.006861215552620867 -0.0014740724851638627 0.0006393776137961978 0.0
435 -0.0002810396871217842 0.0012764295361231777 0.006863845703263356 -0.0014690984389940688 0.0006382829343743874 0.0
436 -0.00028117390860747047 0.0012763834908072922 0.006866503399633427 -0.0014641283446654686 0.0006371881403265732 0.0
437 -0.0002813093223911068 0.0012763379950955127 0.006869188608635227 -0.0014591622018970414 0.0006360932355672661 0.0
438 -0.00028144594146047556 0.0012762930451073657 0.0068719012969551425 -0.0014542000104716135 0.0006349982239391735 0.0
439 -0.0002815837789182202 0.0012762486369395304 0.006874641431068649 -0.0014492417702357463 0.0006339031092129679 0.0
440 -0.00028172284798397057 0.0012762047666659603 0.006877408977249804 -0.001444287481099344 0.0006328078950864533 0.0
441 -0.0002818631619957936 0.0012761614303379285 0.006880203901579185 -0.001439337143035415 0.0006317125851842366 0.0
442 -0.00028200473441238717 0.001276118623984068 0.006883026169951034 -0.0014343907560799782 0.000630617183056873 0.0
443 -0.00028214757881448414 0.0012760763436105004 0.006885875748083874 -0.0014294483203314875 0.0006295216921805671 0.0
444 -0.000282291708907055 0.0012760345852008215 0.006888752601526436 -0.0014245098359508888 0.0006284261159563243 0.0
445 -0.0002824371385210142 0.0012759933447162154 0.006891656695667749 -0.0014195753031611396 0.0006273304577094535 0.0
446 -0.00028258388161523995 0.001275952618095478 0.006894587995744564 -0.0014146447222470665 0.0006262347206888514 0.0
447 -0.000282731952278524 0.0012759124012551321 0.00689754646685164 -0.0014097180935548682 0.0006251389080663384 0.0
448 -0.0002828813647315027 0.0012758726900894241 0.006900532073948581 -0.0014047954174920513 0.0006240430229360234 0.0
449 -0.0002830321333286186 0.0012758334804703884 0.006903544781868994 -0.001399876694527084 0.0006229470683136512 0.0
450 -0.000283184272560308 0.0012757947682479473 0.006906584555330357 -0.0013949619251889581 0.0006218510471357758 0.0
451 -0.00028333779705490774 0.0012757565492498967 0.006909651358941194 -0.0013900511100670948 0.0006207549622591693 0.0
452 -0.00028349272158092955 0.0012757188192820115 0.006912745157211358 -0.0013851442498108736 0.0006196588164599434 0.0
453 -0.0002836490610490661 0.001275681574128076 0.006915865914560646 -0.0013802413451293525 0.0006185626124328928 0.0
454 -0.0002838068305144537 0.001275644809549904 0.006919013595326926 -0.0013753423967910769 0.000617466352790652 0.0
455 -0.0002839660451788044 0.0012756085212874526 0.006922188163777375 -0.0013704474056234844 0.0006163700400629382 0.0
456 -0.00028412672039274453 0.0012755727050587872 0.00692538958411522 -0.0013655563725128892 0.0006152736766956816 0.0
457 -0.00028428887165793203 0.0012755373565601755 0.00692861782049072 -0.0013606692984039282 0.0006141772650502953 0.0
458 -0.0002844525146295292 0.0012755024714661174 0.006931872837009971 -0.0013557861842993038 0.0006130808074027059 0.0
459 -0.00028461766511838054 0.001275468045429373 0.006935154597744268 -0.0013509070312594323 0.0006119843059426029 0.0
460 -0.00028478433909364623 0.0012754340740810406 0.0069384630667404905 -0.0013460318404020005 0.0006108877627723601 0.0
461 -0.0002849525526849494 0.0012754005530305195 0.006941798208028831 -0.0013411606129018377 0.0006097911799063353 0.0
462 -0.000285122322185009 0.0012753674778656155 0.006945159985634431 -0.0013362933499903081 0.0006086945592697924 0.0
463 -0.0002852936640520921 0.001275334844152544 0.0069485483635862814 -0.0013314300529550641 0.0006075979026979911 0.0
464 -0.0002854665949125218 0.001275302647435962 0.006951963305927179 -0.0013265707231396506 0.0006065012119352271 0.0
465 -0.00028564113156322743 0.0012752708832389921 0.006955404776723507 -0.0013217153619431508 0.0006054044886338608 0.0
466 -0.00028581729097455506 0.0012752395470632862 0.006958872740076198 -0.0013168639708196956 0.0006043077343531448 0.0
467 -0.0002859950902926277 0.0012752086343889918 0.006962367160129336 -0.0013120165512782583 0.0006032109505584163 0.0
468 -0.0002861745468422602 0.0012751781406748275 0.006965888001081793 -0.0013071731048820833 0.0006021141386198627 0.0
469 -0.0002863556781296953 0.0012751480613580812 0.006969435227196747 -0.0013023336332483933 0.0006010172998114483 0.0
470 -0.0002865385018452531 0.001275118391854634 0.00697300880281242 -0.00129749813804794 0.0005999204353098985 0.0
471 -0.00028672303586638746 0.0012750891275590066 0.006976608692353241 -0.001292666621004504 0.0005988235461933976 0.0
472 -0.0002869092982602492 0.0012750602638443229 0.0069802348603390215 -0.0012878390838946662 0.0005977266334406706 0.0
473 -0.00028709730728701175 0.0012750317960623604 0.006983887271396619 -0.0012830155285472767 0.0005966296979294927 0.0
474 -0.00028728708140242186 0.0012750037195435786 0.0069875658902713855 -0.0012781959568429156 0.0005955327404357842 0.0
475 -0.00028747863926119555 0.0012749760295970966 0.006991270681836979 -0.0012733803707136299 0.0005944357616321026 0.0
476 -0.000287671999719825 0.0012749487215107116 0.00699500161110678 -0.0012685687721424286 0.0005933387620865715 0.0
477 -0.000287867181839794 0.0012749217905509416 0.006998758643246131 -0.0012637611631627014 0.000592241742261504 0.0
478 -0.00028806420489079556 0.00127489523196294 0.007002541743580819 -0.0012589575458581159 0.0005911447025120712 0.0
479 -0.0002882630883538672 0.001274869040970649 0.007006350877613103 -0.0012541579223615742 0.0005900476430849812 0.0
480 -0.00028846385192468936 0.001274843212776629 0.007010186011027994 -0.001249362294855388 0.0005889505641171239 0.0
481 -0.00028866651551697815 0.0012748177425622087 0.007014047109709478 -0.0012445706655702543 0.000587853465634078 0.0
482 -0.00028887109926577784 0.00127479262548738 0.007017934139749197 -0.001239783036785132 0.0005867563475487692 0.0
483 -0.0002890776235308783 0.0012747678566908277 0.007021847067459412 -0.0012349994108266339 0.0005856592096600029 0.0
484 -0.0002892861089004648 0.0012747434312899584 0.007025785859386104 -0.0012302197900683864 0.000584562051650847 0.0
485 -0.00028949657619453315 0.001274719344380829 0.007029750482319202 -0.0012254441769307693 0.0005834648730872118 0.0
486 -0.00028970904646850805 0.0012746955910381942 0.007033740903306757 -0.001220672573880172 0.0005823676734162705 0.0
487 -0.0002899235410170454 0.0012746721663154305 0.007037757089665359 -0.0012159049834287196 0.0005812704519647796 0.0
488 -0.00029014008137748286 0.0012746490652446008 0.007041799008995346 -0.0012111414081334105 0.0005801732079376339 0.0
489 -0.0002903586893339792 0.0012746262828363499 0.007045866629190663 -0.0012063818505959635 0.0005790759404159688 0.0
490 -0.00029057938692109056 0.001274603814079964 0.007049959918454338 -0.0012016263134619117 0.0005779786483556486 0.0
491 -0.0002908021964278532 0.0012745816539432749 0.007054078845309085 -0.0011968747994203846 0.0005768813305854266 0.0
492 -0.000291027140401728 0.001274559797372724 0.007058223378613321 -0.0011921273112031777 0.0005757839858051819 0.0
493 -0.00029125424165268014 0.0012745382392932313 0.00706239348757118 -0.001187383851584607 0.0005746866125841187 0.0
494 -0.0002914835232571573 0.0012745169746082538 0.00706658914174893 -0.001182644423380545 0.000573589209358997 0.0
495 -0.0002917150085624785 0.0012744959981997055 0.007070810311086745 -0.001177909029448105 0.0005724917744321165 0.0
496 -0.00029194872119097504 0.0012744753049279542 0.007075056965913864 -0.0011731776726848454 0.0005713943059694645 0.0
497 -0.00029218468504437417 0.0012744548896317489 0.007079329076961117 -0.0011684503560283736 0.0005702968019987281 0.0
498 -0.0002924229243082016 0.0012744347471282144 0.007083626615376339 -0.0011637270824555687 0.0005691992604072754 0.0
499 -0.0002926634634562748 0.0012744148722127974 0.007087949552738131 -0.0011590078549820343 0.0005681016789401011 0.0
500 -0.0002929063272550892 0.001274395259659203 0.0070922978610700495 -0.001154292676661495 0.0005670040551978611 0.0
501 -0.0002931515407688185 0.001274375904219377 0.007096671512855763 -0.0011495815505851285 0.0005659063866344646 0.0
502 -0.0002933991293637059 0.0012743568006234806 0.007101070481054909 -0.001144874479880765 0.0005648086705551168 0.0
503 -0.00029364911871300275 0.0012743379435797445 0.007105494739115311 -0.0011401714677126038 0.0005637109041140126 0.0
504 -0.00029390153480178224 0.0012743193277745162 0.007109944260991153 -0.0011354725172801755 0.0005626130843120833 0.0
505 -0.0002941564039320283 0.0012743009478721552 0.007114419021157055 -0.0011307776318178356 0.000561515207994589 0.0
506 -0.0002944137527275294 0.0012742827985149571 0.007118918994623242 -0.0011260868145941392 0.0005604172718488646 0.0
507 -0.0002946736081391152 0.0012742648743231252 0.007123444156952379 -0.0011214000689110232 0.000559319272401816 0.0
508 -0.0002949359974498166 0.001274247169894712 0.0071279944842759626 -0.0011167173981030463 0.0005582212060174895 0.0
509 -0.0002952009482803563 0.0012742296798054964 0.007132569953308662 -0.001112038805536941 0.0005571230688944343 0.0
510 -0.00029546848859421696 0.001274212398608966 0.007137170541366807 -0.0011073642946105929 0.0005560248570633543 0.0
511 -0.00029573864670359755 0.001274195320836215 0.007141796226383776 -0.0011026938687525086 0.0005549265663841547 0.0
512 -0.00029601145127461386 0.0012741784409958904 0.007146446986928074 -0.001098027531420891 0.0005538281925435367 0.0
513 -0.00029628693133323654 0.0012741617535740875 0.007151122802219451 -0.0010933652861030243 0.0005527297310520806 0.0
514 -0.00029656511627096133 0.0012741452530342678 0.007155823652146463 -0.0010887071363144703 0.0005516311772415364 0.0
515 -0.0002968460358508588 0.0012741289338171766 0.007160549517284102 -0.0010840530855982993 0.0005505325262618484 0.0
516 -0.0002971297202134229 0.0012741127903407945 0.007165300378913024 -0.0010794031375241002 0.0005494337730783362 0.0
517 -0.00029741619988281256 0.0012740968170001775 0.007170076219035502 -0.001074757295687474 0.0005483349124686302 0.0
518 -0.0002977055057729022 0.0012740810081673833 0.007174877020394663 -0.0010701155637090722 0.0005472359390197381 0.0
519 -0.0002979976691939474 0.0012740653581913945 0.007179702766493434 -0.0010654779452337593 0.0005461368471246845 0.0
520 -0.0003664250120726745 0.0012352693115184903 0.005915982193422615 -0.0012237447602576265 0.0005039590055429792 0.0
521 -0.00042844091059514213 0.0012098576231685141 0.005074859519354561 -0.0013284101236267724 0.0004631334644583425 0.0
522 -0.0004849716430182664 0.0011933217872166033 0.004514558796452763 -0.001397481816354603 0.0004241222477652985 0.0
523 -0.0005367306875843366 0.0011826677605750317 0.004141113797724185 -0.0014428492822485478 0.00038716235764568475 0.0
524 -0.0005842770251214118 0.0011759045415444275 0.0038920820260186333 -0.0014723958194418193 0.00035235052117428686 0.0
525 -0.0006280583974939334 0.0011717074157171837 0.0037259012310779677 -0.0014913634024449037 0.00031969580700806643 0.0
526 -0.0006684421627396108 0.0011691950772837482 0.0036148808282107474 -0.0015032444444110717 0.0002891530968842502 0.0
527 -0.0007057368835326238 0.001167781613910842 0.0035405632498191697 -0.0015103689330728679 0.0002606447042690764 0.0
528 -0.0007402073121716407 0.0011670779936334876 0.0034906435125047447 -0.0015142929886801017 0.0002340744422518988 0.0
529 -0.0007720847871651693 0.001166826411034254 0.0034569191577832653 -0.0015160568758857587 0.0002093367850242926 0.0
530 -0.0008015744852614465 0.0011668565001924445 0.003433924105311621 -0.0015163567035245506 0.00018632280049748448 0.0
531 -0.0008288605334665093 0.0011670561220276157 0.003418017559801566 -0.0015156588428861801 0.00016492394273429634 0.0
532 -0.0008541096682066595 0.0011673518744892166 0.0034067761552850637 -0.0015142762383361884 0.00014503442164430855 0.0
533 -0.0008774739070330804 0.0011676960920959903 0.003398588350831769 -0.0015124193274148783 0.00012655262737810947 0.0
534 -0.0008990925462939799 0.0011680581774209228 0.003392383787633584 -0.0015102300281145185 0.0001093819289438713 0.0
535 -0.0009190936952666159 0.0011684188242450974 0.003387452723660732 -0.0015078044278978861 9.34310614728836e-05 0.0
536 -0.0009375954880190642 0.0011687661706056085 0.003383325590474405 -0.0015052079321188714 7.86142461189267e-05 0.0
537 -0.0009547070679216692 0.0011690932394660372 0.0033796926747346008 -0.001502485379267002 6.485113916966733e-05 0.0
538 -0.0009705294087693147 0.001169396238146812 0.003376350573791685 -0.0014996677966724985 5.2066674981208675e-05 0.0
539 -0.0009851560158202696 0.001169673430211487 0.003373166512929256 -0.0014967769138810347 4.019084577906925e-05 0.0
540 -0.0009986735362794066 0.001169924388728811 0.0033700545755214898 -0.001493828179453391 2.915844682271756e-05 0.0
541 -0.001011162299552793 0.0011701495034259406 0.003366959876355294 -0.0014908327789446953 1.890880563454538e-05 0.0
542 -0.0010226968014491764 0.0011703496567110952 0.003363848029645209 -0.0014877989862437202 9.385507406762432e-06 0.0
543 -0.001033346142375697 0.0011705260118874668 0.003360698145217316 -0.0014847330699257802 5.361242850331619e-07 0.0
544 -0.0010431744267972447 0.0011706798757947449 0.003357498174939132 -0.0014816399024985857 -7.688046723580637e-06 0.0
545 -0.0010522411293443956 0.0011708126107308832 0.003354241824147094 -0.001478523371193521 -1.53322344306857e-05 0.0
546 -0.0010606014316697256 0.0011709255789204818 0.0033509265047680075 -0.001475386656107793 -2.2438431242708553e-05 0.0
547 -0.0010683065332636348 0.0011710201084035481 0.003347551981476291 -0.0014722324195953398 -2.9045617387639104e-05 0.0
548 -0.0010754039388199744 0.0011710974729548036 0.003344119478666122 -0.0014690629361921348 -3.518997149401684e-05 0.0
549 -0.0010819377242979934 0.001171158881131947 0.0033406310936211084 -0.0014658801826171086 -4.090506776895577e-05 0.0
550 -0.0010879487835049016 0.0011712054712069541 0.003337089412955775 -0.0014626859008946176 -4.6222060233762604e-05 0.0
551 -0.001093475056781954 0.0011712383098362673 0.003333497263851756 -0.001459481643311605 -5.1169854598295204e-05 0.0
552 -0.001098551743192208 0.001171258393057364 0.00332985755453377 -0.0014562688050362427 -5.577526841952055e-05 0.0
553 -0.0011032114974612272 0.0011712666486855309 0.0033261731737071563 -0.0014530486482979695 -6.0063180215477657e-05 0.0
554 -0.0011074846128027104 0.0011712639395067574 0.003322446928834673 -0.00144982232074529 -6.405666820717123e-05 0.0
555 -0.0011113991906612757 0.0011712510668760844 0.0033186815098914715 -0.0014465908697408147 -6.777713934684247e-05 0.0
556 -0.0011149812983191625 0.00117122877447172 0.003314879469734704 -0.0014433552537808938 -7.124444926756285e-05 0.0
557 -0.001118255115238352 0.001171197752048158 0.0033110432152161084 -0.0014401163518447258 -7.447701375979738e-05 0.0
558 -0.0011212430689436716 0.0011711586390925073 0.0033071750051525267 -0.0014368749712222366 -7.749191234922215e-05 0.0
559 -0.0011239659611915675 0.0011711120283279597 0.00330327695258918 -0.0014336318541985885 -8.030498451646459e-05 0.0
560 -0.0011264430851165047 0.0011710584690341947 0.0032993510296666795 -0.0014303876838582773 -8.293091906787026e-05 0.0
561 -0.0011286923339951644 0.0011709984701711688 0.0032953990739905416 -0.0014271430891931625 -8.538333713293086e-05 0.0
562 -0.0011307303022242757 0.0011709325033030214 0.003291422795780279 -0.0014238986496472822 -8.767486923411901e-05 0.0
563 -0.001132572379065517 0.001170861005325354 0.0032874237853330744 -0.0014206548991951811 -8.981722684534227e-05 0.0
564 -0.0011342328356707227 0.0011707843810031574 0.003283403520512186 -0.001417412330024997 -9.182126882656703e-05 0.0
565 -0.0011357249058653225 0.0011707030053285051 0.0032793633740714648 -0.0014141713958818849 -9.36970630964349e-05 0.0
566 -0.0011370608611347372 0.0011706172257084828 0.0032753046207092355 -0.0014109325151143728 -9.545394388036431e-05 0.0
567 -0.0011382520802251266 0.0011705273639939149 0.0032712284437861274 -0.0014076960734583325 -9.710056484683703e-05 0.0
568 -0.001139309113743221 0.0011704337183596734 0.003267135941679368 -0.0014044624265864931 -9.864494842468498e-05 0.0
569 -0.0011402417441112077 0.001170336565046843 0.0032630281337618396 -0.0014012319024471693 -0.00010009453157258957 0.0
570 -0.0011410590412081326 0.0011702361599764484 0.0032589059660035717 -0.0013980048034129785 -0.00010145620825345471 0.0
571 -0.0011417694140062344 0.0011701327402443456 0.003254770316214271 -0.0013947814082558912 -0.00010273636884903907 0.0
572 -0.001142380658487385 0.0011700265255055636 0.003250621998929258 -0.0013915619739655123 -0.00010394093673242342 0.0
573 -0.00114290000210689 0.0011699177192566871 0.0032464617699684917 -0.0013883467374226296 -0.00010507540220248267 0.0
574 -0.0011433341450506906 0.0011698065100234504 0.0032422903306760517 -0.0013851359169416038 -0.00010614485396822325 0.0
575 -0.001143689298516252 0.0011696930724608774 0.003238108331867536 -0.001381929713691429 -0.00010715400835900535 0.0
576 -0.0011439712202298542 0.0011695775683722134 0.0032339163774965833 -0.001378728313006321 -0.00010810723642315734 0.0
577 -0.001144185247398725 0.0011694601476528682 0.003229715028063869 -0.0013755318855941411 -0.00010900858906670677 0.0
578 -0.001144336327282267 0.0011693409491648262 0.003225504803782222 -0.0013723405886513222 -0.00010986182037303781 0.0
579 -0.0011444290455529813 0.001169220101546727 0.0032212861875158625 -0.0013691545668915652 -0.00011067040923393852 0.0
580 -0.001144467652606075 0.0011690977239643995 0.003217059627509431 -0.0013659739534951252 -0.00011143757941358896 0.0
581 -0.0011444560879646975 0.0011689739268062188 0.003212825539920592 -0.0013627988709850251 -0.00011216631815785729 0.0
582 -0.0011443980029188859 0.0011688488123273717 0.0032085843111688706 -0.0013596294320361488 -0.00011285939345446816 0.0
583 -0.0011442967815240566 0.0011687224752468777 0.003204336300117285 -0.0013564657402219005 -0.00011351937004030578 0.0
584 -0.00114415556007789 0.0011685950033007415 0.0032000818400941145 -0.0013533078907039613 -0.00011414862424670242 0.0
585 -0.0011439772451852816 0.0011684664777545646 0.003195821240769196 -0.0013501559708691095 -0.00011474935776658534 0.0
586 -0.0011437645305126878 0.0011683369738785148 0.003191554789892694 -0.001347010060917564 -0.00011532361042096289 0.0
587 -0.0011435199123266903 0.0011682065613875436 0.0031872827549095017 -0.0013438702344061337 -0.00011587327199727497 0.0
588 -0.0011432457039045583 0.0011680753048492587 0.003183005384453703 -0.0013407365587502808 -0.00011640009322667062 0.0
589 -0.0011429440488979268 0.001167943264061969 0.003178722909736339 -0.0013376090956876041 -0.00011690569596230965 0.0
590 -0.0011426169337255539 0.0011678104944050193 0.00317443554583116 -0.001334487901706163 -0.00011739158261668817 0.0
591 -0.001142266199065249 0.0011676770471633873 0.0031701434928646036 -0.0013313730284404276 -0.00011785914491158991 0.0
592 -0.0011418935505096736 0.0011675429698286004 0.003165846937121862 -0.0013282645230367153 -0.00011830967199016114 0.0
593 -0.0011415005684473267 0.001167408306377529 0.003161546052069286 -0.0013251624284912299 -0.00011874435793789921 0.0
594 -0.0011410887172239328 0.0011672730975308245 0.0031572409993041815 -0.001322066783962086 -0.0001191643087548192 0.0
595 -0.0011406593536368466 0.001167137380992335 0.0031529319294322017 -0.0013189776250580347 -0.00011957054881894704 0.0
596 -0.0010755871774958635 0.0012050264774245895 0.004375709711443619 -0.0011585685604385554 -8.316801821341771e-05 0.0
597 -0.0010159487512985572 0.0012295225134110281 0.005182742226386837 -0.001050659351472826 -4.686530024330516e-05 0.0
598 -0.0009611162387107169 0.0012452188834623846 0.005715145352207284 -0.000977561690345243 -1.154936215010207e-05 0.0
599 -0.0009105939578687613 0.0012551542475273238 0.006066639873841918 -0.0009274790889419345 2.2254366054627806e-05 0.0
600 -0.0008639742953672731 0.0012613310316404694 0.006299181145566839 -0.0008925903946233743 5.42607679875614e-05 0.0
601 -0.0008209115615264625 0.0012650652219215767 0.006453601989705598 -0.0008677293730884814 8.434085084803041e-05 0.0
602 -0.0007811057463125485 0.001267219889461417 0.006556761120287067 -0.0008494912855758396 0.00011246480672163353 0.0
603 -0.0007442919781264299 0.0012683600555783226 0.006626302777097064 -0.0008356352133756357 0.000138664181768745 0.0
604 -0.0007102334105445323 0.0012688549527957943 0.006673808175618906 -0.0008246871108071943 0.00016300706855706173 0.0
605 -0.0006787162497696136 0.0012689453627818853 0.006706874652636624 -0.0008156773915239358 0.0001855820194754745 0.0
606 -0.0006495461625839585 0.001268787877701477 0.006730484185397934 -0.0008079679682561091 0.0002064877335891805 0.0
607 -0.0006225455985739069 0.0012684839586799652 0.006747902817439632 -0.0008011384703896403 0.00022582653508671776 0.0
608 -0.000597551731810459 0.0012680989979421773 0.0067612712117355485 -0.0007949114831392321 0.00024370032640744528 0.0
609 -0.0005744148311307403 0.0012676748162762934 0.006771992158704895 -0.0007891034634312623 0.00026020814756733666 0.0
610 -0.0005529969332511836 0.001267237852881222 0.006780984747203044 -0.000783592528594173 0.0002754447718112587 0.0
611 -0.0005331707346695088 0.0012668045301085006 0.0067888510337071415 -0.0007782973230064437 0.00028949996500227105 0.0
612 -0.0005148186455163708 0.0012663847660253837 0.006795985313520679 -0.0007731631540603089 0.0003024581658493597 0.0
613 -0.0004978319664654226 0.0012659842729543522 0.006802645751342299 -0.0007681528965914474 0.00031439842905797645 0.0
614 -0.0004821101617518566 0.001265606060420772 0.0068090013320844705 -0.0007632410246486609 0.0003253945290563245 0.0
615 -0.00046756020934312514 0.0012652514168135145 0.0068151626318863345 -0.0007584096940620537 0.0003355151582316343 0.0
616 -0.0004540960146915698 0.0012649205495565965 0.006821201982677189 -0.0007536461697975011 0.0003448241772665906 0.0
617 -0.00044163787814733093 0.0012646130016352682 0.006827166684319315 -0.0007489411351502993 0.0003533808905712663 0.0
618 -0.00043011200859991995 0.0012643279217087594 0.006833087659813778 -0.0007442875792440457 0.00036124032982241615 0.0
619 -0.0004194500776345093 0.001264064238423975 0.0068389851239182495 -0.0007396800638307605 0.0003684535351185543 0.0
620 -0.00040958880968470867 0.0012638207720981824 0.006844872294574886 -0.0007351142389241834 0.0003750678274621625 0.0
621 -0.00040046960451077784 0.0012635963055037738 0.006850757821907271 -0.0007305865217326491 0.00038112706898592443 0.0
622 -0.0003920381889451234 0.0012633896279936436 0.006856647377071573 -0.000726093882815308 0.0003866719090687031 0.0
623 -0.00038424429529649456 0.001263199562293191 0.006862544690842411 -0.0007216337026975234 0.0003917400155833874 0.0
624 -0.0003770413641477979 0.001263024980065047 0.006868452231907536 -0.0007172036748415436 0.0003963662912000742 0.0
625 -0.00037038626954718015 0.0012628648102424066 0.006874371649364948 -0.0007128017391662949 0.00040058307508422316 0.0
626 -0.0003642390648063488 0.001262718042743286 0.006880304060978238 -0.0007084260357515164 0.00040442033057124064 0.0
627 -0.0003585627472938987 0.001262583729271647 0.0068862502406176595 -0.0007040748719259731 0.00040790581953184985 0.0
628 -0.00035332304076040916 0.0012624609823169493 0.006892210739862837 -0.0006997466982780981 0.00041106526420314754 0.0
629 -0.0003484881938584472 0.0012623489730749144 0.006898185966673898 -0.0006954400906570867 0.0004139224972778325 0.0
630 -0.0003440287936323082 0.0012622469287567576 0.006904176236100177 -0.0006911537362388855 0.00041649960103396774 0.0
631 -0.00033991759285104735 0.001262154129587718 0.006910181802823691 -0.000686886422387428 0.0004188170362612912 0.0
632 -0.000336129350147705 0.0012620699056863994 0.0069162028819309135 -0.0006826370274735614 0.00042089376170435084 0.0
633 -0.00033264068200731297 0.0012619936339451103 0.0069222396620831185 -0.0006784045130965582 0.0004227473447031648 0.0
634 -0.0003294299257206185 0.0012619247349849694 0.0069282923138002505 -0.0006741879173384777 0.00042439406366951245 0.0
635 -0.00032647701248695205 0.0012618626702294595 0.006934360994627338 -0.0006699863488024 0.00042584900299546743 0.0
636 -0.0003237633499112322 0.0012618069391202422 0.006940445852320088 -0.0006657989812667471 0.0004271261409502082 0.0
637 -0.0003212717131970196 0.0012617570764868816 0.0069465470267934095 -0.0006616250488386522 0.00042823843108179304 0.0
638 -0.00031898614438997556 0.0012617126500739217 0.006952664651305226 -0.0006574638415248973 0.000429197877603587 0.0
639 -0.0003168918590741723 0.0012616732582237077 0.006958798853175075 -0.0006533147011617891 0.0004300156052103491 0.0
640 -0.00031497515996773654 0.0012616385277105296 0.00696494975423329 -0.0006491770176596161 0.0004307019237368135 0.0
641 -0.00031322335690691234 0.0012616081117196583 0.006971117471116352 -0.0006450502255285625 0.00043126638804026797 0.0
642 -0.0003116246927439322 0.0012615816879640092 0.0069773021154830046 -0.0006409338006590987 0.0004317178534617213 0.0
643 -0.0003101682747209408 0.0012615589569307058 0.006983503794194298 -0.000636827257334927 0.0004320645271928351 0.0
644 -0.00030884401091374627 0.0012615396402497706 0.006989722609483856 -0.0006327301454596515 0.0004323140158522889 0.0
645 -0.0003076425513698379 0.0012615234791772453 0.0069959586591315315 -0.0006286420479809031 0.00043247336955234777 0.0
646 -0.00030655523359282214 0.0012615102331851628 0.007002212036642796 -0.0006245625784979834 0.00043254912271572474 0.0
647 -0.00030557403205147326 0.0012614996786515635 0.007008482831445311 -0.0006204913790387348 0.0004325473318832106 0.0
648 -0.00030469151141525325 0.0012614916076433846 0.007014771129090061 -0.0006164281179952787 0.00043247361073506517 0.0
649 -0.000303900783240466 0.0012614858267862455 0.007021077011467583 -0.0006123724882060152 0.0004323331625322161 0.0
650 -0.00030319546585170457 0.00126148215621483 0.007027400557027966 -0.0006083242051749054 0.00043213081016819113 0.0
651 -0.000302569647182069 0.0012614804285984013 0.0070337418410074196 -0.0006042830054178319 0.0004318710240085012 0.0
652 -0.0003020178503532567 0.0012614804882360978 0.007040100935656376 -0.0006002486449276168 0.0004315579476810601 0.0
653 -0.00030153500179274354 0.0012614821902171892 0.0070464779104701765 -0.0005962208977489825 0.0004311954219691479 0.0
654 -0.0003011164017008043 0.0012614853996416242 0.007052872832417907 -0.0005921995546561592 0.0004307870069468503 0.0
655 -0.0003007576966933717 0.0012614899908965325 0.0070592857661662435 -0.0005881844219261332 0.00043033600248698774 0.0
656 -0.000367952140595125 0.0012222333578017343 0.005760997088004897 -0.0007528039945811783 0.00039154867143441265 0.0
657 -0.0004288135169491157 0.0011969011703197063 0.004908567041630053 -0.0008603531144645835 0.0003531347033960318 0.0
658 -0.00048427484622785925 0.0011806781388606466 0.0043484592435073495 -0.000930503065379069 0.00031589555690249337 0.0
659 -0.0005350494861162158 0.0011704095369986956 0.003980278597863817 -0.0009760802286473071 0.00028028661118465235 0.0
660 -0.0005816924324521978 0.0011640257068622662 0.0037382018514890173 -0.0010054806577318336 0.0002465450063338739 0.0
661 -0.000624645729667853 0.0011601681089072507 0.003579000177645927 -0.0010242146180584016 0.00021477006845604973 0.0
662 -0.0006642706120370326 0.001157945101167115 0.0034742553502592256 -0.0010359047402560945 0.00018497473431147978 0.0
663 -0.0007008697605932245 0.0011567719093120619 0.0034052757552034433 -0.0010429355418375358 0.00015711874573640376 0.0
664 -0.000734702576852379 0.0011562655412054256 0.0033597648964037883 -0.0010468780207060187 0.00013113016471321748 0.0
665 -0.0007659956576443092 0.001156175692531171 0.0033296337402731278 -0.0010487680369670204 0.00010691931286338288 0.0
666 -0.0007949500208472042 0.0011563392843854943 0.0033095623254151213 -0.001049289177111911 8.438776042267232e-05 0.0
667 -0.000821746147558115 0.001156650540645787 0.003296053304556257 -0.0010488930157269189 6.343406761589849e-05 0.0
668 -0.0008465475603288583 0.0011570412926953666 0.003286808926798956 -0.001047878262750075 4.39573931179736e-05 0.0
669 -0.0008695034185019116 0.001157468018205692 0.0032803208582946903 -0.0010464428741520269 2.5859703209410865e-05 0.0
670 -0.0008907504503545226 0.001157903314623684 0.0032756001250645057 -0.0010447183700413767 9.047065853618914e-06 0.0
671 -0.0009104144339688347 0.0011583302930734455 0.003271999324863376 -0.0010427924386263096 -6.56965030623933e-06 0.0
672 -0.0009286113672380507 0.0011587388951571796 0.0032690956004082106 -0.0010407238262638042 -2.107446058713429e-05 0.0
673 -0.0009454484201825452 0.0011591234755244414 0.0032666136233165605 -0.001038552147374168 -3.4546192995083244e-05 0.0
674 -0.0009610247316172635 0.0011594812173465444 0.0032643749215431443 -0.0010363043487036149 -4.705856914955109e-05 0.0
675 -0.000975432091715079 0.001159811095609912 0.003262264548888837 -0.0010339989702639048 -5.8680377098817966e-05 0.0
676 -0.0009887555385098379 0.0011601132005119488 0.0032602091687378982 -0.0010316489552721969 -6.94756966454809e-05 0.0
677 -0.0010010738874849708 0.0011603882973925722 0.003258162648879401 -0.001029263504523145 -7.95041516498992e-05 0.0
678 -0.0010124602075119264 0.0011606375418886413 0.0032560965978528037 -0.0010268493014242938 -8.882117292703784e-05 0.0
679 -0.0010229822525050552 0.0011608622968254927 0.003253994151540036 -0.0010244113224868968 -9.747826138468769e-05 0.0
680 -0.0010327028555605655 0.0011610640156797262 0.003251845897016095 -0.0010219533746823964 -0.0001055232450149432 0.0
681 -0.0010416802906045297 0.0011612441695057656 0.0032496472013865104 -0.0010194784527569243 -0.00011300052594719078 0.0
682 -0.0010499686053933501 0.001161404202152786 0.00324739646392227 -0.0010169889777877329 -0.00011995131546063242 0.0
683 -0.0010576179288994405 0.0011615455038173057 0.0032450939747029712 -0.001014486957327871 -0.00012641385594592454 0.0
684 -0.0010646747555490804 0.0011616693964080016 0.0032427411714730497 -0.0010119740937050512 -0.0001324236295023336 0.0
685 -0.0010711822083755522 0.0011617771264542498 0.003240340157780265 -0.0010094518579722375 -0.00013801355329337136 0.0
686 -0.0010771802828573225 0.0011618698627713653 0.003237893392411771 -0.0010069215410384068 -0.00014321416205163154 0.0
687 -0.0010827060729876482 0.001161948697067341 0.0032354034909940436 -0.0010043842895822385 -0.00014805377827750485 0.0
688 -0.0010877939809513988 0.0011620146463139993 0.0032328731009279724 -0.0010018411317650176 -0.00015255867076069754 0.0
689 -0.0010924759116463362 0.0011620686561227185 0.003230304824152269 -0.0009992929960597492 -0.0001567532020892443 0.0
690 -0.0010967814531732429 0.001162111604638716 0.0032277011710101413 -0.0009967407253911606 -0.0001606599658184126 0.0
691 -0.0011007380443223275 0.0011621443066458829 0.0032250645342401445 -0.0009941850880450839 -0.00016429991395979415 0.0
692 -0.0011043711300010896 0.0011621675176905076 0.0032223971758983663 -0.000991626786318945 -0.00016769247542925206 0.0
693 -0.0011077043054738957 0.0011621819381079505 0.003219701222514928 -0.0009890664635627214 -0.00017085566606264187 0.0
694 -0.0011107594502187217 0.00116218821688438 0.0032169786653977075 -0.0009865047100504373 -0.00017380619077675196 0.0
695 -0.001113556852146332 0.0011621869553176372 0.0032142313640899857 -0.00098394206797891 -0.00017655953841932875 0.0
696 -0.0011161153228731193 0.0011621787104605396 0.003211461051673652 -0.0009813790357996034 -0.00017913006981876487 0.0
697 -0.0011184523046881719 0.001162163998342713 0.0032086693410818957 -0.0009788160720257434 -0.0001815310995109811 0.0
698 -0.0011205839698098911 0.0011621432969743163 0.0032058577318780455 -0.0009762535986166192 -0.0001837749715900649 0.0
699 -0.0011225253124846606 0.0011621170491397698 0.003203027617163074 -0.0009736920040117794 -0.00018587313009917663 0.0
700 -0.0011242902344402183 0.0011620856649917374 0.0032001802903944706 -0.0009711316458700661 -0.0001878361843494369 0.0
701 -0.0011258916241705362 0.0011620495244571711 0.003197316951993247 -0.000968572853554034 -0.00018967396952841272 0.0
702 -0.0011273414304944136 0.0011620089794672193 0.0031944387156592046 -0.0009660159303926337 -0.0001913956029341576 0.0
703 -0.001128650730798971 0.001161964356023063 0.0031915466143598993 -0.0009634611557474238 -0.00019300953614770935 0.0
704 -0.0011298297943500692 0.0011619159561091607 0.003188641605975529 -0.0009609087869035483 -0.00019452360343506016 0.0
705 -0.0011308881410237524 0.0011618640594647938 0.003185724578595374 -0.0009583590608035291 -0.00019594506664855532 0.0
706 -0.0011318345957880946 0.001161808925224434 0.0031827963554773744 -0.0009558121956383465 -0.00019728065687909548 0.0
707 -0.0011326773392413393 0.0011617507934364563 0.00317985769967808 -0.0009532683923095465 -0.00019853661309260495 0.0
708 -0.0011334239544903697 0.0011616898864692548 0.003176909318368574 -0.0009507278357738674 -0.0001997187179677073 0.0
709 -0.0011340814706327618 0.0011616264103133072 0.003173951866857928 -0.0009481906962799403 -0.0002008323311358136 0.0
710 -0.0011346564030876864 0.0011615605557867541 0.00317098595233482 -0.0009456571305070926 -0.00020188242001099285 0.0
711 -0.001135154791002355 0.001161492499651769 0.0031680121373465343 -0.0009431272826141987 -0.0002028735883829659 0.0
712 -0.0011355822319456621 0.0011614224056484973 0.0031650309430356753 -0.0009406012852055917 -0.00020381010293508696 0.0
713 -0.001135943914084381 0.0011613504254525152 0.0031620428521441767 -0.000938079260221624 -0.00020469591783666346 0.0
714 -0.0011362446460236987 0.0011612766995616967 0.00315904831180599 -0.000935561319759258 -0.00020553469754872375 0.0
715 -0.0011364888844813267 0.001161201358117624 0.0031560477361386365 -0.0009330475668288789 -0.00020632983797264076 0.0
716 -0.0011366807599512555 0.001161124521666454 0.0031530415086492743 -0.0009305380960521783 -0.00020708448606106123 0.0
717 -0.0011368241005028088 0.0011610463018638406 0.003150029984470683 -0.0009280329943055151 -0.00020780155800258476 0.0
718 -0.0011369224538500331 0.0011609668021277664 0.0031470134924302196 -0.000925532341314203 -0.00020848375608345125 0.0
719 -0.0011369791078161904 0.0011608861182435652 0.003143992336976281 -0.0009230362101999373 -0.00020913358432184673 0.0
720 -0.0011369971093101363 0.0011608043389243212 0.0031409667999613387 -0.0009205446679865111 -0.00020975336296405776 0.0
721 -0.0011369792819216045 0.0011607215463300992 0.003137937142296882 -0.0009180577760663675 -0.00021034524192447253 0.0
722 -0.0011369282422365361 0.001160637816549043 0.003134903605488369 -0.0009155755906312643 -0.00021091121324677027 0.0
723 -0.0011368464149642341 0.0011605532200431566 0.003131866413059678 -0.0009130981630696568 -0.00021145312265658978 0.0
724 -0.0011367360469628472 0.0011604678220612896 0.0031288257718719895 -0.000910625540333807 -0.00021197268027182633 0.0
725 -0.0011365992202435526 0.001160381683021898 0.003125781873349275 -0.0009081577652783967 -0.00021247147053211112 0.0
726 -0.001136437864026829 0.001160294858867641 0.0031227348946122786 -0.0009056948769734342 -0.0002129509614035922 0.0
727 -0.001136253765920222 0.0011602074013940084 0.003119684999531199 -0.0009032369109930214 -0.0002134125129121658 0.0
728 -0.0011360485822807668 0.0011601193585537872 0.003116632339700075 -0.0009007838996821691 -0.00021385738505345757 0.0
729 -0.001135823847822201 0.001160030774739259 0.003113577055341632 -0.0008983358724030119 -0.0002142867451256014 0.0
730 -0.0011355809845209125 0.0011599416910436802 0.0031105192761455088 -0.0008958928557622213 -0.000214701674526071 0.0
731 -0.0011353213098721298 0.0011598521455035598 0.003107459122044253 -0.0008934548738211633 -0.00021510317505196583 0.0
732 -0.0011350460445434995 0.0011597621733231802 0.003104396703932714 -0.0008910219482899782 -0.00021549217473983593 0.0
733 -0.0011347563194697432 0.0011596718070827129 0.0031013321243366365 -0.0008885940987065624 -0.00021586953327848532 0.0
734 -0.0011344531824294824 0.0011595810769309527 0.0030982654780281763 -0.0008861713426024412 -0.00021623604702611545 0.0
735 -0.0011341376041411676 0.0011594900107640708 0.003095196852601266 -0.0008837536956553156 -0.00021659245366017658 0.0
736 -0.0011338104839138208 0.0011593986343911172 0.003092126329000135 -0.0008813411718305637 -0.00021693943648711786 0.0
737 -0.001133472654884705 0.001159306971687481 0.003089053982011874 -0.0008789337835115869 -0.00021727762843668698 0.0
738 -0.0011331248888741693 0.001159215044737093 0.0030859798807226025 -0.0008765315416202422 -0.0002176076157638664 0.0
739 -0.0011327679008850738 0.0011591228739641025 0.003082904088937429 -0.0008741344557284217 -0.00021792994147939898 0.0
740 -0.001132402353273447 0.0011590304782550357 0.0030798266655734713 -0.0008717425341606227 -0.000218245108529327 0.0
741 -0.0011320288596140256 0.0011589378750719067 0.0030767476650211357 -0.0008693557840890836 -0.00021855358274155485 0.0
742 -0.0011316479882823522 0.0011588450805570128 0.0030736671374788356 -0.0008669742116216108 -0.00021885579555606794 0.0
743 -0.0011312602657752625 0.001158752109630114 0.0030705851292645893 -0.0008645978218825777 -0.0002191521465554631 0.0
744 -0.0011308661797878124 0.0011586589760784424 0.0030675016831038368 -0.0008622266190878132 -0.00021944300580959943 0.0
745 -0.001130466182064839 0.0011585656926400877 0.003064416838395495 -0.0008598606066138547 -0.00021972871604826797 0.0
746 -0.001130060691043856 0.0011584722710812987 0.003061330631459194 -0.0008574997870618569 -0.0002200095946746382 0.0
747 -0.0011296500943040392 0.0011583787222680922 0.0030582430957639102 -0.0008551441623166335 -0.00022028593563077172 0.0
748 -0.001129234750835728 0.0011582850562325956 0.003055154262139515 -0.0008527937336012524 -0.00022055801112620454 0.0
749 -0.0011288149931435827 0.0011581912822345318 0.0030520641589729365 -0.0008504485015274389 -0.00022082607323965358 0.0
750 -0.001128391129195311 0.0011580974088181786 0.0030489728123897137 -0.0008481084661421466 -0.00022109035540293572 0.0
751 -0.0011279634442277653 0.0011580034438651871 0.003045880246423259 -0.0008457736269704361 -0.00022135107377613204 0.0
752 -0.0011275322024201933 0.0011579093946434164 0.00304278648316858 -0.0008434439830554911 -0.00022160842852141658 0.0
753 -0.0011270976484448296 0.0011578152678523009 0.003039691542928333 -0.0008411195329950889 -0.00022186260498341062 0.0
754 -0.0011266600089035429 0.0011577210696647829 0.0030365954443449614 -0.0008388002749757011 -0.0002221137747826385 0.0
755 -0.001126219493659117 0.0011576268057662611 0.003033498204526095 -0.0008364862068036167 -0.00022236209682869698 0.0
756 -0.0011257762970687318 0.001157532481390558 0.0030303998391569406 -0.000834177325934157 -0.00022260771825883865 0.0
757 -0.0011253305991266397 0.0011574381013533606 0.0030273003626082665 -0.0008318736294981656 -0.0002228507753074116 0.0
758 -0.001124882566522931 0.001157343670083092 0.003024199788032859 -0.0008295751143269387 -0.00022309139411130934 0.0
759 -0.001124432353624809 0.0011572491916496236 0.0030210981274580747 -0.000827281776974841 -0.00022332969145641207 0.0
760 -0.0011239801033850918 0.001157154669790767 0.003017995391868643 -0.0008249936137405582 -0.0002235657754685725 0.0
761 -0.0011235259481845218 0.001157060107936889 0.0030148915912852495 -0.0008227106206864943 -0.00022379974625417922 0.0
762 -0.0011230700106116028 0.0011569655092336824 0.0030117867348364727 -0.0008204327936568015 -0.0002240316964931507 0.0
763 -0.0011226124041853675 0.0011568708765632852 0.0030086808308261246 -0.0008181601282939184 -0.00022426171198846147 0.0
764 -0.001122153234024857 0.001156776212563788 0.0030055738867937457 -0.0008158926200541201 -0.0002244898721750742 0.0
765 -0.0011216925974694078 0.001156681519647396 0.0030024659095735946 -0.0008136302642214661 -0.00022471625059145196 0.0
766 -0.0010572200696062253 0.0011949755036251592 0.004256274549798812 -0.0006491851136798208 -0.0001904718165936236 0.0
767 -0.000998152325959122 0.0012194342044607046 0.0050750208434952055 -0.0005402818002718844 -0.00015551190844183556 0.0
768 -0.0009438568368107731 0.0012349107992297094 0.005609736177518171 -0.00046773477664870024 -0.0001210357916407527 0.0
769 -0.0008938387831001079 0.0012445771602647678 0.005959519482892314 -0.0004189199600912526 -8.776106056716503e-05 0.0
770 -0.0008476932115612293 0.0012504985076183708 0.006189099280633003 -0.00038557532632341705 -5.6090745814352334e-05 0.0
771 -0.0008050774103143985 0.0012540159805964973 0.006340632107024192 -0.0003623118044449613 -2.6226041878955913e-05 0.0
772 -0.000765694126436127 0.0012559987589074798 0.006441523469633118 -0.00034562139599661934 1.7591050793840042e-06 0.0
773 -0.0007292808702784419 0.001257009156315628 0.006509568885177149 -0.0003332231682928381 2.7869289318708775e-05 0.0
774 -0.0006956027986320608 0.0012574102912334998 0.006556315455676668 -0.0003236347721826023 5.2156150675809185e-05 0.0
775 -0.0006644477917186526 0.0012574361277883947 0.006589252569106881 -0.00031589284306043496 7.469818534613756e-05 0.0
776 -0.0006356229231067475 0.0012572369645424348 0.006613236549999972 -0.0003093710147673136 9.558792113717294e-05 0.0
777 -0.0006089518401442912 0.0012569089469383862 0.006631415914890015 -0.00030366165519090196 0.00011492386210406203 0.0
778 -0.0005842727545736682 0.001256513201655235 0.006645831801647311 -0.0002984990861316832 0.00013280550775286428 0.0
779 -0.0005614368515570769 0.001256088236554074 0.006657807416902601 -0.00029370976427289764 0.00014933034574772384 0.0
780 -0.0005403069922907432 0.0012556579734539558 0.00666820056487637 -0.00028917996595849297 0.00016459210530043772 0.0
781 -0.0005207566277319937 0.0012552369499643186 0.006677567368033864 -0.00028483482859025184 0.00017867981093081203 0.0
782 -0.0005026688682262958 0.0012548336866337849 0.006686268402306137 -0.00028062475755024035 0.0001916773399726901 0.0
783 -0.00048593567159386727 0.0012544528652454507 0.0066945374985296225 -0.0002765166092038628 0.0002036632930847462 0.0
784 -0.0004704571239253198 0.0012540967368314037 0.006702526341488287 -0.0002724879706227149 0.00021471105542359185 0.0
785 -0.0004561407950773487 0.0012537660306631828 0.006710333379646948 -0.0002685234471386175 0.00022488897027682201 0.0
786 -0.00044290115601969634 0.0012534605400007105 0.0067180225641947176 -0.0002646122517793257 0.0002342605754133612 0.0
787 -0.0004306590486497748 0.0012531794985138661 0.006725635494818301 -0.0002607466389176506 0.0002428848707383019 0.0
788 -0.0004193412010338268 0.0012529218211982604 0.006733199291259739 -0.0002569208854291756 0.00025081659763307964 0.0
789 -0.00040887978264006085 0.0012526862576269116 0.006740731694063016 -0.00025313062699506075 0.0002581065179308415 0.0
790 -0.000399211995240038 0.0012524714885416178 0.0067482443691548825 -0.0002493724248313362 0.0002648016853261726 0.0
791 -0.0003902796959427713 0.0012522761858758892 0.006755745048160671 -0.00024564348197540146 0.00027094570510726704 0.0
792 -0.00038202904939152346 0.0012520990492273585 0.006763238914126755 -0.00024194145669224768 0.000276578980058434 0.0
793 -0.0003744102065744936 0.0012519388272128396 0.006770729498264331 -0.00023826433899374624 0.0002817389416088924 0.0
794 -0.0003673770080197436 0.0012517943291665407 0.006778219259915108 -0.00023461036821588758 0.0002864602660646419 0.0
795 -0.00036088670939643996 0.0012516644307147967 0.006785709961371619 -0.0002309779773480682 0.0002907750762191358 0.0
796 -0.00035489972774716694 0.0012515480755112233 0.006793202909910957 -0.00022736575483344595 0.00029471312890600213 0.0
797 -0.0003493794067438288 0.0012514442746062414 0.0068006991139393 -0.0002237724178169721 0.00029830198920270245 0.0
798 -0.0003442917995042943 0.0012513521043996472 0.00680819938362557 -0.00022019679293151817 0.0003015671920614015 0.0
799 -0.0003396054676308096 0.0012512707037847536 0.006815704395702921 -0.00021663780208173392 0.0003045323921639922 0.0
800 -0.0003352912952408363 0.0012511992708719296 0.006823214735169918 -0.0002130944515744311 0.0003072195027895485 0.0
801 -0.00033132231685981155 0.0012511370595369852 0.0068307309221343196 -0.00020956582351917222 0.00030964882445569294 0.0
802 -0.00032767355813382936 0.001251083375947151 0.006838253429115213 -0.00020605106879784032 0.0003118391640597296 0.0
803 -0.000324321888400226 0.0012510375751581735 0.006845782692242285 -0.00020254940114279433 0.0003138079452049995 0.0
804 -0.00032124588422912677 0.0012509990578374762 0.0068533191185609545 -0.00019906009202131595 0.0003155713103543797 0.0
805 -0.00031842570311407136 0.0012509672671439376 0.00686086309086852 -0.0001955824661250803 0.00031714421541211024 0.0
806 -0.00031584296655447056 0.0012509416857789488 0.0068684149709871845 -0.0001921158973306632 0.0003185405172919615 0.0
807 -0.0003134806518284642 0.0012509218332138682 0.00687597510206041 -0.00018865980503883126 0.0003197730549911389 0.0
808 -0.0003113229918070868 0.0012509072630924557 0.00688354381023555 -0.00018521365082972067 0.0003208537246522712 0.0
809 -0.0003093553822105808 0.0012508975608036238 0.00689112140597203 -0.0001817769353877456 0.00032179354905963946 0.0
810 -0.00030756429575143725 0.0012508923412172354 0.0068987081851140785 -0.00017834919566375208 0.0003226027419839741 0.0
811 -0.00030593720265097244 0.0012508912465748168 0.006906304429820223 -0.0001749300022486685 0.00032329076775895255 0.0
812 -0.0003044624970548472 0.0012508939445265276 0.006913910409405193 -0.00017151895693850788 0.0003238663964439295 0.0
813 -0.00030312942890730504 0.001250900126305438 0.00692152638112467 -0.00016811569047440935 0.00032433775490194375 0.0
814 -0.0003019280408785759 0.0012509095050304052 0.006929152590919353 -0.00016471986044413935 0.0003247123740961828 0.0
815 -0.0003678072885960219 0.0012114261089393756 0.005610180150862739 -0.00033329061815988393 0.00028845263760821446 0.0
816 -0.0004274519976989404 0.0011861903624850942 0.004751634556652838 -0.00044260172567444885 0.000251922053328923 0.0
817 -0.0004817919598692402 0.001170195213110954 0.004192408647825177 -0.0005134018079261892 0.00021614482578410753 0.0
818 -0.0005315351219592436 0.001160188244002132 0.003828050584202208 -0.000559116285070306 0.0001817182661173071 0.0
819 -0.0005772299560306683 0.001154053906955954 0.0035906574480169986 -0.0005884631471521188 0.00014896970413666238 0.0
820 -0.000619311770581598 0.0011504154035604421 0.003436011864261509 -0.0006071167861889863 0.00011805575248232785 0.0
821 -0.0006581353844593491 0.0011483768468572146 0.0033352911433173283 -0.0006187762504367368 8.902582831527432e-05 0.0
822 -0.0006939976262176976 0.0011473557316836755 0.003269697183525696 -0.0006258554057334614 6.186305803549893e-05 0.0
823 -0.000727152672012803 0.0011469738586118914 0.003226967057397075 -0.0006299306516428413 3.6510675741283026e-05 0.0
824 -0.0007578224916429755 0.0011469862276602555 0.003199101036554015 -0.0006320321261434907 1.2889038574391733e-05 0.0
825 -0.0007862040059191571 0.0011472346522130937 0.003180881443701344 -0.0006328334272555186 -9.09345663264534e-06 0.0
826 -0.0008124740504662446 0.0011476174896332331 0.0031689063448421366 -0.0006327753452077111 -2.953342949161941e-05 0.0
827 -0.000836792880065898 0.0011480698880297208 0.003160958868210725 -0.0006321466078891843 -4.852816076634381e-05 0.0
828 -0.0008593067004005368 0.0011485508978148664 0.003155595498145183 -0.0006311365930840483 -6.617292130817609e-05 0.0
829 -0.0008801495481861215 0.001149035065284475 0.003151877301233544 -0.0006298697472575267 -8.255939339223321e-05 0.0
830 -0.000899444730754811 0.0011495069525083548 0.003149194470038966 -0.0006284280623426309 -9.777479696665698e-05 0.0
831 -0.0009173059638282986 0.0011499575675579289 0.0031471517965862604 -0.0006268657553242799 -0.00011190146723240496 0.0
