lar-deeufba/potential_fields_with_aruco/src/custom_codes/csv_files/csv_to_eps/csv_files/ATTFORCE_APF_OriON.csv
Index Joint1 Joint2 Joint3 Joint4 Joint5 Joint6
0 -0.0013627644619158689 0.002021639770278917 0.03798615009605476 0.0056898315052890955 -0.0007852485986063069 0.0
1 -0.0013687359490765273 0.0020253503626526835 0.038179474160899375 0.005655046623078151 -0.0007728208931012214 0.0
2 -0.0014175624002840802 0.0020277152483480477 0.03834393602957599 0.005615158605302305 -0.0008467370299460753 0.0
3 -0.001421882390202869 0.002031234389034411 0.03852718615368425 0.005577638141814821 -0.0008298955346693431 0.0
4 -0.0014248957197745393 0.0020346632832019 0.03870506991250309 0.0055385749709276075 -0.0008098433587821943 0.0
5 -0.0014269999229013011 0.0020379862188087566 0.038877011747513415 0.005497864492020695 -0.000787390151713452 0.0
6 -0.0014849264233619277 0.002039517527217245 0.039010183140850696 0.005450691025103501 -0.0008772025720173457 0.0
7 -0.0014874709014497927 0.0020425677796524514 0.03916861441483487 0.0054067912896612145 -0.0008544307325558083 0.0
8 -0.0014892835545408795 0.002045497020029483 0.03932000431824346 0.0053610810071883196 -0.0008296155391967198 0.0
9 -0.0014903916363048178 0.002048300113485181 0.0394639394517508 0.005313492774859014 -0.0008028285671357787 0.0
10 -0.0015581750536234596 0.002048890639393716 0.039559281400994906 0.005258197419572141 -0.0009090599621544047 0.0
11 -0.0015595292072975572 0.00205140021939626 0.03968699935780865 0.005207097243897222 -0.0008814100770452893 0.0
12 -0.0015601515034372971 0.002053772594026257 0.03980607127805999 0.005153949278237246 -0.0008517563473552989 0.0
13 -0.0015600174329744867 0.002056003274503209 0.03991603621698894 0.0050986846918969235 -0.0008200813883709854 0.0
14 -0.0015752542476054196 0.002057557560471047 0.04000506889150274 0.005039187887435649 -0.0008180868463375281 0.0
15 -0.0015746456840541412 0.0020594603512190056 0.04009483887135559 0.004979507599860549 -0.000784409036496942 0.0
16 -0.0015731598581641857 0.0020612081513069615 0.0401740441936492 0.004917517943206636 -0.000748573163873167 0.0
17 -0.0015707438802849462 0.002062795491630072 0.040242133687551876 0.004853144740983558 -0.0007105298868961077 0.0
18 -0.0015916336936736817 0.002063431540807983 0.04028207426069145 0.004783684217337659 -0.0007169196196558648 0.0
19 -0.001588425911458457 0.002064649888209543 0.04032570629713034 0.004714392931089648 -0.0006764692355308826 0.0
20 -0.0015841035639507922 0.0020656893123329628 0.040356438220401726 0.004642503480829866 -0.0006336257462726726 0.0
21 -0.0016104868032372722 0.0020655140767247143 0.04035218928662193 0.004564750348328274 -0.000648391591633869 0.0
22 -0.001605089854866257 0.0020661407945292377 0.040354603831545606 0.004487521872295923 -0.0006028290132294693 0.0
23 -0.0015983377996583246 0.002066563583648314 0.04034203007759197 0.0044074658861708174 -0.0005546559457345289 0.0
24 -0.0016312544296250562 0.0020654451820426947 0.04028607383814818 0.004320603754679128 -0.0005793796011599256 0.0
25 -0.0016230792675636621 0.0020653952581370437 0.040240649380424154 0.004234755842494069 -0.0005281581097384011 0.0
26 -0.0016132377799432445 0.0020651069219851633 0.04017780167309642 0.0041458440753853205 -0.0004740752327413897 0.0
27 -0.001601590768517627 0.002064565302688777 0.040096617149790646 0.004053787796336018 -0.0004170342686178808 0.0
28 -0.0016446276964984085 0.00206194062299506 0.0399582382241396 0.003953420797495724 -0.0004570841567038096 0.0
29 -0.0016309061635821974 0.0020608108331614237 0.03983701931323139 0.0038549635377152064 -0.00039649320258201457 0.0
30 -0.00161494357402862 0.0020593748753443635 0.03969454354820467 0.003753146233730787 -0.00033264867337677123 0.0
31 -0.0016678035669933267 0.0020553106559758013 0.03948096761475985 0.0036413691100079535 -0.0003873027101775144 0.0
32 -0.0016491484199492056 0.0020531646898805517 0.03929225297652706 0.0035327433644380844 -0.0003194948481379631 0.0
33 -0.001627704168808766 0.0020506419671482007 0.03907907350146586 0.003420599371479028 -0.00024811032344321455 0.0
34 -0.0016922651552829905 0.002044805829588972 0.03877736618179384 0.003296335884528833 -0.0003197768497363899 0.0
35 -0.001667347105104669 0.002041416579387127 0.0385113323310826 0.0031771182862480657 -0.00024397712581805252 0.0
36 -0.0016389649418348442 0.0020375607040945677 0.038217553137257734 0.0030543448733959737 -0.00016426173247238496 0.0
37 -0.001717388995942806 0.0020295347138310667 0.03781353331769413 0.002916638906306461 -0.0002555457676586435 0.0
38 -0.0016845661556310074 0.0020246241016660263 0.03746052250737063 0.002786814052743445 -0.00017093353535062273 0.0
39 -0.0016474755298917993 0.0020191408154665333 0.037076858253225646 0.0026536102258742505 -8.207300109567742e-05 0.0
40 -0.0017421762331713566 0.0020084282314714163 0.03655623333183712 0.002501858632657118 -0.00019567085051168268 0.0
41 -0.0016994928515420545 0.002001687560669776 0.03610840454409613 0.002362117040262073 -0.00010142301909868038 0.0
42 -0.0016516337472560199 0.001994263800601085 0.035628139647410836 0.002219508785014421 -2.636388239989182e-06 0.0
43 -0.0017651916075572109 0.001980325320739957 0.03497864490817104 0.0020537950199306316 -0.00014114964520913186 0.0
44 -0.0017104477716385598 0.0019714671567291377 0.03443259317290297 0.0019058959199957778 -3.6512021299050135e-05 0.0
45 -0.0016495821546623165 0.001961835339810865 0.033854502106248255 0.0017561029617353839 7.286386097377621e-05 0.0
46 -0.0015823038462012516 0.0019514014663086464 0.03324512157303043 0.0016048955201325033 0.00018693306679097127 0.0
47 -0.0017233896063705589 0.001932635819704326 0.03241822327161758 0.0014227745578550815 1.3160119935659998e-05 0.0
48 -0.007515439609698643 0.0019656120863158185 0.032046841845417194 0.001180006362321533 -0.004602920195218203 0.0
49 -0.006673463958428877 0.001952763404535614 0.03136059365434591 0.0010303978501174744 -0.0038213203040703054 0.0
50 -0.006982680561278095 0.0019362160418628573 0.03044256420687663 0.0008259577717897007 -0.00411729174069074 0.0
51 -0.006139216477898667 0.0019200889202581285 0.029695533546410295 0.0006810039437394858 -0.0033501961193340636 0.0
52 -0.00534376331782155 0.0019005619886898425 0.02886256698903733 0.0005296337653790044 -0.0026331685319559085 0.0
53 -0.005847917361991007 0.0018773073684122934 0.027695738063839216 0.0002926616395353488 -0.003099655161187249 0.0
54 -0.005052898001151229 0.0018546550221116506 0.02679102068348215 0.0001425904877234473 -0.0023948153490915194 0.0
55 -0.004281185414016443 0.001830791579751033 0.025887246474813705 1.9204243941494704e-06 -0.0017201249187076206 0.0
56 -0.0049289095833006955 0.0018048738739515524 0.02464168955873941 -0.00023562313763103452 -0.0023094214774861074 0.0
57 -0.004131558070847688 0.0017806978032361518 0.02377811936171937 -0.0003568035083125606 -0.0016232419018862223 0.0
58 -0.0033619287884154234 0.0017560742567392599 0.022939936072904326 -0.00046610948401658173 -0.0009690233920177265 0.0
59 -0.004138394351783371 0.0017294435952961214 0.021681593275612993 -0.000696606824817808 -0.0016610859495784706 0.0
60 -0.0033413470528386646 0.0017059820692887475 0.020929472474987998 -0.0007823193588120669 -0.0009908494024145286 0.0
61 -0.002576820496275458 0.001682656997304058 0.020217430142057367 -0.000855675600792213 -0.0003547821016158186 0.0
62 -0.0018449447972740032 0.0016597447621323229 0.019548652939552227 -0.0009172274790398109 0.00024773538106238565 0.0
63 -0.0027796638229980394 0.001635187232742041 0.018348965705505513 -0.0011339091263333568 -0.00055973386098106 0.0
64 -0.0020170945543289626 0.001614780904622865 0.017797826704321437 -0.0011714929049849222 6.515022342647126e-05 0.0
65 -0.00128583779725873 0.001595589308985375 0.017314566935683458 -0.0011948962289819284 0.0006590250610836308 0.0
66 -0.0005905366141987141 0.0015772658730222125 0.016877899827404567 -0.0012085067868487264 0.0012187308843069095 0.0
67 -0.0016462284955759809 0.001556617207019223 0.015779545623808032 -0.0014101643547499085 0.00033258492506032215 0.0
68 -0.000915074085768454 0.0015415992759679174 0.015475664787197953 -0.0014009167681700353 0.0009212574603191864 0.0
69 -0.00022365942246675547 0.0015273183775160318 0.015208630014374083 -0.0013844128335743242 0.001473712616021393 0.0
70 0.00042915764151913913 0.001513868473091166 0.014975881455743313 -0.001361754212620749 0.001991363474900997 0.0
71 0.0010446216204582969 0.0015013175942016647 0.014774723452415336 -0.0013339522088377939 0.0024756735134916583 0.0
72 -0.0001306430878414813 0.001485785877063306 0.013774859337484506 -0.0015263746671898425 0.0015232593840160558 0.0
73 0.0005272634212336052 0.0014763712288094425 0.013692663067148614 -0.0014797781875576666 0.0020435319719620914 0.0
74 0.0011448329899697057 0.0014675360988051908 0.013629146573561204 -0.0014303517157181515 0.0025286188480809703 0.0
75 0.0017238115593844613 0.0014593431699141245 0.013582180434335097 -0.0013788726607290001 0.0029802993207284903 0.0
76 0.0022659597745675773 0.001451836748570236 0.013549762832370197 -0.001326003190926151 0.0034003394367888838 0.0
77 0.0010103116772479544 0.0014402186001685293 0.012617150210133102 -0.0015125349641523973 0.0024123936022568343 0.0
78 0.0016012519506405766 0.0014354208207310707 0.012688918319501197 -0.001443554461590956 0.0028739655460083414 0.0
79 0.002152607191142573 0.0014309421582707584 0.01276296593660945 -0.0013750118433404229 0.003301965326198159 0.0
80 0.002666477327929624 0.0014268479348643606 0.012838479656846296 -0.0013073150049197966 0.003698383483663996 0.0
81 0.003144910533017729 0.0014231865557904335 0.012914755879716012 -0.001240775656822462 0.004065147779039809 0.0
82 0.0035898909978646304 0.0014199917749398762 0.012991188033169378 -0.0011756231572507378 0.004404112673490189 0.0
83 0.003989044703197382 0.0014156659027407237 0.012999941602142975 -0.0011222555350128118 0.004704745897156766 0.0
84 0.0026487976252675613 0.001405994981197328 0.012039825068344919 -0.0013155866009536292 0.0036949677594105062 0.0
85 0.0031263487527535827 0.0014058782835692806 0.012228406450755807 -0.001233718358426576 0.004061464430612981 0.0
86 0.0035683278231725592 0.0014058151370546475 0.01240338324913055 -0.001155184291452218 0.0043987200116257265 0.0
87 0.003976984284133658 0.0014058733908313024 0.012565754200222818 -0.0010799231045208605 0.0047087742717206475 0.0
88 0.004338981958629019 0.001404310161815987 0.012642653730194272 -0.0010188445558020386 0.004980284722412187 0.0
89 0.004674496906626695 0.0014032470072738918 0.012719755874686815 -0.0009590762457534613 0.005230553376937044 0.0
90 0.004985056757292541 0.001402668029959605 0.012796438377344678 -0.0009006742871031498 0.005460968417903127 0.0
91 0.00527211324440326 0.001402553473641402 0.01287216392408316 -0.0008436622595593155 0.005672839369938674 0.0
92 0.005537042385238845 0.0014028806237873987 0.012946469679117202 -0.0007880375963192083 0.005867398654068604 0.0
93 0.004174573773302599 0.0013950562341337573 0.012034671661198534 -0.0009659563463868324 0.004900001703600989 0.0
94 0.00452543645473757 0.0013989898029470905 0.012282695238687939 -0.0008822384622046181 0.0051646971999969055 0.0
95 0.004829947676646609 0.0014007240233119803 0.012426258171817316 -0.0008148961519569284 0.005391705564986535 0.0
96 0.005109722160837861 0.001402627253270972 0.01255986352445094 -0.0007501066114662177 0.005599428174579132 0.0
97 0.005366340096271117 0.0014047057750947438 0.012684028507968209 -0.000687728634820172 0.005789260414019294 0.0
98 0.005601282164981206 0.0014069603378645155 0.01279923302414787 -0.0006276155273463315 0.005962501596954482 0.0
99 0.005815933480432878 0.0014093872111955745 0.012905919788733594 -0.0005696188548036324 0.006120359630638377 0.0
100 0.006011587895828717 0.0014119790852214359 0.013004495167219037 -0.0005135913771014185 0.00626395593436025 0.0
101 0.00618945253892327 0.00141472583399696 0.013095330521878203 -0.0004593893018357447 0.006394330471697359 0.0
102 0.006350652459934129 0.0014176151590226474 0.013178763917162448 -0.0004068739749601882 0.006512446790013053 0.0
103 0.00649623530368736 0.0014206331285573264 0.013255102066070876 -0.0003559131095041152 0.006619196986931714 0.0
104 0.006627175937208337 0.0014237646270508402 0.013324622426902525 -0.0003063816384611842 0.006715406544555135 0.0
105 0.006744380980362989 0.00142699372757261 0.01338757538046875 -0.000258162264791857 0.006801838988936091 0.0
106 0.005447788653186309 0.0014180154392986729 0.0125696137675619 -0.0003967512286121367 0.0059647963013579365 0.0
107 0.0056329097820084955 0.0014222917593477023 0.012715154185550928 -0.0003340746940007156 0.0061028752876281156 0.0
108 0.0057991175940789895 0.0014264102588012189 0.012844306356757141 -0.0002742656043027052 0.00622712547741667 0.0
109 0.0059477403828025795 0.0014303918709644527 0.012958485589805053 -0.00021704937227461454 0.006338674101047119 0.0
110 0.006080000991404417 0.001434251623182143 0.013058939536892553 -0.00016217706213089928 0.00643855143391595 0.0
111 0.006197024865440509 0.0014379997327642856 0.013146768270606412 -0.00010942384136652938 0.006527699007810575 0.0
112 0.0062998476543623195 0.0014416425217317103 0.013222942155795208 -5.858736247272797e-05 0.0066069772597697335 0.0
113 0.006389422341054373 0.001445183178769514 0.013288317708830885 -9.486131814281668e-06 0.006677172615367694 0.0
114 0.006466625894295841 0.0014486223928387922 0.013343651641163697 3.8042094537601556e-05 0.006739004017768285 0.0
115 0.006532265450314167 0.0014519588793049597 0.013389613277756182 8.414186107924093e-05 0.006793128923347257 0.0
116 0.006587084037281135 0.00145518981625083 0.013426795528746803 0.0001289414917559587 0.006840148790543271 0.0
117 0.00663176586169893 0.001458311205861253 0.013455724577664205 0.0001725544868549818 0.0068806140919081705 0.0
118 0.006666941178830697 0.0014613181733722034 0.01347686843358718 0.00021508083233127452 0.006915028880838395 0.0
119 0.006693190771169024 0.0014642052140366756 0.01349064447896665 0.0002566082196039487 0.006943854944734061 0.0
120 0.006711050059794652 0.0014669663968331346 0.013497426130037717 0.00029721317643587367 0.006967515575752856 0.0
121 0.006721012873656528 0.0014695955321903803 0.013497548713204608 0.00033696211131541425 0.00698639898920122 0.0
122 0.006723534901517809 0.0014720863097878918 0.013491314648614784 0.0003759122749980902 0.00700086141814691 0.0
123 0.006719036850732924 0.0014744324114792113 0.013478998021382518 0.00041411264369092273 0.0070112299112035864 0.0
124 0.006707907336265755 0.0014766276035474376 0.01346084861152465 0.00045160472888645963 0.007017804858737888 0.0
125 0.0066905055225233425 0.0014786658118100043 0.013437095445541041 0.0004884233191617036 0.007020862271062791 0.0
126 0.006667163539722241 0.0014805411825213905 0.013407949925582172 0.000524597159410463 0.007020655830558139 0.0
127 0.006638188695671485 0.0014822481315577825 0.01337360858617894 0.0005601495730228069 0.007017418738137275 0.0
128 0.006603865503073264 0.0014837813839893958 0.013334255523415363 0.0005950990324924515 0.007011365373078305 0.0
129 0.006564457541717135 0.0014851360058396822 0.013290064537076469 0.0006294596838450173 0.007002692783969201 0.0
130 0.006520209174282847 0.0014863074295829225 0.013241201022563496 0.0006632418301508286 0.006991582027385451 0.0
131 0.006471347133848666 0.0014872914747314982 0.013187823646107398 0.0006964523792227529 0.006978199369920025 0.0
132 0.006418082000610241 0.0014880843647014867 0.013130085833906282 0.0007290952604058219 0.0069626973683150776 0.0
133 0.00636060958471302 0.001488682741010806 0.01306813710313448 0.0007611718151385759 0.0069452158416896965 0.0
134 0.006299112231440035 0.0014890836757499937 0.013002124260213747 0.0007926811657026495 0.006925882749201188 0.0
135 0.006233760064224798 0.0014892846831635654 0.012932192489173973 0.0008236205662674736 0.006904814985899085 0.0
136 0.006164712180007244 0.0014892837310828324 0.01285848635027093 0.0008539857399731804 0.006882119109004652 0.0
137 0.006092117810245269 0.001489079252851554 0.012781150706156513 0.0008837712053629492 0.00685789200634156 0.0
138 0.006016117459358579 0.001488670160277826 0.012700331589749352 0.0009129705949671238 0.006832221518119205 0.0
139 0.005936844030437222 0.001488055858022644 0.012616177024444807 0.000941576968242013 0.006805187022684782 0.0
140 0.005854423945631451 0.0014872362596932173 0.012528837803418878 0.0009695831203712889 0.006776859996169317 0.0
141 0.005768978265706474 0.001486211805743477 0.012438468230511812 0.0009969818876433903 0.0067473045551075484 0.0
142 0.005680623809789007 0.001484983483094278 0.012345226820592782 0.0010237664492318045 0.006716577990069183 0.0
143 0.005589474272393987 0.0014835528461727924 0.012249276952522405 0.0010499306242422518 0.006684731297063899 0.0
144 0.005495641330508261 0.0014819220388397494 0.01215078746304601 0.0010754691618833027 0.006651809711954838 0.0
145 0.005399235729008442 0.0014800938164334053 0.012049933165432115 0.001100378021608697 0.006617853251339006 0.0
146 0.0053003683282648265 0.0014780715669239636 0.011946895272760608 0.0011246546391321386 0.006582897261359178 0.0
147 0.005202351056169173 0.0014759544635164754 0.011844231886475766 0.0011487061490763168 0.0065485916413109205 0.0
148 0.005101484809824526 0.0014736326387042476 0.011739146276281955 0.0011720377746409906 0.006513033804791532 0.0
149 0.0049979159387946994 0.0014711122844173752 0.011631898785721347 0.0011946589608390569 0.006476266831435812 0.0
150 0.0048917935823805095 0.001468400287133749 0.011522753439881548 0.001216581054396502 0.006438329774632057 0.0
151 0.004783270430891651 0.0014655042424338073 0.011411978131711992 0.0012378175381259743 0.0063992583947811215 0.0
152 0.004672503255278393 0.0014624324560917556 0.011299844458972448 0.0012583841983592197 0.0063590858510163845 0.0
153 0.0045596531907451466 0.00145919393073246 0.011186627216423082 0.0012782992227128981 0.006317843343227477 0.0
154 0.004444885768520568 0.0014557983375627435 0.011072603559402091 0.0012975832274137174 0.006275560696398808 0.0
155 0.0043283706998129305 0.0014522559732559313 0.010958051867286302 0.0013162592156586912 0.006232266880239841 0.0
156 0.00421028142631027 0.0014485777026840086 0.01084325034735649 0.001334352470846058 0.006187990458746203 0.0
157 0.004090794461472431 0.0014447748888009647 0.0107284754301583 0.0013518903907782601 0.0061427599665114675 0.0
158 0.0039700885554198725 0.0014408593115313214 0.010614000015541783 0.0013689022709141754 0.006096604211081542 0.0
159 0.003848343722722174 0.0014368430779638877 0.010500091633446864 0.0013854190462727013 0.0060495525031638185 0.0
160 0.0037257401763262678 0.0014327385264580929 0.010387010584774854 0.0014014730025532468 0.0060016348188354305 0.0
161 0.003602457212047649 0.001428558127420422 0.010275008125351235 0.001417097467394697 0.005952881899851781 0.0
162 0.0034786720865684394 0.0014243143834993673 0.0101643247503876 0.0014323264924582994 0.005903325299605775 0.0
163 0.0033545589280971062 0.0014200197317923056 0.010055188628635017 0.0014471945362629695 0.005852997383170628 0.0
164 0.00323430342731982 0.0014158174216266336 0.00995037090753387 0.0014621879138865597 0.005804122973537494 0.0
165 0.0031141529924925086 0.0014115861249521097 0.009847293346626068 0.0014768767101008729 0.005754634573249126 0.0
166 0.0029942468234824956 0.0014073366253640062 0.009746124725330062 0.0014912914879158868 0.00570456029766712 0.0
167 0.0028747180186406898 0.00140307934168119 0.009647019142294776 0.0015054622340225166 0.005653928530348823 0.0
168 0.0027556930976661426 0.0013988242781366662 0.009550115722496805 0.0015194181846253918 0.005602767834011762 0.0
169 0.002637291638977624 0.0013945809826605624 0.00945553850436837 0.0015331876752317803 0.005551106861397896 0.0
170 0.002519626028591887 0.0013903585132671557 0.009363396494661481 0.0015467980146423245 0.0054989742696660805 0.0
171 0.0024028013140446505 0.0013861654123191822 0.009273783875066707 0.001560275382583342 0.005446398640897585 0.0
172 0.002286915154372158 0.0013820096882548297 0.009186780342227734 0.0015736447497995756 0.005393408410383765 0.0
173 0.00217205785553047 0.0013778988042244273 0.009102451561574128 0.0015869298189805088 0.0053400318035967485 0.0
174 0.0020583124797608618 0.00137383967299153 0.009020849715158177 0.00160015298460508 0.005286296782130416 0.0
175 0.0019457550171767834 0.0013698386574008763 0.0089420141242172 0.001613335309634589 0.005232230998430851 0.0
176 0.0018344546081174625 0.0013659015756973848 0.008865971928305714 0.0016264965169379166 0.005177861758801042 0.0
177 0.0017244738054504717 0.0013620337109887647 0.00879273880435786 0.0016396549933706834 0.005123215993943546 0.0
178 0.0016158688668921916 0.0013582398241731401 0.008722319710804217 0.0016528278045291737 0.005068320236176982 0.0
179 0.001508690068452493 0.0013545241696963901 0.008654709643743255 0.0016660307183404422 0.005013200602408597 0.0
180 0.0013832414905340872 0.0013482109539788034 0.00851095446110311 0.0016716524126937468 0.004945556377013157 0.0
181 0.0012608240673120724 0.002460711331706156 0.03997780719205209 0.004704208362445043 0.006434285322852411 0.0
182 0.001123788863117769 0.0021579251821564056 0.031158067551312736 0.003899932528385673 0.006005849620206324 0.0
183 0.001011464503050432 0.0019358552215575108 0.024734615924641275 0.0033128408922343915 0.0056671867802547795 0.0
184 0.0009158151324921204 0.0017730953652170874 0.020055500784100923 0.0028870507925818022 0.005403354564630789 0.0
185 0.0008312869429004713 0.001653668783498584 0.016641493517925245 0.0025799195195497586 0.005198288700294368 0.0
186 0.0007540884324089337 0.0015658235531864234 0.014144400269611562 0.0023596559287474097 0.005037792122881093 0.0
187 0.0006816471908678999 0.0015009772237438734 0.012312330904015246 0.0022028390838261186 0.004910343151455692 0.0
188 0.0006122275681987566 0.0014528831105697878 0.010963245683212948 0.0020923201325551036 0.0048070070319339705 0.0
189 0.0005446680989937531 0.0014170010175134865 0.009965523463382215 0.002015582087865545 0.004721040785003553 0.0
190 0.00047820214908515503 0.0013900323790116123 0.009223896199183377 0.001963502828212481 0.004647444285912003 0.0
191 0.00041233510176360113 0.0013695804194140259 0.008669321404866853 0.0019294387048295674 0.004582554916371136 0.0
192 0.00034675981830502116 0.0013539029333285097 0.008251697885562601 0.0019085519083456336 0.004523714398497911 0.0
193 0.0002812981206747777 0.0013417328355527888 0.007934622710576215 0.0018973191476031055 0.004469008021213307 0.0
194 0.00021586009308732172 0.0013321480036932614 0.007691612148465864 0.001893173670380827 0.004417066292903591 0.0
195 0.00015041567717389063 0.0013244768791913918 0.007503373566703474 0.0018942447594508414 0.004366916772793327 0.0
196 8.497480662771422e-05 0.0013182299831937879 0.007355833098402695 0.0018991682585000865 0.004317874697534143 0.0
197 1.957350729602495e-05 0.001313050211007625 0.007238707807299549 0.0019069487735552581 0.004269462900484796 0.0
198 -4.573581689574284e-05 0.001308676737989848 0.007144470834175009 0.0019168594419220165 0.004221353513549368 0.0
199 -0.00011089115132802023 0.001304918796330112 0.007067600618054931 0.0019283690065435492 0.00417332570171019 0.0
200 -0.0001758255592156996 0.00130163661415518 0.0070040357480423455 0.0019410887387686076 0.0041252351148943255 0.0
201 -0.0002404704018819704 0.00129872755461222 0.006950778837581391 0.0019547337928928336 0.004076991860602225 0.0
202 -0.00030475752191829337 0.0012961160323360864 0.006905608504269739 0.0019690950579042245 0.004028544650480026 0.0
203 -0.0003686206944630793 0.0012937461753209881 0.006866869839059839 0.001984018647742785 0.003979869408546341 0.0
204 -0.0004319965630939353 0.0012915764830985737 0.006833321902922931 0.0019993909523015898 0.003930961097249157 0.0
205 -0.0004948252140667315 0.0012895759371353913 0.00680402668252942 0.0020151277383169113 0.0038818278607007364 0.0
206 -0.0005570504981216457 0.001287721168045411 0.0067782682019393616 0.002031166201002788 0.0038324868344567892 0.0
207 -0.0006186201774420824 0.001285994392120001 0.006755493578140443 0.002047459166414719 0.0037829611526487344 0.0
208 -0.0006794859528345257 0.001284381908040469 0.006735270050207992 0.002063970861968829 0.0037332778145831697 0.0
209 -0.0007396034101518051 0.0012828730015817258 0.006717253639513856 0.0020806738306949806 0.0036834661677505203 0.0
210 -0.0007989319135435185 0.0012814591475149577 0.0067011662809192945 0.0020975466798872928 0.0036335568325595634 0.0
211 -0.0008574344649599142 0.0012801334280322218 0.006686779124596028 0.0021145724386107665 0.003583580943359199 0.0
212 -0.0009150775435197468 0.0012788901089302634 0.006673900333442552 0.002131737359561021 0.0035335696157398682 0.0
213 -0.0009718309342105961 0.001277724330744736 0.006662366156140169 0.002149030045259121 0.0034835535755787317 0.0
214 -0.0010276675524431625 0.0012766318836440506 0.0066520343871928015 0.0021664408109973196 0.0034335629035914315 0.0
215 -0.0010825632688882601 0.0012756090433547842 0.006642779566555417 0.002183961220607371 0.0033836268622897663 0.0
216 -0.0011364967375454929 0.001274652451556471 0.006634489447199628 0.0022015837483829667 0.003333773781667453 0.0
217 -0.001189449228946585 0.0012737590286765932 0.0066270623869999785 0.0022193015330843778 0.003284030986692324 0.0
218 -0.0012414044696652442 0.0012729259102910288 0.006620405414618244 0.0022371081991485755 0.0032344247545210963 0.0
219 -0.001292348488795355 0.0012721504007217523 0.006614432787046702 0.002254997726942035 0.0031849802928155956 0.0
220 -0.0013422694717074753 0.0012714299391628511 0.006609064906006752 0.002272964358795617 0.003135721733014974 0.0
221 -0.0013911576211551337 0.001270762074933547 0.00660422749649525 0.0022910025311409605 0.0030866721341861023 0.0
222 -0.0014390050256435655 0.0012701444493807093 0.0065998509770698625 0.0023091068256823983 0.0030378534943349914 0.0
223 -0.0014858055348704274 0.001269574782626386 0.006595869970620257 0.0023272719344475277 0.0029892867669603766 0.0
224 -0.0015315546419839314 0.0012690508638462778 0.00659222291832368 0.002345492634953739 0.0029409918812695365 0.0
225 -0.0015762493723688788 0.0012685705441222881 0.0065888517696432395 0.0023637637727461002 0.002892987764929401 0.0
226 -0.0016198881786524486 0.0012681317311720114 0.006585701728609004 0.0023820802493038527 0.0028452923685478213 0.0
227 -0.0016624708416175527 0.0012677323854479064 0.006582721042016364 0.002400437013856717 0.0027979226913075568 0.0
228 -0.0017039983767145562 0.0012673705172360913 0.006579860819068988 0.002418829058045858 0.0027508948073361817 0.0
229 -0.0017444729458724168 0.0012670441844853714 0.006577074874848439 0.002437251412654149 0.002704223892508209 0.0
230 -0.0017838977743208162 0.0012667514911697706 0.006574319592048344 0.0024556991458398103 0.0026579242514566032 0.0
231 -0.0018222770721501276 0.0012664905860410216 0.006571553796914287 0.0024741673624611655 0.0026120093446267883 0.0
232 -0.0018596159603508635 0.0012662596616658372 0.006568738646411753 0.0024926512041911824 0.002566491815245945 0.0
233 -0.001895920401087613 0.00126605695367106 0.006565837524438561 0.002511145850202419 0.0025213835161100365 0.0
234 -0.001931197131979229 0.0012658807401400352 0.006562815945465265 0.0025296465182614762 0.002476695536109818 0.0
235 -0.0019654536041694834 0.0012657293411183095 0.0065596414643975184 0.0025481484661148083 0.0024324382264328073 0.0
236 -0.001998697923984909 0.0012656011181978177 0.0065562835917601335 0.0025666469930795857 0.0023886212263896996 0.0
237 -0.0020309387979914177 0.0012654944741564073 0.006552713713514376 0.0025851374417753615 0.002345253488820381 0.0
238 -0.00206218548126965 0.0012654078526353745 0.0065489050149771895 0.002603615199948852 0.002302343305043204 0.0
239 -0.0020926413038112913 0.0012653588139689893 0.006545456328134155 0.0026221497987929444 0.0022597581416425516 0.0
240 -0.0021719460026208654 0.0012382203250822133 0.005788397520664477 0.0025552184499189525 0.002175535318689247 0.0
241 -0.002246702647151465 0.001218720244717915 0.005247801526294714 0.0025121123395385764 0.0020973886512633813 0.0
242 -0.0023173798179291 0.0012046908204393161 0.004861478343782415 0.002486096590475949 0.0020240629837790895 0.0
243 -0.002345904159193118 0.0012155282110801312 0.005165408720730142 0.0025388219504030147 0.0019868133187759 0.0
244 -0.002373782227423207 0.001223251738611978 0.005379944701411375 0.0025816160222774595 0.0019484565380948136 0.0
245 -0.002400889656082719 0.0012287657941237474 0.0055308060414152645 0.0026173289735002356 0.0019095356610700702 0.0
246 -0.0024271450380377413 0.0012327134934949345 0.005636304371838475 0.0026479905414571766 0.0018704198418411035 0.0
247 -0.002452497376683022 0.0012355517095752428 0.005709463462321424 0.002675045082900912 0.0018313604359474996 0.0
248 -0.00247691710829124 0.0012376046812780273 0.00575953764632865 0.0026995194974622425 0.0017925285822810678 0.0
249 -0.002500389708595159 0.0012391022727100303 0.0057930972559024985 0.002722143145421088 0.0017540405938600236 0.0
250 -0.0025229111554028027 0.0012402072507022468 0.005814803397129826 0.0027434334434401756 0.0017159752128990042 0.0
251 -0.0025444847170555795 0.0012410347157724476 0.0058279603040240005 0.002763756930343775 0.001678385386636013 0.0
252 -0.0025651186842485935 0.001241665932519712 0.00583490871056336 0.002783372808877584 0.001641306327503876 0.0
253 -0.0025848247710919445 0.0012421581662893793 0.005837305740258412 0.0028024639745421313 0.0016047610409295088 0.0
254 -0.0026036169898798044 0.001242551674338877 0.005836323883628957 0.002821159114395746 0.0015687641211183563 0.0
255 -0.0026215108605764773 0.0012428746711914808 0.005832792343252093 0.00283954843640993 0.001533324359407088 0.0
256 -0.0026385228564797646 0.001243146852802666 0.005827297364481386 0.0028576948584124297 0.001498446537310235 0.0
257 -0.002654670016339126 0.0012433818961672207 0.00582025340178192 0.0028756419623823344 0.0014641326592870572 0.0
258 -0.0026699696736745115 0.001243589231046428 0.005811953562559481 0.00289341964575134 0.0014303828003366958 0.0
259 -0.0026844392685433276 0.0012437752949257842 0.005802605337310325 0.002911048134038759 0.001397195688794213 0.0
260 -0.0026980962172627647 0.0012439444213198404 0.005792355889720829 0.002928540828234273 0.0013645691071200543 0.0
261 -0.0027109578228377527 0.0012440994680971776 0.00578130994398113 0.0029459063240824005 0.0013325001676386104 0.0
262 -0.002723041213957829 0.0012442422615776447 0.005769542426373403 0.0029631498432302937 0.001300985502400194 0.0
263 -0.0027343633040261897 0.0012443739101611322 0.005757107392028877 0.0029802742469171185 0.0012700213941026764 0.0
264 -0.002744940764222674 0.0012444950256157307 0.005744044322647919 0.0029972807535287157 0.001239603866582708 0.0
265 -0.002754790006385336 0.0012446058790496414 0.005730382564781478 0.0030141694462027307 0.0012097287475898893 0.0
266 -0.002763927172751567 0.0012447065107098441 0.005716144453824305 0.003030939631670988 0.0011803917125684951 0.0
267 -0.0027723681304805585 0.0012447968071594103 0.005701347509636356 0.003047590093750766 0.0011515883154308083 0.0
268 -0.0027801284694993628 0.0012448765554217368 0.005686005976827228 0.003064119272267348 0.0011233140104222822 0.0
269 -0.002787223502648961 0.001244945480871471 0.005670131902750915 0.0030805253892210406 0.001095564167886764 0.0
270 -0.002793668267412173 0.001245003273663656 0.0056537358896339325 0.0030968065376481306 0.0010683340858532939 0.0
271 -0.002799477528719358 0.001245049607085377 0.00563682761718219 0.0031129607441111942 0.0010416189987586166 0.0
272 -0.002804665782478452 0.00124508415021881 0.005619416203665171 0.003128986012554189 0.001015414084203161 0.0
273 -0.0028092472595800193 0.0012451065766016737 0.0056015104534585854 0.003144880354993329 0.000989714468354679 0.0
274 -0.0028132359302035686 0.0012451165700735874 0.005583119024860455 0.0031606418129085266 0.0009645152304178803 0.0
275 -0.0028166455083018177 0.0012451138286464268 0.005564250542017896 0.003176268472066567 0.0009398114064566488 0.0
276 -0.0028194894561766534 0.0012450980669890946 0.0055449136677496015 0.00319175847270423 0.0009155979927641286 0.0
277 -0.0028217809890863843 0.0012450690179423435 0.005525117149074351 0.0032071100164318338 0.0008918699489139875 0.0
278 -0.002823533079840928 0.0012450264333565386 0.005504869843760878 0.003222321370818183 0.000868622200584577 0.0
279 -0.002824758463355622 0.001244970084458159 0.0054841807337370815 0.003237390872333921 0.0008458496422179932 0.0
280 -0.0028254696411421586 0.0012448997618899832 0.005463058929464403 0.0032523169281314076 0.0008235471395572323 0.0
281 -0.0028256788857226023 0.0012448152755269318 0.005441513668161626 0.0032670980169987145 0.0008017095320904479 0.0
282 -0.00282539824495613 0.0012447164541389867 0.005419554307893293 0.00328173268972502 0.0007803316354228686 0.0
283 -0.00282463954627168 0.0012446031449516995 0.00539719031894423 0.003296219569046149 0.0007594082435902911 0.0
284 -0.0028234144008030767 0.0012444752131395111 0.005374431273467513 0.0033105573492886197 0.000738934131323241 0.0
285 -0.0028217342074232715 0.0012443325412767004 0.005351286834098079 0.003324744795796321 0.0007189040562689531 0.0
286 -0.002819610156676832 0.0012441750287634627 0.0053277667420164225 0.0033387807441997482 0.0006993127611754436 0.0
287 -0.002817053234610817 0.001244002591239129 0.005303880804792904 0.003352664099569716 0.0006801549760404883 0.0
288 -0.002814074226504135 0.0012438151599912387 0.0052796388842480755 0.0033663938354863403 0.0006614254202278187 0.0
289 -0.002810683720496854 0.0012436126813661845 0.005255050884482105 0.0033799689930443548 0.0006431188045515656 0.0
290 -0.002806892111120736 0.0012433951161858162 0.005230126740187653 0.003393388679811326 0.0006252298333298666 0.0
291 -0.002802709602733661 0.001243162439172549 0.005204876405309893 0.0034066520687491674 0.0006077532064074489 0.0
292 -0.002798146212859317 0.0012429146383851706 0.005179309842106947 0.00341975839710825 0.0005906836211478163 0.0
293 -0.0027932117754355724 0.0012426517146664987 0.005153437010636039 0.003432706965299915 0.0005740157743941257 0.0
294 -0.002787915943973123 0.0012423736811036758 0.005127267858679711 0.003445497135751898 0.0005577443643991264 0.0
295 -0.0027822681946284124 0.001242080562501864 0.005100812312126798 0.003458128331751192 0.0005418640927227618 0.0
296 -0.002776277829192785 0.001241772394871303 0.00507408026580055 0.0034706000362760875 0.0005263696660974716 0.0
297 -0.0027699539780014675 0.0012414492249281943 0.005047081574740299 0.003482911790820849 0.0005112557982600654 0.0
298 -0.0027633056027650442 0.0012411111096091055 0.0050198260459223265 0.0034950631942138608 0.0004965172117496425 0.0
299 -0.0027563414993269043 0.0012407581155990752 0.004992323430418843 0.0035070539014316936 0.0004821486396704896 0.0
300 -0.0027490703003493584 0.0012403903188731823 0.004964583415983146 0.003518883622410132 0.0004681448274193818 0.0
301 -0.0027415004779318187 0.00124000780425137 0.0049366156200494685 0.003530552120853278 0.00045450053437626615 0.0
302 -0.0027336403461638327 0.0012396106649664226 0.004908429583139511 0.003542059213042084 0.0004412105355576357 0.0
303 -0.00272549806361625 0.0012391990022447494 0.004880034762661046 0.0035534047666430264 0.00042826962323164555 0.0
304 -0.002717081635773349 0.0012387729248998433 0.004851440527089788 0.003564588699518076 0.00041567260849424806 0.0
305 -0.0027083989174089404 0.0012383325489381401 0.004822656150522289 0.003575610978536834 0.00040341432280552173 0.0
306 -0.002699457614909134 0.0012378779971769398 0.004793690807585786 0.00358647161839128 0.00039148961948557706 0.0
307 -0.0026902652885445605 0.0012374093988742321 0.004764553568695759 0.003597170680414281 0.0003798933751693535 0.0
308 -0.0026808293546951444 0.0012369268893701432 0.004735253395649497 0.0036077082714024884 0.0003686204912193558 0.0
309 -0.002671157088028915 0.0012364306097396697 0.004705799137541334 0.003618084542444082 0.0003576658950965667 0.0
310 -0.002661255623638778 0.001235920706456571 0.004676199526992468 0.003628299687752452 0.00034702454168796464 0.0
311 -0.0026511319591385335 0.00123539733106803 0.0046464631766799155 0.003638353943506016 0.0003366914145910032 0.0
312 -0.0026407929567205043 0.0012348606398799214 0.0046165985761561865 0.0036482475866950973 0.00032666152735460173 0.0
313 -0.0026302453451777274 0.001234310793652341 0.004586614088946515 0.0036579809339761338 0.0003169299246757304 0.0
314 -0.002619495721891605 0.0012337479573053135 0.004556517949916836 0.003667554340534353 0.0003074916835522157 0.0
315 -0.002608550554787908 0.0012331722996342246 0.004526318262896891 0.003676968198954745 0.0002983419143908722 0.0
316 -0.002597416184262135 0.0012325839930349592 0.004496022998553765 0.0036862229381026193 0.0002894757620714425 0.0
317 -0.002586098825076867 0.0012319832132382386 0.0044656399924985655 0.0036953190220133125 0.00028088840696566627 0.0
318 -0.0025746045682315368 0.001231370139053306 0.004435176943626739 0.0037042569487928684 0.0002725750659123093 0.0
319 -0.0025629393828071577 0.0012307449521202982 0.004404641412670534 0.0037130372495286397 0.00026453099314756204 0.0
320 -0.0025511091177864986 0.001230107836671489 0.004374040820965251 0.0037216604872116893 0.0002567514811915532 0.0
321 -0.002539119503851889 0.00122945897930089 0.004343382449412141 0.0037301272556703796 0.00024923186169058573 0.0
322 -0.002526976155160697 0.0012287985687421898 0.004312673437634191 0.003738438178516264 0.00024196750621621922 0.0
323 -0.002514684571100705 0.0012281267956546832 0.004281920783312422 0.0037465939081021754 0.00023495382702069288 0.0
324 -0.002502250138025351 0.0012274438524171195 0.004251131341697729 0.0037545951244933496 0.00022818627774986113 0.0
325 -0.002489678130970314 0.0012267499329291697 0.0042203118252874 0.0037624425344516166 0.00022166035411365467 0.0
326 -0.0024769737153520466 0.001226045232420435 0.004189468803661512 0.0037701368704334062 0.00021537159451476832 0.0
327 -0.0024641419486488587 0.0012253299472666358 0.004158608703466802 0.0037776788896012846 0.00020931558063619286 0.0
328 -0.002451187782065289 0.0012246042748129352 0.004127737808544335 0.003785069372849832 0.0002034879379881565 0.0
329 -0.002438116062180378 0.0012238684132042444 0.004096862260194619 0.003792309123846287 0.00019788433641509842 0.0
330 -0.002424931532580086 0.001223122561222177 0.00406598805756871 0.003799398968085622 0.0001925004905635424 0.0
331 -0.0024116388354743948 0.001222366918128594 0.004035121058181821 0.0038063397519607755 0.00018733216031155316 0.0
332 -0.002398242513299762 0.0012216016835156008 0.004004266978543648 0.003813132341848361 0.00018237515116028188 0.0
333 -0.0023847470103063083 0.0012208270571616407 0.003973431394894044 0.0038197776232094015 0.00017762531458913314 0.0
334 -0.002371156674131104 0.0012200432388938332 0.0039426197440460675 0.003826276499706403 0.00017307854837451752 0.0
335 -0.0023574757573570733 0.0012192504284559988 0.00391183732432006 0.0038326298923355476 0.0001687307968735924 0.0
336 -0.0023437084190575832 0.0012184488253826455 0.0038810892965743947 0.0038388387385756635 0.00016457805127388777 0.0
337 -0.0023298587263275144 0.0012176386288783793 0.003850380685317222 0.003844903991552807 0.00016061634980925302 0.0
338 -0.0023159306557998046 0.0012168200377028187 0.003819716379899924 0.0038508266192213664 0.0001568417779438061 0.0
339 -0.0023019280951487348 0.0012159932500607623 0.0037891011357844865 0.0038566076035614133 0.00015325046852393697 0.0
340 -0.0022878548445788146 0.0012151584634975633 0.0037585395758826046 0.0038622479397928252 0.00014983860190010548 0.0
341 -0.002273714618300098 0.0012143158747993934 0.0037280361919567757 0.0038677486356055173 0.00014660240601881082 0.0
342 -0.002259511045989533 0.0012134656798984391 0.0036975953460838982 0.003873110710406585 0.00014353815648590287 0.0
343 -0.002245247674238218 0.0012126080737827447 0.003667221272172988 0.003878335194583799 0.00014064217660225608 0.0
344 -0.0022309279679846587 0.0012117432504106852 0.0036369180775358747 0.00388342312878595 0.00013791083737262617 0.0
345 -0.0022165553119337764 0.0012108714026298113 0.0036066897445035427 0.0038883755632195486 0.00013534055748876646 0.0
346 -0.0022021330119619195 0.00120999272210003 0.0035765401320863918 0.0038931935569622446 0.00013292780328748094 0.0
347 -0.0021876642965072603 0.0012091073992209851 0.003546472977675112 0.003897878177292888 0.0001306690886849227 0.0
348 -0.002173152317945779 0.001208215623063378 0.0035164918987740643 0.0039024304990377106 0.00012856097508786332 0.0
349 -0.002158600153952552 0.0012073175813043376 0.0034866003947709003 0.003906851603933424 0.00012660007128293096 0.0
350 -0.002144010808848599 0.0012064134601664658 0.003456801848731453 0.003911142580006203 0.00012478303330450114 0.0
351 -0.002129387214932653 0.0012055034443606031 0.003427099529221783 0.003915304520967139 0.00012310656428247537 0.0
352 -0.0021147322337978594 0.0012045877170321511 0.0033974965921527555 0.0039193385256238245 0.00012156741427076443 0.0
353 -0.0021000486576337493 0.0012036664597107683 0.003367996082642327 0.003923245697307732 0.00012016238005699959 0.0
354 -0.002085339210512607 0.0012027398522634748 0.003338600936897144 0.003927027143317831 0.00011888830495487775 0.0
355 -0.0020706065496608125 0.0012018080728508494 0.0033093139841046965 0.003930683974379502 0.00011774207857949705 0.0
356 -0.0020558532667144767 0.0012008712978864113 0.0032801379483393903 0.003934217304119407 0.00011672063660689939 0.0
357 -0.0020410818889598763 0.001199929701998899 0.0032510754504748492 0.003937628248555409 0.00011582096051820722 0.0
358 -0.0020262948805579435 0.0011989834579975078 0.003222129010104947 0.0039409179256020615 0.00011504007732959509 0.0
359 -0.0020114946437532026 0.0011980327368398295 0.003193301047466906 0.003944087454590897 0.00011437505930854446 0.0
360 -0.001996683520067018 0.001197077707602484 0.003164593885366939 0.003947137955805648 0.00011382302367714148 0.0
361 -0.001981863791474703 0.0011961185374543544 0.0031360097511067353 0.003950070550032252 0.00011338113230345835 0.0
362 -0.0019670376815670173 0.0011951553916322239 0.003107550778405972 0.003952886358123081 0.00011304659138128405 0.0
363 -0.0019522073566955417 0.0011941884334188474 0.003079219009322389 0.0039555865005756075 0.00011281665109923559 0.0
364 -0.0019373749271020587 0.0011932178241232756 0.0030510163961655554 0.003958172097125012 0.00011268860529980255 0.0
365 -0.0019225424480320494 0.001192243723063378 0.0030229448034034224 0.0039606442663506075 0.00011265979112887445 0.0
366 -0.0019077119208318726 0.0011912662875504865 0.0029950060095605413 0.003963004125295918 0.00011272758867667902 0.0
367 -0.0018928852940302764 0.0011902856728760241 0.0029672017091049575 0.003965252789101989 0.00011288942061026725 0.0
368 -0.001878064464403509 0.0011893020323000747 0.002939533514323917 0.003967391370653861 0.00011314275179867387 0.0
369 -0.0018632512780246532 0.0011883155170418318 0.0029120029571870587 0.003969420980240011 0.00011348508893087005 0.0
370 -0.0018484475312968653 0.00118732627627178 0.0028846114911945855 0.003971342725224318 0.0001139139801273115 0.0
371 -0.0018336549719705619 0.0011863344571056034 0.0028573604932109007 0.0039731577097305276 0.00011442701454561435 0.0
372 -0.0018188753001449447 0.0011853402045996833 0.002830251265281132 0.00397486703433882 0.00011502182198060224 0.0
373 -0.0018041101692532191 0.0011843436617481704 0.0028032850364311094 0.003976471795794346 0.00011569607245973224 0.0
374 -0.0017893611870325658 0.0011833449694814908 0.0027764629644478193 0.003977973086727336 0.0001164474758336516 0.0
375 -0.0017746299164778175 0.001182344266666302 0.002749786137642224 0.003979371995384787 0.00011727378136314952 0.0
376 -0.0017599178767799314 0.001181341690106777 0.0027232555765916364 0.003980669605373292 0.00011817277730219641 0.0
377 -0.0017452265442486558 0.001180337374547139 0.002696872235861004 0.003981866995412742 0.0001191422904780127 0.0
378 -0.0017305573532197926 0.0011793314526753786 0.0026706370057020777 0.003982965239100603 0.00012018018586833597 0.0
379 -0.0017159116969470433 0.0011783240551282346 0.0026445507137338193 0.003983965404687074 0.00012128436617634502 0.0
380 -0.0017012909284787902 0.0011773153104971759 0.0026186141265979544 0.00398486855486013 0.00012245277140345156 0.0
381 -0.0016866963615195076 0.0011763053453353698 0.002592827951590185 0.003985675746540346 0.00012368337842061752 0.0
382 -0.0016721292712762277 0.001175294284165809 0.0025671928382731066 0.0039863880306861225 0.00012497420053830463 0.0
383 -0.0016575908952904382 0.0011742822494901486 0.002541709380059228 0.003987006452107603 0.0001263232870752157 0.0
384 -0.0016430824342547603 0.0011732693617985711 0.002516378115774263 0.003987532049290417 0.00012772872292669097 0.0
385 -0.0016286050528153961 0.0011722557395804183 0.002491199531194376 0.003987965854228227 0.00012918862813244747 0.0
386 -0.0016141598803598395 0.0011712414993356294 0.002466174060559468 0.003988308892264179 0.00013070115744441294 0.0
387 -0.0015997480117907225 0.001170226755586872 0.0024413020880604216 0.003988562181940765 0.00013226449989438868 0.0
388 -0.0015853705082850935 0.0011692116208923693 0.0024165839493017595 0.003988726734858071 0.00013387687836243666 0.0
389 -0.0015710283980400594 0.0011681962058594265 0.0023920199327402804 0.003988803555540335 0.00013553654914563542 0.0
390 -0.0015567226770042606 0.0011671806191584878 0.002367610281096542 0.0039887936413101205 0.00013724180152798244 0.0
391 -0.0015424543095959836 0.0011661649675378174 0.002343355192742577 0.003988697982170409 0.00013899095735115432 0.0
392 -0.001528224229407986 0.0011651493558386724 0.002319254823062929 0.0039885175606940255 0.0001407823705864164 0.0
393 -0.0015140333398984678 0.0011641338870109538 0.002295309285790199 0.00398825335192026 0.00014261442690841753 0.0
394 -0.0014998825150693712 0.001163118662129405 0.0022715186543174897 0.003987906323258897 0.000144485543270305 0.0
395 -0.0014857726001315974 0.001162103780410096 0.0022478829629817626 0.003987477434400586 0.00014639416748077157 0.0
396 -0.0014717044121574953 0.001161089339227425 0.0022244022083251734 0.003986967637234309 0.00014833877778306243 0.0
397 -0.0014576787407206714 0.0011600754341313808 0.0022010763503287492 0.003986377875770973 0.00015031788243620182 0.0
398 -0.0014436963485236235 0.0011590621588652304 0.002177905313623123 0.003985709086073573 0.00015233001929832384 0.0
399 -0.001429757972012838 0.0011580496053834187 0.0021548889886721344 0.003984962196193113 0.00015437375541267113 0.0
400 -0.0014158643219822572 0.0011570378638698104 0.00213202723293319 0.003984138126110666 0.000156447686595843 0.0
401 -0.0014020160841644116 0.001156027022756174 0.0021093198719928955 0.0039832377876850835 0.00015855043702905263 0.0
402 -0.0013882139198103617 0.0011550171687408227 0.0020867667006761854 0.003982262084606016 0.0001606806588518253 0.0
403 -0.0013744584662578547 0.0011540083868075862 0.002064367484134649 0.003981211912352707 0.00016283703175878916 0.0
404 -0.001360750337488326 0.0011530007602448317 0.0020421219589074648 0.003980088158157558 0.00016501826259934538 0.0
405 -0.0013470901246727901 0.0011519943706647508 0.002020029833961194 0.00397889170097504 0.00016722308498039485 0.0
406 -0.001333478396706532 0.0011509892980226919 0.0019980907917036355 0.003977623411455153 0.00016945025887242363 0.0
407 -0.0013199157007335732 0.0011499856206366756 0.0019763044889759135 0.003976284151921783 0.00017169857021841512 0.0
408 -0.0013064025626601614 0.0011489834152070184 0.0019546705580218773 0.003974874776355662 0.00017396683054637872 0.0
409 -0.0012929394876579673 0.0011479827568359737 0.0019331886074329138 0.003973396130381436 0.00017625387658516139 0.0
410 -0.0012795269606571073 0.0011469837190475338 0.0019118582230727521 0.003971849051259315 0.0001785585698836673 0.0
411 -0.0012661654468291567 0.0011459863738071745 0.0018906789689772435 0.003970234367880441 0.0001808797964335413 0.0
412 -0.0012528553920602176 0.0011449907915417287 0.0018696503882347031 0.003968552900766504 0.00018321646629545132 0.0
413 -0.0012395972234144656 0.0011439970411592526 0.0018487720038439476 0.0039668054620730945 0.00018556751322882988 0.0
414 -0.0012263913495880819 0.0011430051900688635 0.001828043319549932 0.003964992855596565 0.0001879318943253197 0.0
415 -0.0012132381613538356 0.0011420153042006555 0.0018074638206608952 0.0039631158767847435 0.00019030858964588475 0.0
416 -0.0012001380319964971 0.001141027448025505 0.0017870329748422298 0.003961175312750731 0.00019269660186161427 0.0
417 -0.0011870913177393794 0.0011400416845749218 0.0017667502328919575 0.003959171942290201 0.00019509495589815182 0.0
418 -0.0011740983581619026 0.0011390580754608345 0.0017466150294957507 0.0039571065359018335 0.00019750269858398494 0.0
419 -0.001161159476608503 0.0011380766808953276 0.0017266267839621395 0.003954979855810733 0.00019991889830247987 0.0
420 -0.0011482749805892774 0.0011370975597103017 0.0017067849009379428 0.003952792655994732 0.00020234264464754026 0.0
421 -0.0011354451621718624 0.0011361207693771495 0.00168708877110717 0.003950545682213809 0.00020477304808336544 0.0
422 -0.0011226702983654219 0.0011351463660262387 0.0016675377718679816 0.003948239672041779 0.00020720923960781067 0.0
423 -0.0011099506514965244 0.001134174404466404 0.0016481312679939623 0.003945875354900918 0.0002096503704196286 0.0
424 -0.0010972864695771658 0.0011332049382042923 0.0016288686122758382 0.003943453452098872 0.00021209561158952914 0.0
425 -0.0010846779866649705 0.0011322380194636957 0.0016097491461482087 0.003940974676868279 0.000214544153735132 0.0
426 -0.001072125423215899 0.0011312736992046381 0.0015907722002948892 0.003938439734408157 0.00021699520669971032 0.0
427 -0.0010596289864294457 0.0011303120271425103 0.0015719370952418747 0.003935849321928061 0.0002194479992348184 0.0
428 -0.0010471888705865637 0.0011293530517669608 0.0015532431419301965 0.003933204128693904 0.00022190177868675295 0.0
429 -0.0010348052573805585 0.0011283968203607893 0.0015346896422758563 0.003930504836076197 0.0002243558106867547 0.0
430 -0.0010136107448162044 0.0011272904732319694 0.0015170579787093913 0.003927223946162192 0.00023417371340281204 0.0
431 -0.0009931896242518477 0.001126186685018209 0.0014991970238014847 0.003923889642475005 0.00024343686214883033 0.0
432 -0.000972951639863576 0.0011229121642341265 0.0014206253450621486 0.003912078890702134 0.0002525381507126519 0.0
433 -0.0009533744128989561 0.001120296405628712 0.0013602623648060195 0.0039025529427294727 0.00026116336967319426 0.0
434 -0.0009344269108635389 0.0011181517432018472 0.0013128551020000683 0.0038946460235619626 0.0002693376750625702 0.0
435 -0.0009160766503702246 0.0011163449494291163 0.001274679604576009 0.003887885457327038 0.0002770866716965407 0.0
436 -0.0008982908576509639 0.0011147813959978975 0.001243095383459374 0.00388193556722561 0.00028443576790300267 0.0
437 -0.0008810372455631796 0.0011133938278206365 0.001216229821514805 0.0038765578718227 0.0002914097361355237 0.0
438 -0.0008642845188815106 0.0011121344057253312 0.0011927545856343046 0.0038715828496687604 0.0002980324255603208 0.0
439 -0.0008480026884797058 0.0011109690654660914 0.0011717271898433828 0.0038668899125677315 0.00030432658496985625 0.0
440 -0.0008321632521793285 0.0011098735183713057 0.0011524787082686217 0.0038623932019175708 0.00031031376462586533 0.0
441 -0.0008167392834829304 0.001108830415580258 0.001134534185845608 0.003858031515089452 0.00031601427374222354 0.0
442 -0.0008017054574744507 0.0011078273370991592 0.0011175562197674228 0.0038537611607228368 0.00032144717653153916 0.0
443 -0.0007870380346058491 0.0011068553655818683 0.0011013049626979186 0.0038495508909960393 0.0003266303144094252 0.0
444 -0.0007727148169668273 0.0011059080746582425 0.0010856097657703234 0.0038453783066932094 0.00033158034541425714 0.0
445 -0.0007587150872677545 0.0011049808111814202 0.0010703490725941366 0.0038412273066384854 0.0003363127944481461 0.0
446 -0.0007450195376624756 0.0011040701858811995 0.0010554361624896908 0.003837086277709055 0.00034084210980377767 0.0
447 -0.0007316101933334379 0.0011031737118010756 0.0010408090405510696 0.0038329468100265795 0.00034518172279368484 0.0
448 -0.0007184703342015388 0.0011022895475394706 0.0010264232677641963 0.0038288027845978984 0.0003493441082758787 0.0
449 -0.000705584417022529 0.0011014163148228044 0.0010122468756926532 0.0038246497251134878 0.0003533408445727933 0.0
450 -0.0006929379993565574 0.0011005529688044447 0.000998256759236659 0.003820484337118446 0.00035718267178496137 0.0
451 -0.0006805176663540118 0.001099698705769497 0.0009844361174766092 0.003816304180109744 0.00036087954786054056 0.0
452 -0.0006683109609227522 0.0010988528973820192 0.0009707726377385228 0.0038121074339521116 0.0003644407020361786 0.0
453 -0.0006563063175805365 0.001098015043771043 0.000957257206726664 0.0038078927322349795 0.00036787468544311364 0.0
454 -0.0006444930001160927 0.0010971847399920303 0.0009438829954572377 0.0038036590431550403 0.0003711894187975416 0.0
455 -0.0006328610430620369 0.0010963616519891247 0.0009306448093203247 0.003799405584155181 0.000374392237178789 0.0
456 -0.0006214011969028581 0.0010955454993097173 0.0009175386262064585 0.0037951317605531337 0.00037748993195584036 0.0
457 -0.0005752621289874151 0.001115011828448269 0.001495287407419724 0.0038629748283210163 0.00040743517156881465 0.0
458 -0.0005324462922271088 0.0011283141311065222 0.0018992041872469532 0.003908863025127992 0.0004347642694144379 0.0
459 -0.0004925426298953849 0.0011372770407567614 0.0021802595859737113 0.003939310379066583 0.0004598219166015346 0.0
460 -0.0004552219803727552 0.0011431888830874014 0.0023745354906067728 0.003958901175958048 0.0004828816134501467 0.0
461 -0.00042021528141106664 0.0011469587735076544 0.0025075501505724997 0.003970863128137358 0.000504164776972957 0.0
462 -0.00038729829437359836 0.0011492279028345648 0.0025973392449263784 0.003977469354108895 0.0005238541157596093 0.0
463 -0.00035628078251873015 0.0011504482664422093 0.0026566443314633603 0.003980320761479329 0.0005421031106630972 0.0
464 -0.0003269987668967503 0.0011509383116631619 0.002694464163689031 0.003980544659979784 0.0005590428082995354 0.0
465 -0.00029930892806180034 0.0011509222467549888 0.0027171528504849915 0.003978934582361368 0.0005747867381081173 0.0
466 -0.00027308451515960735 0.0011505577970256345 0.0027291964932772217 0.003976048781771574 0.0005894345070224689 0.0
467 -0.00024821232090930465 0.0011499557978696933 0.002733762078957673 0.00397227965178807 0.0006030744552734097 0.0
468 -0.00022459041500593675 0.0011491940226693513 0.002733085240112537 0.003967902669542185 0.0006157856413343755 0.0
469 -0.00020212642058299734 0.0011483269404280894 0.0027287441014424815 0.003963110909980264 0.0006276393446332894 0.0
470 -0.0001807361821854023 0.0011473926003642873 0.002721852637722827 0.003958039388553308 0.0006387002195037992 0.0
471 -0.00016034271816951732 0.0011464174888343901 0.0027131971817772223 0.003952782231231111 0.0006490271952366527 0.0
472 -0.0001408753815793709 0.0011454199553511356 0.0027033327886337574 0.003947404785412792 0.0006586741899014105 0.0
473 -0.0001222691754198267 0.0011444126288959724 0.002692651257427278 0.003941952161918936 0.000667690686383775 0.0
474 -0.00010446418366234959 0.00114340412177733 0.0026814291453588573 0.003936455259027118 0.000676122205444334 0.0
475 -8.740509020679072e-05 0.001142400230799636 0.0026698616582403 0.0039309350099046665 0.0006840107009060826 0.0
476 -7.104076573514257e-05 0.0011414047837644528 0.0026580865718935243 0.003925405376475728 0.0006913948951634292 0.0
477 -5.53239078636805e-05 0.0011404202357535912 0.0026462011169258674 0.00391987545877761 0.0006983105682695374 0.0
478 -4.021072389569727e-05 0.0011394480888970914 0.002634273896839357 0.003914350980233068 0.0007047908103236186 0.0
479 -2.5660648254359106e-05 0.0011384891876330546 0.002622353300545265 0.00390883533262356 0.0007108662443455314 0.0
480 -1.1636088664474356e-05 0.0011375439261563402 0.0026104734405449845 0.003903330310465836 0.0007165652250013884 0.0
481 1.8978034174478425e-06 0.0011366123939501223 0.002598658344666367 0.00389783662632957 0.0007219140172274397 0.0
482 1.4973341592731793e-05 0.0011356944776710505 0.00258692491511409 0.0038923542716987653 0.0007269369578461887 0.0
483 2.7620495245916084e-05 0.0011347899322792722 0.0025752850174522333 0.003886882768969307 0.0007316566025739839 0.0
484 3.986706437167274e-05 0.001133898430508752 0.0025637469554665466 0.003881421346758235 0.000736093860310383 0.0
485 5.173884026227211e-05 0.0011330195970941175 0.0025523165125485355 0.0038759690612282637 0.0007402681162242026 0.0
486 6.325975350956602e-05 0.0011321530322805386 0.0025409976871165283 0.0038705248794485775 0.0007441973448709249 0.0
487 7.445201054508767e-05 0.0011312983278085336 0.0025297932120605373 0.0038650877360921106 0.0007478982143655667 0.0
488 8.533621976479494e-05 0.0011304550776247903 0.0025187049217382197 0.0038596565714410238 0.000751386182474713 0.0
489 9.593150814582647e-05 0.001129622884905488 0.0025077340113519126 0.003854230356319967 0.0007546755853667669 0.0
490 0.00010625562915258317 0.0011288013665100175 0.0024968812203515667 0.0038488081079179836 0.000757779719662083 0.0
491 0.00011632506264074366 0.0011279901556523499 0.002486146962201427 0.0038433888992891367 0.0007607109183471947 0.0
492 0.000126155107392886 0.0011271889033437194 0.0024755314162701316 0.0038379718644945817 0.0007634806210531299 0.0
493 0.00013575996685921164 0.001126397278995991 0.002465034592975936 0.0038325562007667604 0.0007660994391467653 0.0
494 0.00014515282862256497 0.0011256149704586868 0.0024546563800364784 0.003827141168663911 0.0007685772160390442 0.0
495 0.00015434593806236535 0.0011248416836810795 0.0024443965753711636 0.0038217260908939253 0.0007709230830772742 0.0
496 0.00016335066665170044 0.001124077142132762 0.002434254910565749 0.0038163103502809733 0.000773145511355944 0.0
497 0.00017217757528597912 0.0011233210860756068 0.0024242310676621907 0.003810893387204663 0.0007752523597518862 0.0
498 0.00018083647301052802 0.0011225732717514596 0.0024143246912266005 0.003805474696740155 0.0007772509194649616 0.0
499 0.00018933647148496472 0.0011218334705295388 0.0024045353970681737 0.003800053825655359 0.0007791479553222385 0.0
500 0.00019768603549687001 0.001121101468043655 0.0023948627785856814 0.0037946303693721438 0.0007809497440839104 0.0
501 0.00020589302981393543 0.001120377063339159 0.00238530641142535 0.0037892039689622816 0.0007826621099710328 0.0
502 0.00021396476264056962 0.0011196600680427973 0.002375865856936804 0.003783774308224886 0.000784290457617345 0.0
503 0.00022190802592678862 0.0011189503055636979 0.0023665406647703515 0.0037783411108745944 0.0007858398026334154 0.0
504 0.0002297291327583286 0.0011182476103304359 0.002357330374859739 0.0037729041378580146 0.0007873147999569141 0.0
505 0.00023743395203940502 0.0011175518270666231 0.0023482345189588093 0.0037674631848071244 0.0007887197701494209 0.0
506 0.0002450279406646667 0.001116862810106118 0.0023392526218568976 0.003762018079633475 0.0007900587237888441 0.0
507 0.0002525161733629602 0.0011161804227477396 0.0023303842023594938 0.003756568680262778 0.0007913353840959014 0.0
508 0.0002599033703808118 0.0011155045366486448 0.002321628774093766 0.0037511148725068474 0.0007925532079219588 0.0
509 0.000267193923162923 0.0011148350312551066 0.002312985846183653 0.0037456565680683766 0.0007937154052174242 0.0
510 0.0002743919181738029 0.001114171793269243 0.002304454923827465 0.003740193702673384 0.0007948249570899506 0.0
511 0.000281501158995957 0.001113514716149903 0.002296035508798894 0.003734726234324895 0.0007958846325550519 0.0
512 0.0002885251868289603 0.0011128636996459507 0.0022877270998879437 0.0037292541416716306 0.0007968970040733605 0.0
513 0.00029546729950503443 0.001112218649360208 0.002279529193294819 0.0037237774224854353 0.0007978644619621383 0.0
514 0.0003023305691285807 0.0011115794763422073 0.0022714412829838125 0.003718296092240874 0.0007987892277624967 0.0
515 0.00030911785843926767 0.0011109460967080856 0.0022634628610050827 0.003712810182791061 0.0007996733666377815 0.0
516 0.0003158318359909649 0.0011103184312859342 0.0022555934177888397 0.0037073197411336724 0.0008005187988731047 0.0
517 0.0003224749902317025 0.0011096964052850487 0.002247832442415887 0.0037018248282616097 0.0008013273105405849 0.0
518 0.0003290496425650116 0.0011090799479874923 0.002240179422866589 0.0036963255180926576 0.0008021005633912132 0.0
519 0.000335557959465274 0.0011084689924605949 0.002232633846250983 0.0036908218964732064 0.0008028401040284129 0.0
520 0.0003420019637163447 0.0011078634752890667 0.0022251951990235955 0.003685314060251339 0.0008035473724158227 0.0
521 0.0003483835448361204 0.001107263336325323 0.0022178629671805268 0.0036798021164142795 0.0008042237097668341 0.0
522 0.0003547044687463015 0.0011066685184569886 0.002210636636444955 0.003674286181286499 0.0008048703658608138 0.0
523 0.0003609663867418663 0.0011060789673902995 0.0022035156924379443 0.003668766379783959 0.0008054885058273864 0.0
524 0.0003671708438105835 0.0011054946314484936 0.0021964996208393654 0.003663242844721189 0.0008060792164369523 0.0
525 0.00037331928634997763 0.0011049154613840026 0.0021895879075347563 0.0036577157161670074 0.00080664351193341 0.0
526 0.0003794130693247505 0.0011043414102037757 0.0021827800387556025 0.0036521851408465042 0.0008071823394417535 0.0
527 0.0003854534629054925 0.0011037724330065853 0.0021760755012061586 0.0036466512715851436 0.000807696583981506 0.0
528 0.0003914416586262212 0.001103208486831766 0.002169473782185195 0.0036411142667931084 0.0008081870731145043 0.0
529 0.00039737877509484035 0.0011026495305183873 0.002162974369695454 0.0036355742899862277 0.0008086545812529246 0.0
530 0.00040326586328991285 0.0011020955245743859 0.002156576752549431 0.0036300315093418896 0.0008090998336528984 0.0
531 0.00040910391147262553 0.0011015464310547148 0.0021502804204629605 0.00362448609728653 0.0008095235101156574 0.0
532 0.00041489384974214514 0.0011010022134481932 0.0021440848641460786 0.003618938230113595 0.0008099262484176414 0.0
533 0.0004206365542603551 0.0011004628365722663 0.0021379895753859085 0.0036133880876291517 0.0008103086474892926 0.0
534 0.0004263328511693538 0.0010999282664751326 0.002131994047121378 0.0036078358528232237 0.0008106712703603164 0.0
535 0.00043198352022446175 0.0010993984703449344 0.0021260977735163356 0.003602281711565781 0.0008110146468887032 0.0
536 0.00043758929816294 0.0010988734164252536 0.0021203002500230616 0.0035967258523246495 0.0008113392762888437 0.0
537 0.00044315088182733393 0.0010983530739367283 0.0021146009734436077 0.003591168465904758 0.0008116456294731513 0.0
538 0.0004486689310617592 0.0010978374130042098 0.002108999441984864 0.0035856097452065722 0.0008119341512210889 0.0
539 0.00045414407139719303 0.0010973264045891502 0.0021034951553095945 0.0035800498850026953 0.0008122052621878185 0.0
540 0.00045957689654069114 0.0010968200204268482 0.002098087614582834 0.0035744890817312512 0.0008124593607638423 0.0
541 0.00046496797068327177 0.0010963182329682328 0.002092776322514994 0.0035689275333049744 0.0008126968247968314 0.0
542 0.0004703178306394775 0.0010958210153258219 0.0020875607834001703 0.0035633654389346588 0.000812918013185531 0.0
543 0.00047562698783029065 0.00109532834122365 0.002082440503151973 0.00355780299896628 0.000813123267354651 0.0
544 0.00048089593012125536 0.0010948401849508135 0.0020774149893352215 0.0035522404147305345 0.0008133129126197456 0.0
545 0.00048612512352612245 0.00109435652131842 0.002072483751194657 0.0035466778884040233 0.0008134872594499254 0.0
546 0.000491315013785539 0.0010938773256196827 0.002067646299680116 0.0035411156228811968 0.0008136466046356703 0.0
547 0.0004964660278300816 0.0010934025735930195 0.002062902147470568 0.003535553821656517 0.0008137912323688086 0.0
548 0.0005015785751358949 0.0010929322413877915 0.0020582508089929505 0.00352999268871561 0.0008139214152409433 0.0
549 0.0005066530489804393 0.0010924663055326951 0.0020536918004410397 0.003524432428435397 0.0008140374151660725 0.0
550 0.0005116898276062711 0.0010920047429064284 0.002049224639789895 0.003518873245491911 0.0008141394842333841 0.0
551 0.0005166892752987171 0.0010915475307105998 0.0020448488468086624 0.003513315344775647 0.0008142278654947385 0.0
552 0.0005216517433840968 0.001091094646444733 0.002040563943072742 0.003507758931313974 0.000814302793691887 0.0
553 0.000526577571154055 0.0010906460678830549 0.0020363694519705327 0.0035022042101994643 0.0008143644959276498 0.0
554 0.0005314670867216519 0.0010902017730531868 0.002032264898711986 0.0034966513865246052 0.000814413192285381 0.0
555 0.000536320607813933 0.0010897617402163967 0.0020282498103332035 0.003491100665321652 0.000814449096400299 0.0
556 0.0005411384425053548 0.0010893259478494013 0.002024323715699481 0.003485552251507604 0.0008144724159860182 0.0
557 0.0005459208898968095 0.0010888943746275735 0.002020486145506678 0.003480006349833784 0.0008144833533199073 0.0
558 0.0005506682407438603 0.0010884669994095225 0.002016736632282401 0.003474463164839952 0.0008144821056900161 0.0
559 0.0005553807780380481 0.0010880438012228558 0.002013074710384537 0.0034689229008121976 0.0008144688658065147 0.0
560 0.0005600587775445489 0.001087624759251033 0.002009499915997176 0.003463385761744376 0.0008144438221801404 0.0
561 0.0005647025082994262 0.0010872098528213832 0.002006011787128192 0.003457851951303321 0.0008144071594701353 0.0
562 0.0005693122330693064 0.0010867990613940236 0.0020026098636033657 0.0034523216727968763 0.0008143590588038192 0.0
563 0.0005738882087763297 0.0010863923645517077 0.0019992936870599992 0.003446795129144919 0.0008142996980699781 0.0
564 0.0005784306868908671 0.0010859897419904965 0.001996062800938678 0.0034412725228529185 0.0008142292521879614 0.0
565 0.0005829399137941407 0.0010855911735112892 0.001992916750476247 0.003435754055988241 0.0008141478933541241 0.0
566 0.0005874161311134992 0.0010851966390119595 0.0019898550826946194 0.0034302399301582554 0.0008140557912676987 0.0
567 0.0005918595760314522 0.0010848061184802523 0.0019868773463907335 0.0034247303464908195 0.0008139531133369537 0.0
568 0.0005962704815713052 0.0010844195919872928 0.001983983092125684 0.0034192255056166142 0.000813840024867795 0.0
569 0.0006006490768603079 0.0010840370396816084 0.0019811718722108854 0.003413725607652969 0.0008137166892355024 0.0
570 0.0006049955873725202 0.001083658441783797 0.0019784432406968386 0.0034082308521896872 0.0008135832680412995 0.0
571 0.0006093102351526813 0.0010832837785815599 0.0019757967533575163 0.003402741438275853 0.0008134399212547072 0.0
572 0.0006135932390223082 0.0010829130304252999 0.0019732319676768286 0.003397257564408333 0.0008132868073426398 0.0
573 0.000617844814769507 0.0010825461777240672 0.001970748442832418 0.00339177942852121 0.0008131240833863698 0.0
574 0.0006220651753236056 0.0010821832009419434 0.001968345739680169 0.0033863072279765073 0.0008129519051871996 0.0
575 0.0006262545309159975 0.0010818240805947864 0.0019660234207382367 0.003380841159555882 0.0008127704273618967 0.0
576 0.0006304130892276146 0.0010814687972472267 0.0019637810501678342 0.003375381419452914 0.000812579803428221 0.0
577 0.0006345410555244693 0.0010811173315101149 0.0019616181937577646 0.0033699282032667597 0.0008123801858816395 0.0
578 0.000638638632782247 0.0010807696640381256 0.001959534418904948 0.0033644817059960523 0.0008121717262639631 0.0
579 0.000642706021800176 0.0010804257755276726 0.001957529294595521 0.003359042122033645 0.0008119545752240988 0.0
580 0.0006467434213056585 0.0010800856467150725 0.001955602391386084 0.0033536096451619807 0.0008117288825720269 0.0
581 0.0006507510280497626 0.001079749258374931 0.001953753281384233 0.0033481844685489827 0.0008114947973260964 0.0
582 0.0006547290368945912 0.0010794165913186992 0.0019519815382278666 0.003342766784744303 0.0008112524677544019 0.0
583 0.0006586776408931901 0.001079087626393431 0.0019502867370646017 0.003337356785676018 0.0008110020414107391 0.0
584 0.000662597031362068 0.0010787623444807888 0.0019486684545327068 0.00333195466264798 0.000810743665165228 0.0
585 0.0006664873979475991 0.00107844072649602 0.0019471262687368689 0.0033265606063368103 0.0008104774852305128 0.0
586 0.0006703489286858873 0.0010781227533873236 0.0019456597592298972 0.0033211748067900385 0.0008102036471832884 0.0
587 0.000674181810057702 0.0010778084061351272 0.0019442685069887744 0.0033157974534237028 0.0008099222959823052 0.0
588 0.0006779862270374872 0.0010774976657516402 0.0019429520943938909 0.003310428735020688 0.0008096335759821621 0.0
589 0.0006817623631383808 0.0010771905132803958 0.0019417101052054606 0.003305068839728818 0.0008093376309443015 0.0
590 0.00068551040045215 0.0010768869297960249 0.0019405421245427294 0.003299717955059531 0.0008090346040444205 0.0
591 0.0006892305196853485 0.0010765868964039969 0.0019394477388597928 0.0032943762678862443 0.0008087246378772571 0.0
592 0.0006929229001919041 0.0010762903942405152 0.0019384265359234402 0.003289043964443047 0.0008084078744589276 0.0
593 0.0006965877200017881 0.0010759974044724646 0.0019374781047896469 0.0032837212303233588 0.0008080844552265488 0.0
594 0.0007002251558466998 0.0010757079082974392 0.0019366020357806074 0.0032784082504787 0.0008077545210358448 0.0
595 0.0007038353831828976 0.0010754218869438135 0.0019357979204612 0.0032731052092174 0.0008074182121568522 0.0
596 0.0007074185762111379 0.0010751393216708739 0.0019350653516152514 0.0032678122902033233 0.0008070756682676758 0.0
597 0.0007109749078940471 0.001074860193769019 0.0019344039232222973 0.003262529676454671 0.0008067270284465585 0.0
598 0.0007145045499714321 0.0010745844845599715 0.0019338132304334492 0.0032572575503426104 0.0008063724311626395 0.0
599 0.0007180076729731054 0.0010743121753970803 0.0019332928695484546 0.003251996093590072 0.0008060120142650876 0.0
600 0.0007214844462300573 0.0010740432476655554 0.001932842437989936 0.0032467454872701054 0.0008056459149712158 0.0
601 0.000724935037883775 0.0010737776827828584 0.0019324615342812567 0.003241505911804654 0.0008052742698534628 0.0
602 0.0007283596148937255 0.0010735154621990502 0.001932149758022012 0.003236277546962957 0.0008048972148252257 0.0
603 0.0007317583430433946 0.0010732565673971604 0.0019319067098636563 0.00323106057185991 0.0008045148851258543 0.0
604 0.0007351313869451898 0.0010730009798935896 0.0019317319914857625 0.003225855164954362 0.0008041274153050221 0.0
605 0.000738478910043694 0.0010727486812385327 0.0019316252055719023 0.0032206615040473357 0.0008037349392061164 0.0
606 0.0007418010746179464 0.001072499653016389 0.0019315859557850787 0.0032154797662800392 0.0008033375899491237 0.0
607 0.0007450980417827364 0.0010722538768462735 0.0019316138467457135 0.00321031012813211 0.0008029354999130336 0.0
608 0.0007483699714888168 0.001072011334382384 0.001931708484005303 0.00320515276541919 0.0008025288007176562 0.0
609 0.0007516170225223132 0.0010717720073144948 0.0019318694740234534 0.0032000078532907973 0.0008021176232050796 0.0
610 0.0007548393525033398 0.0010715358773684223 0.001932096424144222 0.0031948755662280022 0.0008017020974207892 0.0
611 0.0007580371178836784 0.0010713029263065045 0.0019323889425723907 0.0031897560780409723 0.0008012823525943108 0.0
612 0.0007612104739444111 0.0010710731359280278 0.0019327466383491038 0.003184649561866244 0.0008008585171200551 0.0
613 0.0007643595747921667 0.0010708464880697167 0.0019331691213283506 0.0031795561901640473 0.0008004307185373832 0.0
614 0.000767484573355508 0.0010706229646062256 0.0019336560021545586 0.003174476134715584 0.0007999990835110016 0.0
615 0.000770585621380633 0.0010704025474505784 0.001934206892238452 0.0031694095666199387 0.0007995637378110862 0.0
616 0.0007736628694265697 0.0010701852185545984 0.0019348214037328457 0.0031643566562908725 0.0007991248062932698 0.0
617 0.0007767164668601023 0.0010699709599093857 0.0019354991495101946 0.0031593175734536787 0.0007986824128786664 0.0
618 0.0007797465618504961 0.0010697597535458032 0.0019362397431407562 0.0031542924871419634 0.0007982366805339802 0.0
619 0.000782753301363817 0.001069551581534856 0.001937042798867859 0.003149281565693929 0.0007977877312515556 0.0
620 0.0007857368311570077 0.0010693464259881591 0.0019379079315861687 0.0031442849767489003 0.0007973356860294774 0.0
621 0.0007886972957719639 0.0010691442690583294 0.0019388347568182888 0.003139302887243455 0.0007968806648519066 0.0
622 0.0007916348385291587 0.0010689450929394547 0.0019398228906937454 0.0031343354634077846 0.0007964227866693254 0.0
623 0.0007945496015215318 0.0010687488798674493 0.0019408719499254797 0.003129382870761503 0.0007959621693792011 0.0
624 0.0007974417256078915 0.0010685556121204753 0.0019419815517884849 0.0031244452741096725 0.0007954989298065374 0.0
625 0.0008003113504065798 0.001068365272019324 0.0019431513140978354 0.0031195228375385494 0.0007950331836848418 0.0
626 0.0008031586142887107 0.0010681778419277686 0.001944380855186319 0.0031146157244111915 0.0007945650456370209 0.0
627 0.0008059836543719897 0.0010679933042529834 0.0019456697938849176 0.003109724097363225 0.0007940946291569379 0.0
628 0.0008087866065140563 0.0010678116414458252 0.0019470177494993613 0.0031048481182980175 0.0007936220465908471 0.0
629 0.0008115676053057735 0.001067632836001234 0.0019484243417908287 0.0030999879483822675 0.0007931474091190239 0.0
630 0.0008143267840651726 0.0010674568704585163 0.0019498891909541 0.0030951437480410534 0.0007926708267381124 0.0
631 0.0008170642748308302 0.0010672837274016795 0.001951411917597392 0.0030903156769530515 0.000792192408243283 0.0
632 0.000819780208355635 0.001067113389459753 0.0019529921427226754 0.0030855038940456377 0.0007917122612109113 0.0
633 0.0008224747141006123 0.0010669458393070365 0.0019546294877043112 0.003080708557489658 0.0007912304919815255 0.0
634 0.0008251479202290086 0.001066781059663427 0.001956323574270935 0.0030759298246944766 0.0007907472056431871 0.0
635 0.0008277999536001794 0.0010666190332946303 0.0019580740244840213 0.0030711678523025017 0.0007902625060149406 0.0
636 0.0008304309397638598 0.0010664597430124839 0.0019598804607208545 0.0030664227961841478 0.0007897764956307853 0.0
637 0.0008330410029546365 0.001066303171675128 0.0019617425056535466 0.0030616948114321296 0.000789289275724019 0.0
638 0.0008356302660862172 0.001066149302187273 0.0019636597822311743 0.003056984052356132 0.0007888009462116628 0.0
639 0.0008381988507465156 0.001065998117500432 0.001965631913662327 0.003052290672477312 0.0007883116056797107 0.0
640 0.0008407468771922925 0.0010658496006130456 0.001967658523394291 0.0030476148245223286 0.0007878213513682783 0.0
641 0.000843274464344288 0.001065703734570772 0.0019697392350982563 0.0030429566604180326 0.000787330279157342 0.0
642 0.0008457817297826858 0.001065560502466583 0.001971873672649488 0.0030383163312853565 0.0007868384835529451 0.0
643 0.0008482687897424058 0.001065419887441007 0.0019740614601120483 0.0030336939874337594 0.0007863460576735005 0.0
644 0.0008507357591091087 0.001065281872682178 0.001976302221719215 0.0030290897783549287 0.0007858530932368387 0.0
645 0.0008531827514148291 0.0010651464414260757 0.0019785955818592575 0.003024503852717182 0.0007853596805472135 0.0
646 0.0008556098788345456 0.0010650135769566121 0.001980941165058303 0.003019936358359284 0.0007848659084832072 0.0
647 0.0008580172521823107 0.0010648832626057193 0.001983338595963194 0.003015387442284267 0.0007843718644855385 0.0
648 0.0008604049809080861 0.0010647554817535029 0.001985787499327251 0.0030108572506534776 0.0007838776345456109 0.0
649 0.0008627731730946257 0.0010646302178283086 0.0019882874999942284 0.0030063459287803297 0.0007833833031943053 0.0
650 0.0008651219354546435 0.0010645074543068245 0.0019908382228836573 0.0030018536211241496 0.000782888953491219 0.0
651 0.0008674513733284199 0.0010643871747140815 0.0019934392929744403 0.002997380471283692 0.0007823946670144208 0.0
652 0.0008697615906813398 0.0010642693626236152 0.0019960903352931533 0.0029929266219912215 0.0007819005238503897 0.0
653 0.0008720526901017996 0.0010641540016574182 0.001998790974897209 0.0029884922151058413 0.0007814066025844295 0.0
654 0.0008743247727997018 0.0010640410754860336 0.0020015408368630177 0.002984077391607377 0.0007809129802917383 0.0
655 0.0008765779386047339 0.0010639305678285468 0.002004339546271389 0.0029796822915898608 0.0007804197325285262 0.0
656 0.000878812285965248 0.0010638224624525926 0.0020071867281943358 0.0029753070542551173 0.0007799269333237837 0.0
657 0.0008810279119473155 0.00106371674317439 0.00201008200768323 0.0029709518179064556 0.0007794346551714017 0.0
658 0.000883224912234125 0.001063613393858704 0.0020130250097556085 0.002966616719942123 0.0007789429690227455 0.0
659 0.0008854033811255167 0.0010635123984188203 0.002016015359382748 0.002962301896848825 0.0007784519442795343 0.0
660 0.0008875634115378944 0.0010634137408165498 0.002019052681478905 0.0029580074841953777 0.000777961648787218 0.0
661 0.0008897050950044922 0.0010633174050621497 0.0020221366008888082 0.002953733616626084 0.0007774721488288106 0.0
662 0.0008918285216757557 0.0010632233752142927 0.00202526674237709 0.002949480427854319 0.000776983509119019 0.0
663 0.0008939337803202052 0.0010631316353799805 0.0020284427306168024 0.00294524805065594 0.0007764957927989302 0.0
664 0.0008960209583253894 0.0010630421697145132 0.002031664190180033 0.0029410366168629376 0.0007760090614309643 0.0
665 0.0008980901416992957 0.0010629549624213822 0.002034930745527147 0.0029368462573568406 0.0007755233749943767 0.0
666 0.0009001414150718981 0.0010628699977521738 0.002038242020996731 0.002932677102062203 0.0007750387918810436 0.0
667 0.000902174861697117 0.0010627872600064683 0.0020415976407961263 0.002928529279940103 0.000774555368891772 0.0
668 0.000904190563455039 0.00106270673353177 0.0020449972289935444 0.0029244029189818125 0.0007740731612329802 0.0
669 0.0009061886008543134 0.0010626284027233379 0.002048440409507659 0.002920298146202138 0.0007735922225137169 0.0
670 0.0009081690530350246 0.0010625522520240807 0.0020519268060999294 0.0029162150876330404 0.0007731126047432256 0.0
671 0.0009101319977717628 0.0010624782659244163 0.002055456042366393 0.002912153868317189 0.0007726343583288458 0.0
672 0.0009120775114768093 0.0010624064289621348 0.002059027741729869 0.002908114612301541 0.000772157532074191 0.0
673 0.0009140056692040216 0.0010623367257222432 0.0020626415274328336 0.0029040974426309553 0.0007716821731780417 0.0
674 0.0009159165446525864 0.0010622691408367568 0.0020662970225286906 0.002900102481341619 0.0007712083272333231 0.0
675 0.0009178102101712606 0.0010622036589846293 0.002069993849877944 0.0028961298494550648 0.0007707360382266353 0.0
676 0.0009196867367628792 0.0010621402648914675 0.0020737316321386705 0.0028921796669714368 0.0007702653485381709 0.0
677 0.0009215461940891046 0.0010620789433294015 0.0020775099917620114 0.002888252052863397 0.0007697962989419864 0.0
678 0.0009233886504755866 0.0010620196791168838 0.0020813285509861884 0.0028843471250698163 0.0007693289286067772 0.0
679 0.0009252141729171659 0.0010619624571184746 0.002085186931830677 0.0028804650004894943 0.0007688632750968572 0.0
680 0.0009270228270834447 0.001061907262244625 0.0020890847560906295 0.002876605794974906 0.0007683993743735897 0.0
681 0.0009288146773248754 0.0010618540794515032 0.0020930216453335466 0.0028727696233262 0.0007679372607973951 0.0
682 0.0009305897866787371 0.0010618028937407012 0.002096997220892565 0.00286895659928479 0.0007674769671298322 0.0
683 0.000932348216875699 0.0010617536901590628 0.0021010111038640865 0.002865166835527489 0.0007670185245363167 0.0
684 0.0009340900283464137 0.0010617064537984063 0.002105062915102567 0.0028614004436602882 0.0007665619625890188 0.0
685 0.0009358152802286115 0.0010616611697952848 0.002109152275217329 0.0028576575342123827 0.0007661073092703092 0.0
686 0.0009375240303742714 0.0010616178233307462 0.0021132788045694203 0.0028539382166302245 0.0007656545909764438 0.0
687 0.000939216335357065 0.0010615763996300607 0.002117442123268226 0.0028502425992715493 0.000765203832521608 0.0
688 0.0009408922504802626 0.0010615368839624528 0.0021216418511688564 0.0028465707893994855 0.0007647550571424843 0.0
689 0.0009425518297846932 0.001061499261640855 0.0021258776078703833 0.00284292289317682 0.000764308286503025 0.0
690 0.0009441951260570201 0.0010614635180215572 0.0021301490127116803 0.002839299015659935 0.0007638635406996178 0.0
691 0.000945822190838239 0.0010614296385039977 0.0021344556847716534 0.0028356992607933493 0.0007634208382665928 0.0
692 0.0009474330744325931 0.0010613976085304573 0.0021387972428675477 0.002832123731403998 0.0007629801961821923 0.0
693 0.0009490278259164853 0.0010613674135857044 0.002143173305551741 0.0028285725291953686 0.0007625416298747055 0.0
694 0.0009506064931477584 0.0010613390391967543 0.002147583491112621 0.002825045754742152 0.0007621051532290346 0.0
695 0.0009521691227753393 0.0010613124709325406 0.0021520274175734237 0.00282154350748466 0.0007616707785936879 0.0
696 0.0009537157602488413 0.0010612876944035767 0.002156504702690856 0.0028180658857232476 0.0007612385167879013 0.0
697 0.000955246449828738 0.001061264695261667 0.002161014963956113 0.0028146129866130415 0.0007608083771093375 0.0
698 0.0009567612345964755 0.0010612434591995522 0.0021655578185939004 0.0028111849061584577 0.0007603803673418903 0.0
699 0.0009582601564650299 0.0010612239719506127 0.002170132883563876 0.0028077817392080542 0.000759954493763975 0.0
700 0.0009597432561894122 0.0010612062192884818 0.002174739775559578 0.0028044035794490807 0.0007595307611569291 0.0
701 0.00096121057337778 0.0010611901870267464 0.0021793781110107553 0.002801050519402495 0.000759109172814012 0.0
702 0.0009626621465025 0.001061175861018597 0.0021840475060841275 0.0027977226504178002 0.0007586897305495097 0.0
703 0.0009640980129114924 0.0010611632271564542 0.002188747576684225 0.0027944200626679435 0.0007582724347081998 0.0
704 0.0009655182088397085 0.0010611522713716282 0.002193477938455173 0.002791142845144361 0.0007578572841750597 0.0
705 0.0009669227694211718 0.0010611429796339494 0.0021982382067826075 0.0027878910856520348 0.0007574442763855277 0.0
706 0.0009683117287006128 0.0010611353379514168 0.00220302799679567 0.0027846648708046745 0.0007570334073356095 0.0
707 0.0009696851196458517 0.0010611293323698084 0.002207846923368964 0.00278146428601985 0.0007566246715926702 0.0
708 0.0009710429741601365 0.0010611249489723236 0.002212694601125366 0.0027782894155143215 0.0007562180623063397 0.0
709 0.0009723853230947301 0.0010611221738792034 0.002217570644438765 0.0027751403422993726 0.0007558135712197257 0.0
710 0.0009737121962616435 0.0010611209932473427 0.002222474667436747 0.0027720171481761813 0.0007554111886808811 0.0
711 0.0009750236224464829 0.001061121393269908 0.002227406284003679 0.002768919913731308 0.0007550109036544734 0.0
712 0.00097631962942185 0.0010611233601759615 0.002232365107784768 0.0027658487183322943 0.000754612703734005 0.0
713 0.000977600243960387 0.0010611268802300546 0.0022373507521888845 0.002762803640123196 0.0007542165751538908 0.0
714 0.0009788654918484099 0.0010611319397318196 0.0022423628303921226 0.0027597847560202333 0.0007538225028021009 0.0
715 0.0009801153978993777 0.0010611385250156188 0.0022474009553429667 0.0027567921417077073 0.0007534304702328058 0.0
716 0.0009813499859680148 0.0010611466224500746 0.002252464739764811 0.0027538258716335697 0.000753040459679626 0.0
717 0.0009825692789640825 0.0010611562184377192 0.002257553796161547 0.0027508860190055 0.0007526524520687423 0.0
718 0.0009837732988665678 0.001061167299414568 0.0022626677368218304 0.002747972655786815 0.0007522664270324384 0.0
719 0.0009849620667379112 0.0010611798518497095 0.0022678061738234745 0.002745085852692477 0.0007518823629227792 0.0
720 0.0009861356027385973 0.0010611938622448797 0.002272968719038332 0.002742225679185151 0.0007515002368256874 0.0
721 0.0009872939261416343 0.001061209317134065 0.002278154984137683 0.002739392203471448 0.0007511200245750373 0.0
722 0.0009884370553474276 0.0010612262030830816 0.0022833645805975973 0.0027365854924981566 0.0007507417007671581 0.0
723 0.0009895650078984594 0.00106124450668915 0.0022885971197039493 0.0027338056119485294 0.0007503652387753066 0.0
724 0.0009906778004943528 0.0010612642145804653 0.0022938522125578852 0.0027310526262386394 0.0007499906107645192 0.0
725 0.0009917754490071878 0.0010612853134157928 0.002299129470082268 0.002728326598513911 0.000749617787706776 0.0
726 0.0009928579684966086 0.001061307789884006 0.0023044285030264363 0.002725627590645513 0.000749246739396097 0.0
727 0.0009939253732251362 0.0010613316307037178 0.002309748921973811 0.00272295566322717 0.0007488774344638995 0.0
728 0.0009949776766738057 0.001061356822622798 0.002315090337346769 0.0027203108755716387 0.0007485098403946955 0.0
729 0.0009960148915577455 0.0010613833524179648 0.0023204523594135265 0.0027176932857075333 0.0007481439235418472 0.0
730 0.0009970370298419066 0.0010614112068943354 0.0023258345982941986 0.0027151029503760743 0.0007477796491435251 0.0
731 0.0009980441027568937 0.0010614403728850259 0.0023312366639683633 0.0027125399250280927 0.0007474169813388366 0.0
732 0.0009990361208148642 0.0010614708372506671 0.0023366581662803065 0.0027100042638208005 0.0007470558831841042 0.0
733 0.0010000130938255245 0.001061502586879044 0.002342098714948132 0.0027074960196151023 0.0007466963166693002 0.0
734 0.0010009750309123123 0.0010615356086845853 0.0023475579195686392 0.002705015243972415 0.0007463382427347056 0.0
735 0.001001921940528635 0.0010615698896079642 0.0023530353896256267 0.002702561987151977 0.0007459816212877079 0.0
736 0.0010028538304740497 0.001061605416615656 0.002358530734496876 0.0027001362981080705 0.0007456264112196331 0.0
737 0.0010037707079106875 0.0010616421766994955 0.002364043563461445 0.002697738224487314 0.0007452725704228429 0.0
738 0.0009721141297496762 0.00104210050933978 0.0017414399560509147 0.002618566252440409 0.0007208168252756941 0.0
739 0.0009436992097744837 0.0010291097424312036 0.0013190868072378182 0.002564541535782318 0.0006985385374569099 0.0
740 0.0009180286204061459 0.0010205643904060548 0.0010331315616987392 0.002527632696511992 0.0006781417313224087 0.0
741 0.0008947203511092097 0.001015031261153228 0.0008401336876769146 0.0025023621029627804 0.0006594010075046177 0.0
742 0.0008734763919055045 0.0010115349887918786 0.0007105186868317549 0.0024849961626560568 0.0006421382943964624 0.0
743 0.0008540597626216714 0.0010094120654304745 0.0006241428133772324 0.002472991600991073 0.0006262083387834058 0.0
744 0.000836278008350483 0.0010082114283825087 0.000567281567591798 0.002464617136470253 0.0006114893831127258 0.0
745 0.0008199714710060696 0.0010076267271113821 0.000530582023418818 0.002458695158996319 0.000597877021733128 0.0
746 0.000838411839770991 0.001027506691451367 0.0011491856860627364 0.0025331354567749566 0.0006097369568924744 0.0
747 0.0008545619913644587 0.0010408685416409128 0.0015708296078289924 0.0025826015961097773 0.000620305491240978 0.0
748 0.0008689096039865667 0.001049819682361572 0.0018587303193071687 0.002615174301091439 0.000629798426223471 0.0
749 0.0008818002614674593 0.0010557898544150438 0.002055878158552262 0.002636329725695896 0.0006383808990182441 0.0
750 0.0008934837439438568 0.0010597482338149367 0.0021914739665885256 0.002649777912507866 0.0006461799363774563 0.0
751 0.0009041444914641279 0.0010623513308988337 0.0022853360021243096 0.0026580316669911454 0.0006532945634144388 0.0
752 0.0009139218822236367 0.0010640435645647634 0.0023509070934117048 0.002662792369288007 0.0006598034157189616 0.0
753 0.0009229238513703662 0.0010651255704381961 0.0023973020106192837 0.002665211560155143 0.0006657702709203092 0.0
754 0.0009312361044527135 0.0010658005549108451 0.0024306992504022564 0.002666068263670585 0.0006712479915159384 0.0
755 0.0009389283914856968 0.0010662057320208862 0.002455286162167148 0.0026658891703381614 0.0006762813088416948 0.0
756 0.0009460588072340917 0.0010664336341922372 0.002473900291239127 0.0026650300815549716 0.0006809087835504364 0.0
757 0.0009526767595949585 0.0010665465536435865 0.0024884643579572707 0.002663731094936947 0.0006851641897823265 0.0
758 0.000958825035587543 0.0010665863260048802 0.002500281166299156 0.002662153992157996 0.0006890774994579346 0.0
759 0.000964541253709675 0.0010665809567775933 0.002510233493936193 0.002660407565697552 0.0006926755902221893 0.0
760 0.0009698588974667807 0.0010665491083646753 0.0025189195516899794 0.0026585647728256125 0.000695982762511616 0.0
761 0.0009748080618420028 0.0010665031376300993 0.0025267447666068032 0.002656674352165418 0.0006990211244620463 0.0
762 0.0009794160020313238 0.0010664511516124727 0.0025339839641129484 0.0026547686887714445 0.0007018108848312541 0.0
763 0.0009837075451184115 0.0010663983982612448 0.002540823492037523 0.002652869137918743 0.0007043705813769396 0.0
764 0.0009553243018586811 0.0010468093391294067 0.0019178270534802228 0.002573947265290379 0.0006830349649747682 0.0
765 0.0009299398017396394 0.0010338014874279216 0.0014965078568780063 0.0025203848725637024 0.0006635875040144063 0.0
766 0.0009070671099584986 0.0010252504646861766 0.001212203703149473 0.0024840453894521023 0.0006457731925871593 0.0
767 0.0008863365296385847 0.0010197137896053878 0.0010210372255333427 0.0024593938938340322 0.0006293984756514854 0.0
768 0.0008674631736649647 0.001016212120972047 0.0008932128908209847 0.002442667156493118 0.0006143104674886482 0.0
769 0.0008502232999922446 0.001014080779039695 0.00080848766168613 0.002431307833674426 0.0006003842424748693 0.0
770 0.0008344373926383863 0.0010128688959124708 0.0007531038486687084 0.0024235790222816612 0.0005875148009441585 0.0
771 0.0008199581994559251 0.0010122708857742686 0.0007177091078233028 0.0024183018195371 0.0005756118396668916 0.0
772 0.0008066623170160014 0.0010120798654796894 0.000695944530424828 0.0024146767034685522 0.0005645962575821568 0.0
773 0.0007944442742461288 0.0010121559912960676 0.000683485649692157 0.0024121620013033947 0.000554397763591818 0.0
774 0.0008164554650399899 0.0010324291536432035 0.001320571810690271 0.002489363911642792 0.0005689893063532865 0.0
775 0.0008358367710260928 0.0010459943771371316 0.0017538510044790062 0.0025407538836487113 0.0005821459175296769 0.0
776 0.0008531172904456815 0.001055034030689592 0.002049069812101632 0.0025747311478450607 0.0005940743328051497 0.0
777 0.0008686748893337293 0.0010610247823414254 0.002250827013165011 0.0025969732638772888 0.0006049379392829918 0.0
778 0.000882785441106953 0.00106496493398109 0.0023893402626475268 0.0026113168603399553 0.0006148664176343836 0.0
779 0.0008956551559109746 0.0010675288873650325 0.0024850671401844145 0.0026203537558446253 0.000623964055481648 0.0
780 0.0009074420601333889 0.0010691719063186584 0.002551850229298544 0.0026258342412767946 0.0006323162277157045 0.0
781 0.0009182704018589784 0.001070201081354662 0.0025990527998822057 0.0026289398173344755 0.0006399942056551797 0.0
782 0.0009282403888285195 0.0010708233599186659 0.0026330068420589766 0.0026304676047839695 0.0006470586374118482 0.0
783 0.0009374348195438304 0.0010711780352383822 0.00265799384833833 0.002630955012499576 0.0006535620378042808 0.0
784 0.0009459236326175218 0.0010713587133882845 0.002676908651361986 0.002630764006838768 0.0006595505652563297 0.0
785 0.000953767053973191 0.0010714281614520268 0.0026917085243436225 0.00263013806724689 0.0006650652953041925 0.0
786 0.0009610177954719822 0.0010714283412465535 0.0027037169073497068 0.0026292406770951184 0.0006701431423894495 0.0
787 0.0009677226091506274 0.0010713871881070783 0.0027138287706488457 0.002628181333072745 0.0006748175369817977 0.0
788 0.0009417016833323232 0.001051831001372707 0.0020926080753260875 0.0025498961307144066 0.0006557545696095876 0.0
789 0.000918495440235995 0.001038853571597072 0.0016733549705956476 0.0024970263366880757 0.0006383654395920491 0.0
790 0.0008976259228699328 0.0010303250515414856 0.0013910679887959253 0.002461391297297331 0.0006224258457371328 0.0
791 0.0008787334626704772 0.001024801736323804 0.0012017191563959138 0.0024374362580161487 0.0006077658819232905 0.0
792 0.000861543524326938 0.001021305079067812 0.0010754637771690735 0.002421391075573984 0.0005942512490642553 0.0
793 0.0008458426055673741 0.0010191719921308308 0.0009920608884390848 0.002410697948746454 0.0005817719632219098 0.0
794 0.0008314610704263721 0.0010179533624135068 0.0009377779340055462 0.002403622384115156 0.0005702353165125183 0.0
795 0.0008182610567832165 0.0010173452188257067 0.0009032955381622196 0.002398988839495327 0.0005595613426505424 0.0
796 0.0008061280026928698 0.0010171420327375967 0.0008822878582822706 0.002396001145418095 0.0005496798082454931 0.0
797 0.0007949647140521775 0.0010172050299836377 0.0008704600713541994 0.0023941205478586513 0.0005405281611813551 0.0
798 0.0007846872006558702 0.0010174406881322707 0.0008648955320321632 0.002392982901605085 0.0005320500944403291 0.0
799 0.000775221736495503 0.001017786145880041 0.0008636128628741531 0.0023923424576350505 0.0005241945140741225 0.0
800 0.0007995717032714066 0.0010381683601596488 0.0015086161805886297 0.0024710493061707063 0.0005406348730429926 0.0
801 0.0008210653292555674 0.0010517637979595802 0.001946604120352451 0.002523563615216592 0.000555542624744484 0.0
802 0.000840257320237379 0.0010607894983892426 0.002244576130421801 0.0025584393107517785 0.0005691170449279127 0.0
803 0.0008575458714816249 0.0010667429548659733 0.00244790509161836 0.002581448898957093 0.0005815195883339851 0.0
804 0.0008732235895323599 0.00107063476658335 0.0025872827042514816 0.0025964866542484274 0.0005928813593498991 0.0
805 0.0008875108811005619 0.0010731464320877944 0.00268345407607847 0.0026061789354102074 0.0006033100700349423 0.0
806 0.0009005781117272492 0.0010747371766788398 0.0027504343108229494 0.002612296379279147 0.0006128956606547024 0.0
807 0.0009125604545593664 0.0010757161880312319 0.0027976888852276494 0.0026160321940617006 0.0006217145592646194 0.0
808 0.0009235679237394434 0.001076291421604737 0.0028316094138060247 0.002618190008775485 0.0006298328109806999 0.0
809 0.0009336922073144956 0.0010766025573785037 0.0028565115075182357 0.002619310653911318 0.0006373083456225513 0.0
810 0.0009430113585800731 0.0010767432458424786 0.0028753090411968224 0.0026197577172793578 0.0006441926166277717 0.0
811 0.0009195009006057471 0.0010573243951148743 0.002259874035314617 0.0025426189987431728 0.000627389214116896 0.0
812 0.0008986017993416848 0.001044435366656342 0.001845086621296846 0.0024907445190512196 0.0006120584259047703 0.0
813 0.0008798496319065669 0.0010359586716844344 0.0015662077811156702 0.002455986257703745 0.0005980014091064729 0.0
814 0.0008628979330561208 0.0010304605789477163 0.0013794395500854248 0.0024328182837187627 0.0005850682481149315 0.0
815 0.0008474847459602978 0.0010269703234650086 0.0012551279023154535 0.002417494259591124 0.0005731407399371188 0.0
816 0.0008334083933191179 0.001024830735144806 0.0011731843112853298 0.002407475219146921 0.000562122187280098 0.0
817 0.0008205102732612257 0.0010235971062214934 0.001119995029183305 0.002401041119233685 0.0005519311059463292 0.0
818 0.0008086627780079188 0.0010229686836615369 0.0010863315601335123 0.0023970272380829964 0.0005424972052489145 0.0
819 0.000797760855492449 0.0010227422469328085 0.0010659365956400438 0.0023946453409429674 0.0005337587366736641 0.0
820 0.0007877161229123463 0.0010227806456504787 0.0010545664313456296 0.002393362378741683 0.0005256606927592727 0.0
821 0.0007784527519058992 0.0010229914745840377 0.0010493422292358683 0.00239281822499826 0.0005181535488848042 0.0
822 0.0007699045773733842 0.0010233126197818551 0.0010483103960010462 0.0023927698962069297 0.0005111923598420646 0.0
823 0.000762013049459842 0.001023702462566699 0.0010501446212571523 0.0023930537355909692 0.0005047360929422007 0.0
824 0.0007547257663790321 0.0010241332412346798 0.0010539439089476091 0.002393559779434098 0.0004987471217013765 0.0
825 0.0007479954080096819 0.0010245865534471604 0.0010590956689028525 0.002394214384453596 0.0004931908304659732 0.0
826 0.0007746957780959218 0.0010449646308375276 0.0017080562208941707 0.0024739175883862303 0.0005115454473605429 0.0
827 0.0007983212057329687 0.0010585198568328902 0.0021482653134426584 0.0025272373590319083 0.0005282434847663125 0.0
828 0.0008194479919995239 0.0010674871370836892 0.002447411380522569 0.0025628095002335058 0.0005434845198681902 0.0
829 0.0008384922666965047 0.001073374362454116 0.0026512870543333933 0.0025864557257146087 0.0005574333821619238 0.0
830 0.0008557619678479614 0.0010771980235688295 0.002790837393140956 0.002602099452498111 0.0005702262646125321 0.0
831 0.0008714909080018593 0.0010796428265217276 0.002886958912411914 0.0026123839732155978 0.0005819768552597531 0.0
832 0.0008858613757733858 0.0010811696299332597 0.002953756195018535 0.002619089505628336 0.0005927814498993487 0.0
833 0.0008990192810496877 0.0010820883494944314 0.0030007469237761193 0.0026234144630712863 0.0006027228996447886 0.0
834 0.000911084392359619 0.0010826071620220405 0.0030343527161113115 0.002626165113734626 0.0006118735509558912 0.0
835 0.0009221573147752487 0.0010828656965423903 0.0030589061181158523 0.0026278834512300986 0.000620297401934382 0.0
836 0.0009004097502178203 0.001063582089529346 0.0024486285970385987 0.002551965929437119 0.0006050913403716272 0.0
837 0.0008811194099201253 0.0010507758477061866 0.002037539800665098 0.0025011325768232316 0.0005912165259716695 0.0
838 0.0008638330038397285 0.001042345060686756 0.0017612865977824205 0.0024672857081668264 0.0005784905664792722 0.0
839 0.0008482145894438026 0.0010368673709026384 0.0015763597907582647 0.0024449370717522026 0.0005667766201563223 0.0
840 0.0008340120247591969 0.0010333802212722472 0.0014533189766195696 0.0024303680499810918 0.0005559671745333936 0.0
841 0.0008210327277728631 0.0010312322999170718 0.0013722321377445462 0.0024210597771705668 0.0005459745076878644 0.0
842 0.0008091265010267971 0.0010299830342406007 0.0013195992550090183 0.0024153065991452003 0.0005367248463212734 0.0
843 0.0007981734957463399 0.00102933455604467 0.0012862739052853889 0.0024119539684833665 0.0005281546521787045 0.0
844 0.0007880758238043967 0.001029085630819159 0.0012660576677460409 0.002410220754093146 0.0005202081806713552 0.0
845 0.0007787517208161131 0.001029100453699944 0.0012547488925058424 0.002409578797440532 0.0005128358259224668 0.0
846 0.0007701314775950271 0.0010292875123848364 0.0012494986656818433 0.0024096712828650794 0.000505992966236762 0.0
847 0.0007621545911577659 0.0010295852687537577 0.0012483746327942064 0.002410257420238676 0.0004996391359329249 0.0
848 0.0007547677547408108 0.0010299524598018019 0.0012500655378889286 0.0024111749627424325 0.0004937374145640269 0.0
