lar-deeufba/potential_fields_with_aruco/src/custom_codes/csv_files/csv_to_eps/csv_files/joint_APF_OriON.csv
Index Joint1 Joint2 Joint3 Joint4 Joint5 Joint6
0 3.14 -1.5707 0.0 -1.5707 -1.5707 -1.5707
1 3.139318617769042 -1.5696891801148605 0.018497592588071234 -1.5718189439270047 -1.5738378559823738 -1.5734920863090822
2 3.138634249794504 -1.568676504933534 0.03709521985758858 -1.5729282991029243 -1.5623894659562794 -1.5621314082001756
3 3.137925468594362 -1.56766264730936 0.05577052335247455 -1.5740940359594893 -1.5663517008926842 -1.5654755112341687
4 3.1372145273992604 -1.5666470301148427 0.07453606003219207 -1.5752896680655788 -1.570780356761091 -1.5691176274646361
5 3.136502079539373 -1.5656296984732418 0.09338926011427603 -1.5765150595734556 -1.5755264653547756 -1.572902067141491
6 3.1357885795779223 -1.5646107053638374 0.11233787637998413 -1.577685244191834 -1.5622189910104638 -1.5615710912077205
7 3.1350461163662415 -1.5635909466002287 0.13134191222846794 -1.5789683444548146 -1.5670760160030448 -1.5651555730963427
8 3.134302380915517 -1.5625696627104024 0.15042363616777352 -1.580285614954879 -1.5721739375282122 -1.568791911523641
9 3.1335577391382463 -1.5615469142003877 0.16957950472083172 -1.581638143299793 -1.5774926650496508 -1.5724539928979528
10 3.1328125433200937 -1.5605227641436452 0.18882366117281313 -1.5828839031035156 -1.5624573949156126 -1.561525508565371
11 3.132033455793282 -1.5594983188239484 0.20809684352456395 -1.5843064711837025 -1.5679724689364363 -1.565031544715921
12 3.131253691189633 -1.5584726187142504 0.22743202238661261 -1.5857694890965992 -1.573696190763071 -1.568535523372528
13 3.1304736154379147 -1.5574457324172373 0.2468248159148844 -1.5872744513435462 -1.5796233045333026 -1.5720255465066515
14 3.1296936067214274 -1.5564177307799856 0.2662970191681163 -1.5886116278396982 -1.5811649442497357 -1.5570512425035177
15 3.128905979597625 -1.5553889519997501 0.28578579842657775 -1.5902020753943003 -1.58723726029409 -1.5603411689632625
16 3.1281186567555976 -1.5543592218241407 0.30531718923381135 -1.5918405506219233 -1.5935165882348943 -1.563602601240225
17 3.1273320768265154 -1.553328617748487 0.32488582898851887 -1.5935288503872567 -1.6000022533535996 -1.5668272784494877
18 3.126546704886373 -1.5522972200026721 0.34452241932598815 -1.5949780900672186 -1.6002884826866588 -1.5506689418213222
19 3.125750888039536 -1.551265504232268 0.3641407121029195 -1.5967682027858647 -1.606963010544373 -1.5536957791868735
20 3.124956675083807 -1.5502331792881632 0.38377805334516435 -1.5986151015708825 -1.6138522360004433 -1.5566732479069871
21 3.124164623301832 -1.5492003346319967 0.4034727598926012 -1.6001619503325797 -1.6130252617221545 -1.5395653272042835
22 3.1233593799002133 -1.5481675775936343 0.4231183150768358 -1.6021238908310267 -1.6201364613974492 -1.5423449705452679
23 3.12255683497278 -1.5471345071963698 0.4427618401371047 -1.60415034473891 -1.6274728602624415 -1.5450625362123136
24 3.121757666072951 -1.5461012254045456 0.4624502386933373 -1.6058075436563313 -1.6254238697429584 -1.526976177409434
25 3.120942038858139 -1.5450685028135243 0.48205372072875563 -1.607963680848238 -1.6330140143155623 -1.5294915664498385
26 3.120130499224357 -1.5440358051844558 0.5016307186620677 -1.610192916982191 -1.6408419289741645 -1.5319319239382885
27 3.1193238803343855 -1.5430032517234633 0.5211723840722465 -1.6124978783554533 -1.6489117305768013 -1.5342907784544193
28 3.1185230849501266 -1.5419709690721188 0.5407388684981848 -1.6143255776489427 -1.645107797081672 -1.5148638524593332
29 3.1177007711018776 -1.5409399987606214 0.5601637362428522 -1.616782878189414 -1.6534728026740113 -1.5170064507538719
30 3.1168853180200866 -1.5399095933440408 0.5795234573912653 -1.6193257044861773 -1.6620951037725824 -1.5190543504987704
31 3.1160778462330723 -1.5388799059063685 0.5988897234032933 -1.6212971774659062 -1.6567546159302524 -1.4985600054160952
32 3.1152439444495754 -1.5378522505783805 0.6180634716418894 -1.624010377461173 -1.6657048738401337 -1.5003827324986156
33 3.114419370239601 -1.5368256682334402 0.6371376185377876 -1.626819842517877 -1.6749292517402057 -1.5020972885260129
34 3.1136055181551967 -1.5358003472498662 0.6561971286587057 -1.6289497558706567 -1.6678959724207552 -1.4804974857979476
35 3.1127593855775553 -1.5347779443350718 0.6750049164433842 -1.6319487503781398 -1.6774805513340048 -1.481977519584787
36 3.111925712025003 -1.5337572360453782 0.6936736576715937 -1.6350555907336701 -1.6873568317059957 -1.4833359632035508
37 3.1111062295540854 -1.5327384556933308 0.7123036939811406 -1.6373583403696284 -1.6784650180083562 -1.4605957103429608
38 3.110247535056114 -1.5317236883364151 0.7306136638559412 -1.640674395188847 -1.6887316131835037 -1.461711234348999
39 3.1094052519782984 -1.5307113762855822 0.7487402407122925 -1.6441104633411463 -1.6993071277412484 -1.4626923951807977
40 3.1085815142133524 -1.5297018058778489 0.7668017107907255 -1.6465993306136484 -1.6883880923981802 -1.438784634434085
41 3.1077104260967667 -1.528697591762113 0.7844654042862931 -1.650263786660128 -1.6993791493932044 -1.439517277147465
42 3.1068606796709957 -1.5276967479817782 0.8018973800499689 -1.6540605402069744 -1.7106942900566717 -1.4401043518363472
43 3.1060348627973675 -1.5266996160814776 0.8192369877997004 -1.6567464824062583 -1.6975870259517158 -1.4150162226635945
44 3.105152266993589 -1.5257094534211078 0.8360926715921774 -1.6607886941891616 -1.709334124874291 -1.4153543912569893
45 3.1042970431077697 -1.5247237198427432 0.8526665748320422 -1.6649748930018573 -1.72141617521192 -1.4155386161139678
46 3.1034722520304383 -1.5237428021728379 0.8689425017262379 -1.6693074347924173 -1.7338364076977189 -1.4155648581979676
47 3.1026811001073376 -1.5227671014396835 0.8850934810231924 -1.672277638948837 -1.7177061263640503 -1.3889401607680354
48 3.1018194053041523 -1.5218007835298313 0.9006390227519049 -1.6768748109266798 -1.730562738477688 -1.3887255110887304
49 3.098061685499303 -1.5208179774866735 0.9159890019976268 -1.681672341161412 -1.7461269881215997 -1.3883505507610023
50 3.0947249535200885 -1.5198415957844056 0.9312126400095757 -1.684810412758146 -1.7295607270123179 -1.3606075345284296
51 3.0912336132394493 -1.5188734877634742 0.94573838343719 -1.6899617432788436 -1.74527489768824 -1.3600024154616652
52 3.0883481952212763 -1.517545555856242 0.9603171688642401 -1.6952750501851657 -1.7609045762840554 -1.3592344874443942
53 3.086014959302176 -1.5159320686269728 0.9751219099623032 -1.6983205921200422 -1.7409784529308774 -1.3304383107261664
54 3.0833906432956493 -1.514410667062798 0.9889342517234736 -1.7039735260731177 -1.7568395338201748 -1.3294449753043946
55 3.0811303784044712 -1.5129752697177945 1.002186884620544 -1.7098412969545136 -1.7727910634971398 -1.3282808228701435
56 3.0792196516725596 -1.5116286968421597 1.0152502638567769 -1.7129422455199117 -1.749747646556514 -1.2984477992876793
57 3.0769320506537974 -1.510395826747879 1.0271959411461464 -1.719162528277726 -1.7660450150612683 -1.29711466276609
58 3.0750044974294153 -1.5092514210538632 1.0386019930914014 -1.7255843016694108 -1.7823950415440373 -1.2956376664076883
59 3.0734237906786332 -1.5081918854126006 1.049920844045498 -1.728722599089881 -1.7565799312299264 -1.2649496312947928
60 3.0713977366668677 -1.507249164809742 1.0600549606506127 -1.7354511457809754 -1.773209947051658 -1.263387958794113
61 3.0697355032344444 -1.5063811329966728 1.069722012748525 -1.7423637141069899 -1.7898394345853343 -1.2617150197156672
62 3.0684233286661438 -1.5055815971994582 1.078950318713503 -1.749446575303017 -1.806462400107292 -1.259938666806308
63 3.0674266677900275 -1.504880620012182 1.0882330955503738 -1.7526418905128012 -1.7776779146000965 -1.2284626258313058
64 3.0659295190842277 -1.5042497812650293 1.0963468834115386 -1.7599664936345094 -1.794498063431033 -1.2267119795834291
65 3.064738336473089 -1.5037565159153947 1.1040202862954984 -1.7674525919268051 -1.8112839138314447 -1.2248891637329162
66 3.063882105482224 -1.5033217237242384 1.1113798305754028 -1.7750790145855146 -1.8280002259312786 -1.2230035262449803
67 3.063346004549518 -1.5029389725366082 1.1190170765510608 -1.778350743082695 -1.7970144913889519 -1.1909430991830332
68 3.0622174138656666 -1.5026774439740276 1.125423571585727 -1.786162788048222 -1.8138530428101587 -1.1891855077722455
69 3.0614334846760483 -1.5024535805777417 1.13162701181475 -1.7941023927339022 -1.8305684931943196 -1.1873911746934895
70 3.060976947105489 -1.5022625890028158 1.1376520168134527 -1.8021573812828722 -1.8471611927994778 -1.185563295657793
71 3.060830909131616 -1.5021000960715345 1.1435213516832006 -1.8103164678829873 -1.863632589299584 -1.183704581159853
72 3.060978909314333 -1.5019621227214932 1.1498570293654098 -1.8137602042410168 -1.8308828230084722 -1.15117391238826
73 3.0604807509961374 -1.5019317041842466 1.1549849740334992 -1.8220573379598954 -1.8474363263552493 -1.1495311776202746
74 3.0603029543172675 -1.5019149591670693 1.160046213937039 -1.8304524333328116 -1.8638252216819988 -1.1478737168143847
75 3.0604269583375343 -1.501909350539281 1.1650538018244518 -1.8389356357593913 -1.8800554712101547 -1.146201500328405
76 3.0608349158592167 -1.5019125927306511 1.1700193404035262 -1.847497998338628 -1.8961337416010622 -1.1445142900569378
77 3.0615097138125953 -1.5019226260700163 1.1755670730205996 -1.8512195122142285 -1.8622736210747461 -1.111504123025412
78 3.0615010526975985 -1.5020333886117925 1.1799341741581022 -1.8598911014011907 -1.878415688972542 -1.1100948789775535
79 3.0617875744416474 -1.5021424966263026 1.184327447838277 -1.8686401776627604 -1.8943675735985892 -1.108679433476931
80 3.0623503045897364 -1.5022489905319898 1.1887501027630967 -1.8774588245616874 -1.9101391759133848 -1.1072557148807454
81 3.0631712153925896 -1.5023520148120315 1.1932046992059024 -1.8863399634670976 -1.9257406329504747 -1.1058217113572641
82 3.0642332108538697 -1.5024508069952047 1.1976932301849441 -1.8952772666951185 -1.9411821685091317 -1.1043754761704463
83 3.0656560384476332 -1.5023296037244687 1.2024663278454877 -1.9042447269338747 -1.9563991861808918 -1.1029151294470496
84 3.0672755233794873 -1.5022133927123624 1.2078161649957997 -1.9085838613733555 -1.92191332016193 -1.0694542688247675
85 3.0680294529256007 -1.502416958225157 1.2117436722667105 -1.9176893674444293 -1.9373569230496346 -1.0683083754847085
86 3.069029253537597 -1.5026062880408204 1.2157700314229158 -1.9268459167597345 -1.952602472638806 -1.0671531245057795
87 3.070257140474179 -1.5027818206055372 1.219888937885536 -1.936048317753006 -1.967663009676598 -1.0659853943365605
88 3.0718419377945088 -1.5027147558651437 1.2243594770162092 -1.945269158980171 -1.9824706702699333 -1.0648023296209663
89 3.073607705769309 -1.502647055926105 1.2288609355390436 -1.9545357232637994 -1.9971531222002024 -1.0635950347019316
90 3.0755417102207088 -1.502577898537223 1.2333947472713376 -1.9638437875126864 -2.011718230952654 -1.0623620490868706
91 3.07763192063131 -1.5025065492564749 1.2379618956709906 -1.9731895041847687 -2.0261735252280153 -1.061101940804879
92 3.07986697617952 -1.5024323569223632 1.2425629679383925 -1.9825693506037716 -2.0405261504564103 -1.0598133032112083
93 3.0822361522773325 -1.5023547483404536 1.2476776146836535 -1.9881447988959613 -2.006205808615212 -1.0257978037119366
94 3.0837268031653466 -1.5025963181041517 1.2514957396546074 -1.9976792138348247 -2.020772806004619 -1.0248682661945134
95 3.085557764735345 -1.5025753760602272 1.2557288665743982 -2.0072138984979517 -2.035055575771902 -1.023916190736889
96 3.087544380916734 -1.5025473090507553 1.2600329652857774 -2.0167816399774847 -2.0491928623654596 -1.0229329754124659
97 3.089674410464283 -1.502512031401703 1.2644036852099696 -2.0263793112540616 -2.063193353507386 -1.0219167696445186
98 3.0919363684458148 -1.5024694886209806 1.2688368450133531 -2.036004059472556 -2.0770650769631125 -1.0208658400136132
99 3.0943194806202383 -1.5024196551162181 1.2733284254836363 -2.045653261462583 -2.0908153853144125 -1.0197785531867234
100 3.0968136397438197 -1.5023625314221332 1.2778745618346699 -2.0553244857813504 -2.10445094934167 -1.0186533608749735
101 3.099409363883372 -1.5022981411598086 1.2824715356524752 -2.0650154606022246 -2.11797775838133 -1.0174887866929958
102 3.1020977567668835 -1.5022265279093792 1.2871157666395152 -2.074724046798175 -2.131401126245017 -1.016283414780171
103 3.1048704701702152 -1.5021477521349826 1.2918038042819864 -2.0844482156086186 -2.1447257014870047 -1.0150358800398442
104 3.107719668316554 -1.5020618882619443 1.2965323195443679 -2.094186030325265 -2.1579554809861077 -1.0137448598540684
105 3.1106379942495046 -1.501969021973518 1.3012980966802241 -2.103935631483109 -2.1710938259670303 -1.012409067136456
106 3.1136185381288 -1.5018692477687103 1.306337588015226 -2.111778722852816 -2.1381796802376014 -0.9779064232755235
107 3.1159079985079288 -1.5018457846183655 1.310639860668853 -2.1216839242231336 -2.1512862481875246 -0.976950129068843
108 3.118295838108718 -1.5018110179841786 1.3150205686673655 -2.131600199981685 -2.164231180746823 -0.9759449724354848
109 3.1207723071268485 -1.5017655969256083 1.3194713099389996 -2.1415259923158723 -2.1770210536768584 -0.9748895969615138
110 3.1233283341866858 -1.5017101254013356 1.3239843941803329 -2.1514598284197817 -2.189661463472108 -0.9737827556233438
111 3.1259554744139564 -1.5016451654505638 1.3285527635813028 -2.1614003024880053 -2.202157070057325 -0.9726232932744776
112 3.128645861216748 -1.501571240129783 1.3331699224394138 -2.171346062205612 -2.2145116403148766 -0.9714101323413169
113 3.131392161575684 -1.5014888362771859 1.3378298747010957 -2.181295798908169 -2.22672809146013 -0.9701422612575896
114 3.1341875346371357 -1.5013984071554831 1.342527068556972 -2.1912482407218263 -2.238808533547899 -0.9688187252335753
115 3.1370255934026723 -1.5013003750069631 1.3472563473077448 -2.2012021481076154 -2.2507543106005414 -0.9674386190147851
116 3.1399003693113086 -1.5011951335420681 1.3520129058030343 -2.2111563113293426 -2.262566040011126 -0.9660010813355884
117 3.1428062795170484 -1.5010830503737627 1.3567922518342892 -2.2211095494436477 -2.2742436500034175 -0.9645052908172077
118 3.1457380966718764 -1.5009644694037294 1.3615901719340628 -2.2310607104763727 -2.285786415032271 -0.9629504630973746
119 3.1486909210331726 -1.5008397131621438 1.3664027010975215 -2.241008672503534 -2.297192989089827 -0.9613358490115522
120 3.1516601547241074 -1.500709085099863 1.3712260959985065 -2.2509523453997335 -2.30846143694979 -0.9596607336737752
121 3.1546414779856105 -1.5005728718298554 1.3760568113224594 -2.2608906730534133 -2.319589263438248 -0.9579244363295233
122 3.1576308272687927 -1.5004313453132836 1.3808914788826936 -2.270822635878229 -2.3305734408681813 -0.9561263108742405
123 3.1606243750270315 -1.5002847649846371 1.3857268892255652 -2.2807472534741717 -2.341410434818777 -0.954265746949682
124 3.1636185110771895 -1.5001333798095688 1.390559975464653 -2.2906635873118093 -2.352096228481872 -0.952342171546643
125 3.16660982540951 -1.4999774302685422 1.3953877991146983 -2.3005707433289917 -2.362626345838007 -0.9503550510571893
126 3.169595092335569 -1.4998171502590183 1.4002075377232892 -2.310467874342143 -2.372995873964748 -0.948303893732548
127 3.1725712558732213 -1.4996527689086663 1.4050164741225466 -2.3203541821845666 -2.383199484820891 -0.9461882525145605
128 3.175535416276709 -1.4994845122919624 1.4098119871448176 -2.330228919492353 -2.3932314568921704 -0.9440077282191998
129 3.178484817629096 -1.4993126050425338 1.4145915436659138 -2.34009139106511 -2.4030856971269743 -0.9417619730601856
130 3.18141683642283 -1.4991372718536844 1.4193526918570847 -2.3499409547341354 -2.4127557636335886 -0.9394506945092042
131 3.1843289710626834 -1.4989587388597037 1.4240930555428928 -2.359777021675311 -2.4222348896523505 -0.9370736594965605
132 3.187218832233492 -1.4987772348907717 1.4288103295766597 -2.3695990561083415 -2.4315160093547505 -0.9346306989621035
133 3.190084134083045 -1.4985929925945305 1.4335022761582923 -2.37940657432837 -2.440591786054228 -0.9321217127706909
134 3.1929226861781945 -1.4984062494176709 1.4381667220311303 -2.389199143021077 -2.4494546434364524 -0.9295466750089345
135 3.1957323861996825 -1.498217248441184 1.4428015565049677 -2.398976376818503 -2.458096800425794 -0.9269056396800189
136 3.198511213348268 -1.498026239063235 1.4474047302615276 -2.4087379350607034 -2.466510310293991 -0.9241987468104422
137 3.201257222441407 -1.4978334775239706 1.4519742549062649 -2.4184835177384056 -2.474687104580593 -0.9214262289759503
138 3.2039685386858054 -1.497639227266975 1.456508203236226 -2.428212860604772 -2.482619042325996 -0.9185884182430374
139 3.206643353116474 -1.4974437591325982 1.461004710197606 -2.4379257294605843 -2.490297965010107 -0.9156857535065055
140 3.2092799186972183 -1.4972473513790425 1.465461974508296 -2.4476219136371236 -2.497715757436944 -0.9127187881821645
141 3.2118765470805197 -1.4970502895279845 1.4698782609198748 -2.457301218724863 -2.5048644146034262 -0.9096881981864892
142 3.214431606026219 -1.4968528660326856 1.4742519030899175 -2.466963458623771 -2.5117361143374333 -0.906594790101976
143 3.2169435174779983 -1.4966553797681086 1.4785813070290128 -2.4766084470220044 -2.5183232951882477 -0.9034395093886455
144 3.2194107562941063 -1.4964581353445408 1.4828649550774915 -2.486235988443088 -2.5246187387090644 -0.9002234484598988
145 3.2218318496238387 -1.49626144224871 1.4871014103547004 -2.4958458690358367 -2.5306156548999676 -0.8969478543968545
146 3.2242053769139605 -1.4960656138193453 1.491289321609125 -2.5054378473141177 -2.5363077692009792 -0.8936141360323718
147 3.226529970519464 -1.4958709660675955 1.495427428381394 -2.5150116450825513 -2.541836823459371 -0.8901625359524747
148 3.22880609952797 -1.4956774601888143 1.4995161569885966 -2.524566080281931 -2.5470310301266577 -0.8866616657485139
149 3.231032164229436 -1.4954854824079702 1.5035540630071245 -2.534100893698901 -2.551885589742412 -0.8831139211251118
150 3.233206639564702 -1.495295413840973 1.5075398412753416 -2.543615766235882 -2.5563966373244402 -0.8795218287899191
151 3.235328077234117 -1.495107628949247 1.5114723295194574 -2.5531103133304067 -2.560561317575381 -0.8758880424249221
152 3.237395108232068 -1.4949224938991135 1.5153505119650656 -2.562584080752796 -2.5643778443852714 -0.8722153366198304
153 3.239406445668872 -1.4947403648708666 1.5191735227016916 -2.5720365419694162 -2.567845542263679 -0.8685065986676908
154 3.2413608877340363 -1.4945615863637787 1.522940648577539 -2.5814670971969043 -2.570964867997985 -0.864764818200044
155 3.243257320652546 -1.4943864895430368 1.5266513314196377 -2.590875074201247 -2.5737374116390686 -0.8609930747267466
156 3.2450947214891834 -1.4942153906726723 1.5303051694006222 -2.600259730819591 -2.576165876801222 -0.8571945232376404
157 3.2468721606652458 -1.4940485896748699 1.5339019174064563 -2.609620259107923 -2.57825404115834 -0.8533723781122293
158 3.2485888040670416 -1.493886368850769 1.5374414862980015 -2.61895579095002 -2.5800066988503247 -0.8495298956619918
159 3.250243914645381 -1.4937289917913077 1.5409239410012598 -2.628265404907297 -2.5814295872170248 -0.8456703556914293
160 3.2518368534287467 -1.4935767024991438 1.544349497404062 -2.637548134048997 -2.582529300802452 -0.8417970425036344
161 3.2533670798983887 -1.4934297247347388 1.5477185180785025 -2.646802974479466 -2.583313195890839 -0.8379132257915798
162 3.254834151699634 -1.4932882615917158 1.551031506886393 -2.6560288942741446 -2.5837892889424334 -0.834022141847472
163 3.256237723688733 -1.4931524952990918 1.554289102557645 -2.6652248425468548 -2.5839661522056065 -0.8301269754916427
164 3.2575775463371985 -1.4930225872412821 1.5574920713576148 -2.674389758395199 -2.584038634808592 -0.8261722319228576
165 3.2588556735377208 -1.4928982608650339 1.5606430604943864 -2.683521382789275 -2.5838429696550134 -0.8222127532101539
166 3.260072089828232 -1.4927796356323981 1.5637429705010495 -2.6926185771659474 -2.583387761573157 -0.8182517835193299
167 3.2612268563098374 -1.4926668135880587 1.5667927938112218 -2.70168022157505 -2.58268176686766 -0.8142924747930947
168 3.2623201073157806 -1.4925598799793425 1.5697936061106412 -2.710705221862294 -2.581733822008511 -0.8103378724948233
169 3.263352046805259 -1.4924589039689544 1.5727465576024149 -2.7196925159697027 -2.580552779526336 -0.8063909034471711
170 3.264322944548564 -1.4923639394207158 1.5756528642932233 -2.728641079327239 -2.5791474514662927 -0.8024543657664225
171 3.2652331321680124 -1.4922750257393063 1.5785137993968539 -2.737549929340182 -2.5775265604552615 -0.7985309208361971
172 3.2660829990951554 -1.4921921887462817 1.5813306849390967 -2.7464181290016754 -2.575698698196602 -0.794623087218977
173 3.2668729884993777 -1.4921154415762692 1.5841048836350446 -2.7552447896787675 -2.573672291023464 -0.7907332363706321
174 3.267603593236701 -1.4920447855791112 1.586837791096833 -2.764029073133591 -2.571455572011742 -0.7868635900008221
175 3.268275351860883 -1.4919802112157015 1.5895308284173335 -2.7727701928497304 -2.5690565590708707 -0.7830162189094726
176 3.268888844732066 -1.4919216989372388 1.5921854351636247 -2.781467414738139 -2.5664830383873976 -0.7791930431248705
177 3.2694446902515777 -1.4918692200395312 1.5948030628034622 -2.7901200572979055 -2.563742552584663 -0.7753958331706678
178 3.269943541245262 -1.49182273748577 1.5973851685785772 -2.798727491305578 -2.560842392974608 -0.7716262122956544
179 3.2703860815119947 -1.4917822066928141 1.599933209830508 -2.807289139103306 -2.557789595307883 -0.7678856595101583
180 3.270936061799074 -1.491462401956344 1.6027406723632789 -2.815752263698474 -2.5544842049542007 -0.7641755132851618
181 3.2714203697755897 -1.491151127141865 1.605475076868398 -2.8241815464149878 -2.551065769077236 -0.760498208239228
182 3.2718406406657348 -1.4902887651404138 1.6239420306243817 -2.831062621371793 -2.546759371017813 -0.7568544789492304
183 3.272158694010942 -1.4896328381574746 1.6379352286084639 -2.8384534302747806 -2.543030428999935 -0.7532839881411727
184 3.272399004362913 -1.4891223326817733 1.6486803841065107 -2.846186167169937 -2.5396868414011884 -0.7497781464266278
185 3.2725774626017023 -1.4887151242602312 1.6570656950975544 -2.854145571804816 -2.536579775507721 -0.7463280359505103
186 3.2727043249794425 -1.4883820138849027 1.663733065800413 -2.862251879700486 -2.5335988241546996 -0.7429260558052062
187 3.2727862102612315 -1.4881025956816576 1.669146498238211 -2.870449295844779 -2.5306643304569776 -0.739566317001494
188 3.2728273870299573 -1.4878624879613063 1.6736418670580917 -2.878698372907562 -2.5277200554568613 -0.7362445250977996
189 3.272830595884284 -1.4876514801833525 1.6774627517750567 -2.8869709597204083 -2.524727124052802 -0.7329576974493561
190 3.272797578506097 -1.487462279928511 1.6807861571275426 -2.895246811964122 -2.521659331871493 -0.7297038623263734
191 3.272729422613621 -1.4872896543259002 1.683740982872699 -2.9035112831756495 -2.5184996217150886 -0.7264817943825671
192 3.272626789960225 -1.487129834348917 1.6864213089406281 -2.91175372811289 -2.5152374850536816 -0.7232908006132222
193 3.2724900687965808 -1.486980097075913 1.688895970222575 -2.9199663841071235 -2.511867066341094 -0.7201305547981306
194 3.2723194766920076 -1.486838470223922 1.6912154704593407 -2.928143578675594 -2.5083857897712813 -0.717000973002626
195 3.2721151302106306 -1.4867035217546933 1.6934169832679622 -2.936281163244523 -2.504793369428282 -0.7139021218033555
196 3.271877092157258 -1.4865742092790546 1.6955279749111103 -2.9443761055900866 -2.5010910985414214 -0.7108341517222907
197 3.2716054034816047 -1.486449771836209 1.6975688319998998 -2.952426194848675 -2.497281340859838 -0.7077972496735719
198 3.2713001046064645 -1.4863296518915132 1.6995547695490674 -2.960429827020411 -2.4933671678698244 -0.7047916055507695
199 3.2709612494271543 -1.4862134389891228 1.701497217821492 -2.968385848397307 -2.489352100976922 -0.701817389226291
200 3.27058891421913 -1.4861008289810684 1.7034048312279508 -2.976293440881793 -2.485239929085134 -0.698874735158676
201 3.2701832030077456 -1.4859915944927815 1.70528422289363 -2.9841520377171107 -2.481034580248116 -0.6959637325220319
202 3.2697442504865104 -1.4858855635121841 1.707140499931211 -2.9919612613643163 -2.4767400320425943 -0.6930844193179534
203 3.2692722232466567 -1.485782603861699 1.7089776538317147 -2.9997208775477238 -2.4723602496306483 -0.6902367793393155
204 3.2687673198551344 -1.4856826119359845 1.7107988454651588 -3.007430761130073 -2.46789914358795 -0.6874207411588303
205 3.268229770159658 -1.485585504535709 1.712606613377969 -3.015090870660265 -2.4633605418127327 -0.6846361785390355
206 3.267659834087632 -1.4854912129499798 1.7144030262393608 -3.0227012292916045 -2.4587481714382875 -0.681882911824698
207 3.2670578001266306 -1.4853996786727597 1.7161897946024163 -3.0302619103892474 -2.454065647826488 -0.6791607099989464
208 3.266423983617957 -1.4853108503069765 1.7179683530149519 -3.0377730265972724 -2.4493164685486484 -0.6764692931724146
209 3.2657587249548774 -1.4852246813320478 1.7197399205127313 -3.0452347214650906 -2.444504010854756 -0.67380833533892
210 3.2650623877487894 -1.485141128499063 1.7215055453438384 -3.052647162973312 -2.439631531558848 -0.6711774672780911
211 3.2643353570064177 -1.4850601506821597 1.7232661381840089 -3.0600105384748706 -2.434702168574446 -0.6685762795195527
212 3.263578037346844 -1.484981708061351 1.7250224969460626 -3.067325050695704 -2.429718943553625 -0.6660043253082241
213 3.262790851277073 -1.4849057615460448 1.726775325444345 -3.0745909145333536 -2.424684765240864 -0.6634611235284542
214 3.2619742375377077 -1.4848322723732101 1.7285252475616806 -3.0818083544607244 -2.419602433265881 -0.6609461615579484
215 3.2611286495253213 -1.4847612018321343 1.7302728181195093 -3.0889776023927342 -2.4144746421807244 -0.6584588980320615
216 3.260254553794652 -1.4846925110808114 1.7320185313263508 -3.0960988959105937 -2.409303985604516 -0.6559987655060068
217 3.259352428641356 -1.4846261610285312 1.733762827442578 -3.103172476765612 -2.4040929603809094 -0.6535651730075737
218 3.258422762764451 -1.4845621122661719 1.735506098126689 -3.1101985896043547 -2.398843970683109 -0.6511575084765726
219 3.25746605400653 -1.4845003250307578 1.737248690802385 -3.117177480871634 -2.393559332022639 -0.6487751410898183
220 3.25648280816913 -1.4844407591945081 1.7389909122940632 -3.1241093978585797 -2.3882412751332267 -0.6464174234722908
221 3.255473537900257 -1.484383374271286 1.7407330319115415 -3.1309945878709673 -2.3828919497119907 -0.6440836937963914
222 3.2544387616508392 -1.4843281294352912 1.7424752841161855 -3.1378332974988403 -2.377513428007769 -0.6417732777720756
223 3.253379002696802 -1.4842749835482625 1.7442178708651985 -3.1446257719727737 -2.3721077082518276 -0.6394854905312193
224 3.2522947882234567 -1.4842238951924744 1.745960963705041 -3.151372254595341 -2.3666767179299346 -0.6372196384099271
225 3.251186648468959 -1.4841748227075675 1.7477047056661792 -3.1580729862387242 -2.3612223168974076 -0.6349750206326914
226 3.250055115923688 -1.4841277242297803 1.7494492129977077 -3.164728204901179 -2.355746300340467 -0.6327509309023929
227 3.248900724582519 -1.484082557732556 1.7511945767704353 -3.1713381453164122 -2.350250401588432 -0.6305466589001418
228 3.2477240092470914 -1.4840392810677707 1.7529408643697943 -3.1779030386109284 -2.3447362947819945 -0.6283614916989021
229 3.24652550487532 -1.4839978520070418 1.754688120894654 -3.1844231120051623 -2.339205597403273 -0.6261947150947496
230 3.245305745975527 -1.4839582282827213 1.7564363704742818 -3.190898588554822 -2.333659872673534 -0.6240456148594995
231 3.244065266042712 -1.483920367628285 1.7581856175128838 -3.197329686929302 -2.32810063182458 -0.621913477918299
232 3.242804597034615 -1.48388422781791 1.7599358478691163 -3.2037166212244017 -2.3225293362497306 -0.6197975934556369
233 3.241524268885336 -1.483849766705084 1.761687029976441 -3.210059600806857 -2.3169473995402443 -0.6176972539530732
234 3.2402248090544172 -1.4838169422601364 1.7634391159091025 -3.216358830188436 -2.3113561894128756 -0.615611756161837
235 3.2389067421093967 -1.4837857126066043 1.7651920423976766 -3.2226145089275255 -2.305757029534065 -0.6135404020132943
236 3.237570589339934 -1.4837560360563735 1.7669457317975317 -3.2288268315563102 -2.3001512012460883 -0.6114824994701377
237 3.2362168684017445 -1.483727871143547 1.7687000930130785 -3.234995987531762 -2.2945399452002575 -0.60943736332101
238 3.2348460929886373 -1.483701176657007 1.7704550223803324 -3.2411221612087875 -2.2889244629020693 -0.6074043159211364
239 3.2334587725310655 -1.4836759116716427 1.7722100095093638 -3.24720869183938 -2.283299629143696 -0.6053556096950972
240 3.232444773012494 -1.482988135860677 1.7746385849050437 -3.2530836043952926 -2.2774428949346093 -0.6033158383243766
241 3.2313893369369726 -1.4823170094602482 1.7766877927925413 -3.2589742902416785 -2.2716262180219533 -0.6012957112528383
242 3.230295284470565 -1.4816577695902915 1.7784671112428327 -3.2648664043832625 -2.2658410162379083 -0.5992909985178996
243 3.228865604738676 -1.4815165725590493 1.7795381793883394 -3.270881139964874 -2.2602564600986184 -0.5972984513368351
244 3.227421842582348 -1.4813696341023184 1.7807653500918825 -3.276834778503856 -2.2546616265339416 -0.5953064296099007
245 3.2259639797836868 -1.4812190401656526 1.7821033247681424 -3.282733346182089 -2.2490610587347826 -0.5933159782039991
246 3.224492162083785 -1.481066264194044 1.7835198409693325 -3.288581163298572 -2.24345816657107 -0.591327715717981
247 3.223006649692784 -1.480912341620891 1.7849919210858118 -3.294381328363566 -2.2378555678457737 -0.5893419595126591
248 3.221507781485034 -1.4807579954103463 1.7865031930962376 -3.3001360663998316 -2.2322553239430514 -0.5873588148359975
249 3.219995949273035 -1.4806037260806046 1.7880419798241525 -3.3058469788037126 -2.2266591030955083 -0.5853782384897462
250 3.2184715794230327 -1.480449876091175 1.7895999379505234 -3.311515222190336 -2.221068293782621 -0.5834000843683849
251 3.216935119776761 -1.4802966758018161 1.7911710896441895 -3.317141636189277 -2.2154840836400047 -0.5814241360536717
252 3.2153870303864287 -1.4801442762247123 1.792751134206134 -3.3227268346415 -2.2099075144519587 -0.57945013014895
253 3.2138277769786345 -1.4799927723341488 1.7943369591896692 -3.3282712706118227 -2.204339520528191 -0.5774777729811368
254 3.2122578263650223 -1.4798422196374486 1.7959262934813538 -3.3337752826984217 -2.1987809555227047 -0.5755067525492548
255 3.21067764323827 -1.479692645943842 1.797517461320837 -3.3392391280011102 -2.1932326112067697 -0.5735367470647303
256 3.2090876879519294 -1.4795440597155045 1.7991092080330402 -3.34466300558371 -2.187695230638008 -0.571567431047384
257 3.2074884149977834 -1.4793964559884636 1.8007005766695054 -3.3500470731698058 -2.1821695174252347 -0.5695984796680746
258 3.2058802719769557 -1.4792498205671623 1.802290820764058 -3.355391459025864 -2.176656142272606 -0.5676295718333386
259 3.2042636989199758 -1.4791041329935852 1.8038793426892108 -3.3606962704240106 -2.1711557476274606 -0.5656603923670933
260 3.202639127853071 -1.4789593686470979 1.8054656501476232 -3.3659615996755647 -2.1656689510060914 -0.5636906335438805
261 3.2010069825378578 -1.4788155002280128 1.8070493255009443 -3.3711875284402155 -2.1601963473974344 -0.5617199961559892
262 3.199367678332871 -1.4786724988044828 1.8086300041793362 -3.376374130811757 -2.154738511023244 -0.5597481902450867
263 3.197721622140432 -1.4785303345501173 1.8102073595094679 -3.3815214755360596 -2.149295996648758 -0.5577749355919303
264 3.1960692124130734 -1.4783889772626289 1.8117810920755917 -3.38662962761365 -2.1438693405789464 -0.5557999620311922
265 3.194410839201276 -1.4782483967274918 1.8133509222793234 -3.3916986494658206 -2.1384590614344243 -0.5538230096394307
266 3.192746884229665 -1.4781085629719097 1.8149165851543088 -3.3967286017910383 -2.133065660772565 -0.5518438288306431
267 3.1910777209925762 -1.4779694464411524 1.8164778267686343 -3.4017195442013906 -2.1276896235994798 -0.5498621803841183
268 3.189403714862597 -1.4778310181199394 1.8180344017437045 -3.4066715357025537 -2.1223314188047144 -0.5478778354223508
269 3.1877252232075786 -1.4776932496149093 1.8195860715568966 -3.411584635062158 -2.1169914995409 -0.5458905753518174
270 3.1860425955129403 -1.4775561132095065 1.8211326033932793 -3.4164589010982533 -2.111670303563901 -0.5439001917758649
271 3.184356173507051 -1.4774195818993068 1.8226737693809383 -3.42129439291024 -2.106368253544379 -0.5419064863864257
272 3.1826662912881196 -1.4772836294134404 1.8242093460933513 -3.426091170068044 -2.1010857573584163 -0.5399092708394657
273 3.1809732754515045 -1.4771482302261258 1.825739114236774 -3.4308492927706613 -2.095823208362626 -0.5379083666177745
274 3.1792774452166865 -1.4770133595611439 1.8272628584649564 -3.435568821981894 -2.09058098565758 -0.535903604883783
275 3.1775791125533774 -1.476878993391265 1.8287803672806704 -3.440249819548799 -2.0853594543423037 -0.5338948263244283
276 3.175878582306402 -1.4767451084340517 1.8302914329956337 -3.4448923483067246 -2.080158965761807 -0.5318818809896118
277 3.1741761523191148 -1.476611682145055 1.8317958517289337 -3.4494964721736623 -2.0749798577490868 -0.5298646281254501
278 3.1724721135551808 -1.476478692709124 1.83329342343005 -3.4540622562358454 -2.0698224548626603 -0.5278429360032735
279 3.1707667502186276 -1.4763461190303508 1.8347839519167966 -3.458589766825945 -2.064687068620402 -0.5258166817451434
280 3.169060339872096 -1.476213940721025 1.8362672449214679 -3.4630790715948296 -2.0595739977302814 -0.5237857511465291
281 3.167353153553259 -1.4760821380898723 1.837743114140555 -3.4675302395775747 -2.054483528318435 -0.5217500384966846
282 3.165645455889401 -1.4759506921297734 1.8392113752848642 -3.471943341254215 -2.0494159341549363 -0.519709446397193
283 3.163937505210145 -1.475819584505118 1.8406718481278959 -3.4763184486056065 -2.0443714768775076 -0.5176638855790898
284 3.1622295536583556 -1.4756887975389044 1.8421243565510554 -3.4806556351646636 -2.039350406213399 -0.5156132747189309
285 3.1605218472992243 -1.4755583141996687 1.8435687285847806 -3.4849549760631877 -2.0343529601995898 -0.5135575402541364
286 3.158814626227565 -1.4754281180883178 1.845004796445009 -3.4892165480744493 -2.029379365401434 -0.5114966161979138
287 3.157108124673351 -1.4752981934249147 1.846432396564669 -3.4934404296516695 -2.024429837129862 -0.5094304439540384
288 3.155402571105514 -1.4751685250354627 1.8478513696200327 -3.4976267009625173 -2.019504579657193 -0.5073589721317483
289 3.1536981883340496 -1.4750390983387232 1.849261560551902 -3.5017754439197413 -2.014603786431632 -0.505282156360994
290 3.1519951936104458 -1.4749098993331007 1.850662818581667 -3.5058867422080353 -2.009727640290475 -0.5031999591082661
291 3.1502937987264845 -1.4747809145836173 1.8520549972223408 -3.509960681307242 -2.0048763136720478 -0.5011123494932076
292 3.148594210111437 -1.4746521312090004 1.8534379542847097 -3.5139973485119933 -2.0000499688263935 -0.49901930310620823
293 3.146896628927693 -1.4745235368689038 1.8548115518787562 -3.51799683294789 -1.995248758024702 -0.4969208018271603
294 3.145201251164854 -1.4743951197512761 1.8561756564105407 -3.5219592255843177 -1.9904728237674767 -0.49481683364554613
295 3.143508267732325 -1.4742668685598945 1.8575301385747216 -3.5258846192440076 -1.9857222989914143 -0.4927073924820159
296 3.141817864550437 -1.4741387725020716 1.8588748733429132 -3.5297731086094344 -1.980997307274977 -0.4905924780116024
297 3.140130222640132 -1.4740108212765504 1.8602097399480702 -3.5336247902261673 -1.9762979630426223 -0.48847209548870973
298 3.138445518211241 -1.473883005061593 1.8615346218650977 -3.537439762503271 -1.9716243717676545 -0.4863462555740025
299 3.136763922749386 -1.473755314503273 1.862849406787878 -3.5412181257108717 -1.966976630173654 -0.484214974163313
300 3.135085603101538 -1.473627740703975 1.8641539866029018 -3.5449599819749857 -1.9623548264344413 -0.4820782722186735
301 3.1334107215602565 -1.4735002752111097 1.865448257359693 -3.548665435269731 -1.9577590403725271 -0.4799361756015739
302 3.1317394359466375 -1.473372910006045 1.866732119238209 -3.55233459140702 -1.953189343655994 -0.47778871490853425
303 3.1300718996920036 -1.4732456374932574 1.868005476513391 -3.555967558023847 -1.9486457999937588 -0.47563592530907484
304 3.1284082619183557 -1.473118450489705 1.8692682375170442 -3.5595644445672816 -1.9441284653291628 -0.47347784638615914
305 3.1267486675176155 -1.4729913422144234 1.8705203145972058 -3.5631253622772747 -1.9396373880318305 -0.47131452197917595
306 3.1250932572296817 -1.4728643062783444 1.8717616240751773 -3.5666504241673813 -1.935172609087743 -0.46914600002952095
307 3.1234421677193227 -1.4727373366743355 1.8729920862003684 -3.5701397450035146 -1.930734162287472 -0.466972332428831
308 3.1217955316519337 -1.4726104277674605 1.8742116251031098 -3.573593441280832 -1.926322074412516 -0.4647935748699176
309 3.1201534777681683 -1.4724835742854583 1.8754201687455874 -3.577011631198864 -1.9219363654196853 -0.4626097867004398
310 3.11851613095748 -1.4723567713094372 1.8766176488710338 -3.5803944346349827 -1.9175770486234816 -0.4604210307793508
311 3.116883612330583 -1.4722300142647826 1.8778040009513224 -3.583741973116319 -1.9132441308764214 -0.4582273733361476
312 3.115256039290853 -1.4721032989122727 1.8789791641330937 -3.587054369790225 -1.9089376127472504 -0.4560288838329457
313 3.11363352560469 -1.4719766213394 1.8801430811825441 -3.590331749393381 -1.904657488697 -0.4538256348293983
314 3.1120161814708593 -1.4718499779518954 1.8812956984290017 -3.5935742382196496 -1.9004037472528414 -0.4516177018504724
315 3.1104041135888223 -1.471723365465446 1.8824369657074063 -3.5967819640867598 -1.8961763711796886 -0.44940516325709096
316 3.108797425226079 -1.4715967808976085 1.883566836299812 -3.5999550563019285 -1.8919753376495119 -0.447188100119645
317 3.1071962162845366 -1.471470221559907 1.8846852668760194 -3.6030936456264975 -1.8878006184083176 -0.4449665960943761
318 3.105600583365914 -1.4713436850501154 1.8857922174334438 -3.606197864239682 -1.883652179940759 -0.4427407373026258
319 3.104010619836201 -1.4712171692447156 1.8868876512363213 -3.6092678457015124 -1.879529983632344 -0.4405106122129437
320 3.1024264158891808 -1.4710906722915291 1.8879715347543506 -3.6123037249150522 -1.8754339859292057 -0.4382763115260444
321 3.1008480586090337 -1.4709641926025157 1.8890438376008616 -3.6153056380879764 -1.8713641384954054 -0.4360379280625991
322 3.099275632032028 -1.4708377288467334 1.890104532470601 -3.6182737226935866 -1.8673203883677452 -0.43379555665384417
323 3.0977092172073153 -1.4707112799434565 1.891153595077218 -3.6212081174313324 -1.863302678108061 -0.43154929403498776
324 3.0961488922568345 -1.4705848450554455 1.892191004090534 -3.624108962186925 -1.859310945952981 -0.42929923874139136
325 3.0945947324343415 -1.4704584235823637 1.8932167410736698 -3.6269763979920966 -1.855345125961123 -0.42704549100750205
326 3.0930468101835693 -1.4703320151543366 1.8942307904201043 -3.629810566984092 -1.8514051481577243 -0.4247881526685077
327 3.0915051951955324 -1.4702056196256492 1.8952331392907387 -3.6326116123649377 -1.8474909386766825 -0.42252732706468643
328 3.0899699544649795 -1.4700792370685751 1.8962237775510253 -3.6353796783605645 -1.8436024199000032 -0.42026311894841906
329 3.0884411523460105 -1.469952867767336 1.8972026977082295 -3.6381149101798393 -1.839739510594645 -0.41799563439383186
330 3.086918850606859 -1.4698265122121832 1.8981698948488799 -3.6408174539735603 -1.8359021260467552 -0.41572498070903496
331 3.085403108483853 -1.4697001710936024 1.899125366576469 -3.6434874567934723 -1.8320901781932961 -0.41345126635092083
332 3.083893982734562 -1.4695738452966307 1.9000691129494482 -3.6461250665513574 -1.8283035757510602 -0.4111746008424855
333 3.082391527690134 -1.4694475358952888 1.9010011364195782 -3.648730431978239 -1.8245422243430782 -0.4088950946926344
334 3.0808957953068363 -1.4693212441471208 1.9019214417706702 -3.651303702583761 -1.8208060266224235 -0.40661285931843283
335 3.0794068352168025 -1.4691949714878385 1.9028300360577737 -3.6538450286157733 -1.8170948823934199 -0.40432800696976184
336 3.077924694777994 -1.4690687195260685 1.9037269285468421 -3.656354561020176 -1.8134086887302625 -0.4020406506563375
337 3.0764494191233887 -1.4689424900381973 1.9046121306549233 -3.6588324514010515 -1.8097473400930626 -0.3997509040770519
338 3.0749810512093907 -1.4688162849633124 1.905485655890906 -3.661278851981131 -1.806110728441329 -0.39745888155159415
339 3.0735196318634865 -1.468690106398234 1.9063475197968571 -3.663693915562624 -1.8024987433449027 -0.3951646979543075
340 3.072065199831136 -1.468563956592641 1.907197739889983 -3.666077795488449 -1.7989112720923597 -0.39286846865024005
341 3.070617791821918 -1.4684378379442793 1.908036335605242 -3.6684306456038898 -1.795348199796901 -0.3905703094333454
342 3.0691774425549343 -1.46831175299426 1.9088633282386365 -3.6707526202187117 -1.7918094094997514 -0.3882703364667889
343 3.067744184803472 -1.4681857044224365 1.9096787408912068 -3.6730438740697595 -1.7882947822710864 -0.3859686662253158
344 3.0663180494389417 -1.468059695042865 1.9104825984137541 -3.6753045622840665 -1.7848041973085131 -0.38366541543963795
345 3.06489906547409 -1.467933727799343 1.911274927352307 -3.6775348403424917 -1.7813375320331273 -0.38136070104279357
346 3.0634872601054983 -1.4678078057610233 1.9120557558943578 -3.6797348640439136 -1.777894662183173 -0.3790546401184374
347 3.0620826587553696 -1.4676819321181067 1.9128251138158772 -3.681904789469991 -1.7744754619053338 -0.3767473498510166
348 3.060685285112615 -1.467556110177604 1.9135830324291316 -3.684044772950514 -1.771079803843679 -0.37443894747778883
349 3.0592951611732437 -1.4674303433591733 1.9143295445313093 -3.6861549710293624 -1.7677075592263 -0.37212955024263944
350 3.0579123072800645 -1.4673046351910273 1.9150646843539716 -3.688235540431077 -1.7643585979496619 -0.36981927535165393
351 3.056536742161706 -1.4671789893059088 1.9157884875133384 -3.6902866380280686 -1.761032788660702 -0.36750823993040316
352 3.055168482970959 -1.4670534094371361 1.916500990961417 -3.692308420808464 -1.7577299988367105 -0.3651965609828987
353 3.0538075453224565 -1.4669278994147144 1.9172022329379825 -3.694301045844609 -1.7544500948630208 -0.3628843553521762
354 3.0524539433296862 -1.4668024631615135 1.917892252923415 -3.6962646702622286 -1.7511929421085453 -0.36057173968246525
355 3.051107689641354 -1.4666771046895108 1.9185710915924 -3.698199451210261 -1.7479584049991892 -0.3582588303829038
356 3.0497687954770965 -1.4665518280960983 1.9192387907684958 -3.7001055458313594 -1.7447463470891786 -0.35594574359275766
357 3.048437270662559 -1.4664266375604518 1.9198953933795697 -3.701983111233077 -1.741556631130332 -0.3536325951481036
358 3.047113123663835 -1.4663015373399648 1.9205409434141043 -3.703832304459735 -1.7383891191393166 -0.351319500549937
359 3.0457963616212855 -1.4661765317667428 1.9211754858783776 -3.7056532824649726 -1.7352436724629197 -0.3490065749336651
360 3.0444869903827367 -1.4660516252441569 1.9217990667545133 -3.7074462020849923 -1.7321201518413725 -0.34669393303994694
361 3.043185014536069 -1.4659268222434618 1.9224117329594006 -3.709211220012484 -1.7290184174697631 -0.34438168918684214
362 3.0418904374412024 -1.465802127300469 1.9230135323044835 -3.7109484927712453 -1.7259383290575716 -0.3420699572432316
363 3.040603261261485 -1.4656775450122828 1.923604513456415 -3.7126581766914843 -1.7228797458863638 -0.3397588506034729
364 3.0393234869944936 -1.465553080034091 1.924184725898572 -3.714340427885812 -1.719842526865683 -0.33744848216325485
365 3.038051114502255 -1.4654287370760175 1.9247542198934282 -3.715995402225913 -1.71682653058717 -0.33513896429661566
366 3.0367861425408895 -1.465304520900029 1.9253130464457786 -3.7176232553199022 -1.7138316153769524 -0.33283040883408993
367 3.035528568789693 -1.4651804363169 1.925861257266811 -3.7192241424903534 -1.7108576393463346 -0.3305229270419503
368 3.034278389879657 -1.465056488183234 1.9263989047390164 -3.7207982187530035 -1.7079044604408282 -0.32821662960251097
369 3.033035601421441 -1.4649326813985386 1.9269260418819345 -3.7223456387961202 -1.7049719364875544 -0.3259116265954596
370 3.031800198032798 -1.4648090209023596 1.9274427223187227 -3.7238665569605343 -1.7020599252410566 -0.3236080274801861
371 3.030572173365467 -1.464685511671466 1.9279490002435447 -3.7253611272203258 -1.6991682844275577 -0.32130594107907684
372 3.029351520131536 -1.464562158717091 1.9284449303897684 -3.726829503164162 -1.696296871787696 -0.3190054755617434
373 3.0281382301292834 -1.4644389670822264 1.9289305679989643 -3.728271837977275 -1.6934455451177743 -0.316706738430156
374 3.026932294268509 -1.4643159418389706 1.929405968790697 -3.729688284424075 -1.6906141623095583 -0.3144098365046524
375 3.0257337025953563 -1.4641930880859286 1.929871188933097 -3.7310789948313916 -1.6878025813886555 -0.31211487591079323
376 3.0245424443166393 -1.4640704109456644 1.9303262850142069 -3.7324441210723376 -1.6850106605515107 -0.3098219620670363
377 3.0233585078236778 -1.4639479155622048 1.9307713140140896 -3.7337838145507796 -1.6822382582010507 -0.30753119967320186
378 3.022181880715649 -1.4638256070985949 1.9312063332776899 -3.7350982261864143 -1.6794852329810088 -0.30524269269970244
379 3.021012549822465 -1.4637034907345035 1.9316314004884347 -3.7363875064004377 -1.6767514438089657 -0.3029565443775116
380 3.019850501227182 -1.4635815716638794 1.932046573642568 -3.7376518051018044 -1.6740367499081348 -0.3006728571888455
381 3.0186957202879467 -1.463459855092656 1.9324519110242038 -3.738891271674054 -1.6713410108379263 -0.29839173285853265
382 3.017548191659493 -1.463338346236506 1.9328474711810877 -3.7401060549627156 -1.6686640865233207 -0.2961132723460483
383 3.0164078993141907 -1.463217050318643 1.9332333129010577 -3.7412963032632613 -1.6660058372830806 -0.2938375758381891
384 3.0152748265626563 -1.4630959725676729 1.9336094951891911 -3.742462164309612 -1.6633661238568342 -0.2915647427423656
385 3.014148956073931 -1.4629751182154906 1.9339760772456238 -3.743603785263179 -1.6607448074310571 -0.2892948716804901
386 3.013030269895236 -1.4628544924952245 1.934333118444036 -3.7447213127024406 -1.6581417496639845 -0.2870280604834381
387 3.011918749471311 -1.4627341006392258 1.934680678310788 -3.7458148926130264 -1.6555568127094802 -0.2847644061860622
388 3.0108143756633416 -1.4626139478771043 1.9350188165046964 -3.7468846703783223 -1.6529898592398937 -0.28250400502273787
389 3.0097171287674866 -1.4624940394338088 1.9353475927974386 -3.7479307907705675 -1.6504407524679292 -0.2802469524234213
390 3.008626988533004 -1.462374380527751 1.9356670670545737 -3.7489533979424428 -1.6479093561675584 -0.2779933430101991
391 3.0075439341799926 -1.462254976368973 1.9359772992171675 -3.749952635419138 -1.6453955346940006 -0.275743270594312
392 3.006467944416753 -1.4621358321573583 1.9362783492840137 -3.750928646090891 -1.6428991530027972 -0.27349682817363286
393 3.005398997456767 -1.4620169530808844 1.9365702772944322 -3.7518815722059804 -1.6404200766680077 -0.2712541079305827
394 3.0043370710353132 -1.4618983443139166 1.93685314331164 -3.7528115553641763 -1.6379581718995517 -0.26901520123046563
395 3.0032821424257197 -1.4617800110155434 1.9371270074066806 -3.753718736510623 -1.635513305559721 -0.2667801986202072
396 3.002234188455261 -1.4616619583279518 1.9373919296428972 -3.7546032559301548 -1.6330853451788878 -0.2645491898274789
397 3.0011931855207044 -1.4615441913748415 1.9376479700609448 -3.755465253242036 -1.6306741589704314 -0.2623222637601935
398 3.0001591096035187 -1.461426715259879 1.937895188664323 -3.7563048673951043 -1.6282796158449073 -0.2600995085063554
399 2.9991319362847406 -1.461309535065189 1.938133645405423 -3.7571222366633195 -1.625901585423482 -0.25788101133425084
400 2.9981116407595163 -1.4611926558498831 1.9383634001720742 -3.7579174986417057 -1.6235399380506552 -0.2556668586929644
401 2.997098197851315 -1.4610760826486267 1.9385845127745829 -3.7586907902426705 -1.6211945448062914 -0.25345713621320637
402 2.9960915820258296 -1.4609598204702399 1.9387970429332482 -3.759442247692701 -1.6188652775169827 -0.25125192870843827
403 2.995091767404561 -1.4608438742963348 1.9390010502663462 -3.7601720065294217 -1.616552008766763 -0.24905132017628293
404 2.994098727778101 -1.4607282490799876 1.939196594278572 -3.760880201599009 -1.6142546119071943 -0.24685539380020627
405 2.9931124366191124 -1.460612949744445 1.939383734349929 -3.7615669670539487 -1.6119729610668465 -0.24466423195145848
406 2.992132867095015 -1.4604979811818626 1.9395625297250512 -3.7622324363511317 -1.609706931160187 -0.2424779161912623
407 2.9911599920803873 -1.4603833482520763 1.9397330395029555 -3.7628767422502776 -1.6074563978959024 -0.24029652727323705
408 2.9901937841690804 -1.460269055781407 1.9398953226272047 -3.763500016812676 -1.605221237784669 -0.23812014514604674
409 2.989234215686058 -1.460155108561495 1.9400494378764797 -3.7641023914002436 -1.6030013281463906 -0.23594884895626156
410 2.9882812586989633 -1.460041511348165 1.940195443855543 -3.764683996674876 -1.6007965471169219 -0.2337827170514221
411 2.9873348850294197 -1.4599282688603215 1.9403333989865916 -3.765244962598101 -1.5986067736542935 -0.23162182698329584
412 2.9863950662640706 -1.4598153857788727 1.9404633615009819 -3.7657854184310127 -1.596431887544457 -0.22946625551131647
413 2.9854617737653637 -1.4597028667456846 1.9405853894313216 -3.7663054927344874 -1.5942717694065645 -0.22731607860619568
414 2.9845349786820843 -1.45959071636256 1.9406995406039205 -3.7668053133696677 -1.5921263006978006 -0.22517137145369887
415 2.983614651959642 -1.4594789391902474 1.940805872631584 -3.7672850074987094 -1.5899953637177817 -0.2230322084585754
416 2.9827007643501173 -1.4593675397474744 1.9409044429067497 -3.7677447015857846 -1.5878788416125362 -0.22089866324863472
417 2.9817932864220724 -1.4592565225100085 1.9409953085949496 -3.768184521398329 -1.5857766183780828 -0.21877080867895993
418 2.9808921885701305 -1.4591458919097424 1.9410785266285948 -3.768604592008535 -1.5836885788636204 -0.21664871683625103
419 2.979997441024328 -1.4590356523338035 1.9411541537010715 -3.7690050377950723 -1.5816146087743421 -0.21453245904328944
420 2.979109013859248 -1.4589258081236876 1.9412222462611404 -3.7693859824450375 -1.5795545946738898 -0.21242210586351667
421 2.9782268770029314 -1.4588163635744165 1.9412828605076304 -3.7697475489561234 -1.5775084239864599 -0.21031772710571964
422 2.9773510002455783 -1.458707322933718 1.941336052384421 -3.7700898596389987 -1.5754759849985742 -0.2082193918288154
423 2.976481353248041 -1.4585986904012267 1.9413818775757008 -3.7704130361198938 -1.573457166860529 -0.20612716834672898
424 2.9756179055501133 -1.4584904701277086 1.9414203915015011 -3.7707171993433874 -1.5714518595875344 -0.204041124233357
425 2.974760626578616 -1.4583826662143051 1.9414516493134881 -3.771002469575387 -1.5694599540605532 -0.20196132632761143
426 2.973909485655292 -1.458275282711798 1.941475705891016 -3.771268966406292 -1.5674813420268554 -0.19988784073853683
427 2.9730644520045053 -1.458168323619893 1.9414926158374226 -3.7715168087543405 -1.5655159161002956 -0.1978207328504954
428 2.972225494760755 -1.4580617928865243 1.941502433476573 -3.7717461148691322 -1.5635635697613262 -0.19576006732841417
429 2.9713925829760046 -1.457955694407177 1.9415052128496308 -3.771957002335318 -1.5616241973567564 -0.19370590812308852
430 2.9705656856268305 -1.4578500320242276 1.9415010077120625 -3.7721495880764535 -1.559927844999148 -0.19169235149526745
431 2.9697493019515524 -1.4577447103904253 1.9414904727784785 -3.7723241067273716 -1.5582378072472556 -0.18968459278637936
432 2.968943034161793 -1.4576397498415015 1.9415023429900666 -3.772249615810377 -1.5565485038684774 -0.18771950932909817
433 2.968146426003891 -1.4575367435340953 1.9414765761692967 -3.7721635003857363 -1.554865642718935 -0.1857631216336527
434 2.9673592268527162 -1.4574352561772597 1.9414223862249065 -3.772064616789388 -1.5531894810080344 -0.18381505876758547
435 2.9665811765579053 -1.457334981073763 1.941346321198308 -3.7719521836699146 -1.5515202536886414 -0.18187507810061182
436 2.9658120135839505 -1.4572357025033609 1.9412530395559753 -3.77182567652511 -1.54985817456368 -0.17994302716430097
437 2.965051480383798 -1.4571372691080773 1.9411458602046552 -3.771684752941438 -1.548203437456846 -0.17801881668745445
438 2.9642993268474642 -1.457039575051835 1.9410271522626328 -3.7715291995983997 -1.5465562174091119 -0.1761024015395139
439 2.9635553124151257 -1.4569425466790833 1.9408986113155275 -3.7713588947007235 -1.5449166718708784 -0.17419376726996197
440 2.962819207268398 -1.4568461330657145 1.9407614552403336 -3.7711737813460102 -1.5432849418679546 -0.1722929206074919
441 2.9620907928904177 -1.4567502993263566 1.9406165630294445 -3.770973848643443 -1.5416611531265738 -0.17039988276083057
442 2.961369862198807 -1.456655021874269 1.9404645732147932 -3.7707591183264917 -1.5400454171481306 -0.16851468470143813
443 2.960656219394644 -1.4565602850647583 1.9403059536547997 -3.7705296352598276 -1.5384378322283678 -0.16663736384778166
444 2.9599496796275537 -1.4564660788190003 1.940141051020339 -3.7702854607065848 -1.5368384844186203 -0.1647679617404035
445 2.959250068546677 -1.4563723969426436 1.9399701258882822 -3.7700266675523 -1.535247448428729 -0.16290652241702203
446 2.95855722178586 -1.4562792359367653 1.939793377630898 -3.7697533369159424 -1.5336647884725796 -0.1610530912818749
447 2.9578709844162843 -1.456186594157694 1.9396109620701791 -3.7694655557442776 -1.5320905590580876 -0.159207714323678
448 2.9571912103891216 -1.456094471223988 1.9394230040020057 -3.769163415103425 -1.5305248057240022 -0.15737043757917027
449 2.9565177619832967 -1.4560028675984642 1.9392296060824756 -3.7688470089647628 -1.5289675657261945 -0.15554130676937436
450 2.9558505092682132 -1.4559117842941616 1.9390308551344808 -3.768516433341414 -1.5274188686762478 -0.15372036705705464
451 2.955189329587613 -1.455821222668009 1.9388268266247437 -3.7681717856733905 -1.5258787371351996 -0.15190766288897006
452 2.9545341070682056 -1.455731184276514 1.9386175878432617 -3.767813164389166 -1.5243471871652556 -0.1501032378972177
453 2.9538847321549504 -1.4556416707752733 1.9384032001623535 -3.7674406685924535 -1.5228242288422016 -0.1483071348415351
454 2.953241101173671 -1.4555526838494117 1.9381837206427817 -3.7670543978378865 -1.5213098667311382 -0.14651939557978635
455 2.952603115920884 -1.4554642251658152 1.9379592031766224 -3.7666544519698633 -1.5198041003280307 -0.14474006105764625
456 2.951970683280196 -1.4553762963406909 1.9377296993013948 -3.7662409310063003 -1.5183069244694278 -0.14296917131117584
457 2.9510153233256715 -1.4557669221424507 1.936945406039922 -3.7659814341735434 -1.5169578098215004 -0.14120676547787558
458 2.950086756020694 -1.4561420136547651 1.9364576467082835 -3.7656676992905274 -1.5155996432084573 -0.13943774599094405
459 2.9491822050287806 -1.4565061668599615 1.9361778659795934 -3.765311861713583 -1.5142339300052876 -0.1376664684598239
460 2.9482994108065506 -1.456862651699403 1.9360434346412745 -3.7649225057389506 -1.5128619908989593 -0.13589603922650792
461 2.947436507266977 -1.4572137876685494 1.9360100932106932 -3.764505710106575 -1.5114849975611901 -0.1341286798201424
462 2.946591928922104 -1.4575612163515617 1.9360465823095194 -3.7640657859341387 -1.5101039984216753 -0.1323659850947462
463 2.9457643417792316 -1.4579060975097484 1.9361308349516086 -3.7636057974891513 -1.508719937815872 -0.1306091058810009
464 2.944952592203178 -1.458249249324975 1.9362472803570367 -3.7631279296655493 -1.50733367057551 -0.12885887814821212
465 2.9441556691111836 -1.458591248279023 1.9363849367596901 -3.7626337472668805 -1.50594597341446 -0.12711591431427288
466 2.9433726759450036 -1.4589325000737647 1.9365360632715063 -3.762124377937792 -1.5045575540176799 -0.1253806677940935
467 2.942602809763111 -1.459273289881745 1.9366952073885921 -3.7616006412189047 -1.5031690584543294 -0.1236534786386959
468 2.941845345500735 -1.4596138178970979 1.9368585322519347 -3.761063139586401 -1.5017810773465514 -0.12193460581797551
469 2.941099623978893 -1.4599542244588637 1.937023341603102 -3.7605123226689994 -1.5003941510975438 -0.1202242500710429
470 2.9403650426384 -1.460294607790326 1.9371877443889547 -3.7599485325399917 -1.4990087743950238 -0.11852257009541212
471 2.939641048262778 -1.4606350365161338 1.9373504179851853 -3.7593720356568583 -1.4976254001456364 -0.11682969403156634
472 2.9389271311620444 -1.4609755584893531 1.937510441050551 -3.758783045380281 -1.4962444429535582 -0.1151457276239361
473 2.9382228204386833 -1.4613162070127363 1.9376671755383557 -3.7581817378467526 -1.4948662822268126 -0.11347076003300813
474 2.9375276800639134 -1.4616570052207534 1.937820183408724 -3.757568263152186 -1.4934912649737175 -0.1118048679865015
475 2.936841305568509 -1.461997969163908 1.9379691678354098 -3.756942753227629 -1.492119708336865 -0.11014811875517547
476 2.936163321206726 -1.4623391099777066 1.9381139317022558 -3.7563053273815767 -1.4907519019012123 -0.10850057229604404
477 2.935493377490516 -1.4626804354061662 1.938254348303504 -3.7556560961964753 -1.4893881098050403 -0.1068622828050284
478 2.9348311490187777 -1.4630219508703097 1.9383903406581364 -3.754995164264581 -1.4880285726767999 -0.10523329985000025
479 2.9341763325460692 -1.4633636602160178 1.9385218669044193 -3.754322632105498 -1.486673509416638 -0.10361366920501885
480 2.9335286452492597 -1.463705566236019 1.9386489099862116 -3.7536385975069315 -1.4853231188382137 -0.10200343347117694
481 2.93288782316073 -1.4640476710328747 1.9387714703687267 -3.752943156459079 -1.4839775811840161 -0.10040263254449766
482 2.932253619744001 -1.4643899762701027 1.9388895608927774 -3.752236403802888 -1.482637059525521 -0.09881130397369638
483 2.9316258045929713 -1.4647324833446862 1.9390032031386406 -3.7515184336770093 -1.48130170105808 -0.09722948323817523
484 2.9310041622397978 -1.465075193504405 1.9391124248556755 -3.7507893398232732 -1.4799716382992527 -0.095657203967828
485 2.9303884910593077 -1.4654181079265056 1.9392172581444056 -3.7500492157928877 -1.47864699019835 -0.09409449812002059
486 2.9297786022599572 -1.4657612277693508 1.9393177381699207 -3.749298155083115 -1.4773278631641658 -0.09254139612472129
487 2.9291743189529513 -1.4661045542052449 1.9394139022505201 -3.7485362512253952 -1.4760143520172047 -0.09099792700564598
488 2.9285754752923654 -1.4664480884402047 1.939505789211413 -3.7477635978397017 -1.4747065408721483 -0.08946411848308303
489 2.9279819156800753 -1.4667918317247333 1.9395934389257043 -3.7469802886655215 -1.4734045039557997 -0.08793999706250019
490 2.927393494030056 -1.4671357853584472 1.9396768919877647 -3.7461864175767903 -1.4721083063653144 -0.08642558811192672
491 2.9268100730872164 -1.4674799506905585 1.939756189480221 -3.74538207858592 -1.4708180047711308 -0.08492091593031338
492 2.9262315237964596 -1.4678243291176087 1.9398313728072056 -3.744567365840526 -1.4695336480686716 -0.08342600380850893
493 2.925657724718054 -1.468168922079436 1.9399024835745344 -3.74374237361538 -1.4682552779825675 -0.08194087408408664
494 2.92508856148579 -1.4685137310540508 1.9399695635031702 -3.7429071963013536 -1.4669829296268664 -0.08046554819096355
495 2.92452392630468 -1.4688587575518954 1.9400326543663233 -3.742061928392568 -1.4657166320244392 -0.07900004670454347
496 2.9239637174852535 -1.4692040031098064 1.9400917979433812 -3.7412066644726005 -1.4644564085885416 -0.07754438938296108
497 2.923407839011731 -1.4695494692849014 1.9401470359858435 -3.7403414992003268 -1.4632022775692815 -0.07609859520489103
498 2.9228562001415686 -1.4698951576485388 1.940198410191859 -3.739466527295784 -1.4619542524675326 -0.0746626824043013
499 2.9223087150340823 -1.4702410697804447 1.940245962186946 -3.738581843526319 -1.4607123424186532 -0.07323666850246695
500 2.921765302406014 -1.470587207263068 1.9402897335091882 -3.7376875426931844 -1.4594765525481934 -0.0718205703375113
501 2.9212258852120714 -1.4709335716762024 1.9403297655976914 -3.7367837196186917 -1.4582468843016145 -0.07041440409170438
502 2.920690390348627 -1.4712801645918934 1.9403660997834358 -3.7358704691339724 -1.4570233357499007 -0.0690181853167183
503 2.9201587483788924 -1.4716269875696366 1.9403987772819073 -3.734947886067381 -1.4558059018728025 -0.06763192895701553
504 2.9196308932779953 -1.4719740421518723 1.9404278391870697 -3.734016065233543 -1.4545945748213283 -0.06625564937152637
505 2.9191067621965296 -1.4723213298597644 1.940453326466357 -3.7330751014230423 -1.4533893441609813 -0.06488936035375548
506 2.9185862952412296 -1.4726688521892608 1.9404752799564609 -3.73212508939273 -1.452190197097131 -0.06353307515044382
507 2.918069435271524 -1.473016610607422 1.9404937403597433 -3.7311661238566325 -1.4509971186838087 -0.06218680647890017
508 2.9175561277108275 -1.4733646065490065 1.9405087482411558 -3.730198299477434 -1.4498100920171249 -0.060850566543106215
509 2.9170463203714894 -1.4737128414132994 1.9405203440255712 -3.729221710858501 -1.4486290984144143 -0.05952436704869017
510 2.916539963292424 -1.4740613165611742 1.9405285679954623 -3.728236452536422 -1.447454117580141 -0.058208219216855685
511 2.916037008588491 -1.474410033312373 1.9405334602888733 -3.7272426189740386 -1.446285127759517 -0.05690213379734561
512 2.9155374103107823 -1.474758992942993 1.9405350608976473 -3.726240304553927 -1.4451221058807227 -0.05560612108051374
513 2.9150411243170207 -1.475108196683168 1.9405334096658742 -3.7252296035723136 -1.4439650276865466 -0.05432019090857167
514 2.914548108151342 -1.4754576457149353 1.9405285462885367 -3.724210610233391 -1.4428138678562148 -0.05304435268607242
515 2.914058320932777 -1.4758073411702726 1.940520510310332 -3.723183418644012 -1.4416686001181098 -0.05177861538968802
516 2.9135717232518035 -1.4761572841292987 1.9405093411246506 -3.7221481228087323 -1.4405291973540424 -0.050522987577333166
517 2.913088277074387 -1.4765074756186272 1.9404950779727002 -3.721104816625187 -1.4393956316956806 -0.04927747739668342
518 2.912607945652962 -1.4768579166098632 1.9404777599427596 -3.720053593879767 -1.4382678746137068 -0.048042092593132454
519 2.9121306934438556 -1.4772086080182345 1.9404574259695524 -3.7189945482435878 -1.4371458970002213 -0.0468168405172294
520 2.9116564860306813 -1.47755955070135 1.9404341148337285 -3.7179277732687166 -1.4360296692448862 -0.04560172813163427
521 2.911185290053277 -1.4779107454580762 1.940407865161449 -3.7168533623846516 -1.4349191613052559 -0.044396762017626365
522 2.910717073141779 -1.4782621930275266 1.9403787154240586 -3.715771408895029 -1.4338143427717163 -0.04320194838119795
523 2.9102518038554597 -1.4786138940881532 1.940346703937848 -3.714682005974542 -1.4327151829274223 -0.04201729305876305
524 2.90978945162599 -1.47896584925694 1.9403118688638887 -3.71358524666606 -1.4316216508035917 -0.040842801522508784
525 2.9093299867047953 -1.4793180590886852 1.940274248207945 -3.712481223877927 -1.4305337152304944 -0.03967847888541476
526 2.9088733801142173 -1.4796705240753731 1.9402338798204455 -3.7113700303814294 -1.4294513448844441 -0.03852432990596389
527 2.908419603602199 -1.4800232446456252 1.9401908013965217 -3.710251758808426 -1.4283745083310848 -0.037380358992566386
528 2.907968629600239 -1.4803762211642288 1.9401450504760964 -3.7091265016491146 -1.427303174065236 -0.03624657020771691
529 2.9075204311843783 -1.4807294539317368 1.9400966644440265 -3.707994351249938 -1.4262373105475483 -0.035122967271903366
530 2.907074982038998 -1.4810829431841355 1.940045680530289 -3.706855399811607 -1.425176886238198 -0.0340095535672845
531 2.9066322564232228 -1.4814366890925739 1.939992135810214 -3.705709739387241 -1.4241218696278353 -0.03290633214115208
532 2.906192229139745 -1.481790691763155 1.939936067204752 -3.704557461880609 -1.4230722292659852 -0.031813305709192316
533 2.905754875505885 -1.4821449512367804 1.9398775114807791 -3.703398659044468 -1.4220279337870843 -0.03073047665855998
534 2.905320171326735 -1.4824994674890484 1.939816505251434 -3.702233422478984 -1.4209889519343242 -0.029657847050777775
535 2.9048880928702245 -1.4828542404302008 1.9397530849764824 -3.701061843630238 -1.4199552525814632 -0.02859541862447259
536 2.904458616843973 -1.4832092699051154 1.9396872869627095 -3.699884013788798 -1.4189268047527488 -0.02754319279795921
537 2.904031720373803 -1.4835645556933434 1.9396191473643352 -3.6987000240883616 -1.4179035776410915 -0.026501170671681593
538 2.9036073809837815 -1.4839200975091853 1.9395487021834508 -3.6975099655044548 -1.4168855406246166 -0.025469353030520756
539 2.9031855765776866 -1.4842758950018058 1.9394759872704739 -3.6963139288531845 -1.415872663281707 -0.024447740345977877
540 2.9027662854217957 -1.4846319477553858 1.9394010383246207 -3.695112004790041 -1.4148649154046522 -0.023436332778240487
541 2.9023494861288928 -1.4849882552893057 1.939323890894393 -3.6939042838087426 -1.4138622670120033 -0.022435130178139112
542 2.901935157643408 -1.4853448170583616 1.939244580378077 -3.6926908562401177 -1.412864688359724 -0.02144413208900109
543 2.9015232792276096 -1.4857016324530117 1.9391631420242543 -3.691471812251023 -1.4118721499512294 -0.02046333774840798
544 2.9011138304487667 -1.4860587007996486 1.9390796109323225 -3.6902472418432892 -1.4108846225463936 -0.019492746089862366
545 2.9007067911672135 -1.4864160213609003 1.938994022053023 -3.689017234852697 -1.4099020771695967 -0.01853235574436951
546 2.9003021415252492 -1.4867735933359527 1.9389064101889761 -3.6877818809479708 -1.4089244851168865 -0.01758216504193897
547 2.8998998619368113 -1.4871314158608977 1.9388168099952199 -3.686541269629795 -1.407951817962317 -0.01664217201301088
548 2.899499933077864 -1.487489488009101 1.9387252559797554 -3.6852954902298456 -1.4069840475635218 -0.015712374389811296
549 2.899102335877454 -1.4878478087915916 1.9386317825040933 -3.6840446319098366 -1.4060211460665837 -0.014792769607640706
550 2.898707051509376 -1.4882063771574692 1.938536423783802 -3.6827887836605755 -1.4050630859102453 -0.01388335480609955
551 2.8983140613844096 -1.4885651919943292 1.9384392138890585 -3.6815280343010293 -1.4041098398295146 -0.012984126830254307
552 2.8979233471430854 -1.4889242521287058 1.9383401867451957 -3.6802624724773936 -1.4031613808587071 -0.012095082231747515
553 2.8975348906489353 -1.489283556326529 1.9382393761332533 -3.6789921866621693 -1.4022176823339652 -0.01121621726985481
554 2.8971486739821968 -1.4896431032935964 1.9381368156905225 -3.6777172651532393 -1.4012787178952963 -0.010347527912491989
555 2.8967646794339323 -1.4900028916760608 1.9380325389110915 -3.676437796072946 -1.4003444614881633 -0.009489009837174756
556 2.89638288950054 -1.4903629200609265 1.9379265791463853 -3.675153867367169 -1.399414887364658 -0.008640658431933781
557 2.896003286878617 -1.4907231869765618 1.9378189696057042 -3.673865566804395 -1.3984899700842937 -0.007802468796187495
558 2.895625854460159 -1.49108369089322 1.9377097433567552 -3.6725729819747923 -1.397569684514441 -0.0069744357415749214
559 2.89525057532806 -1.4914444302235705 1.9375989333261798 -3.6712762002892703 -1.3966540058304358 -0.006156553792750599
560 2.894877432751901 -1.4918054033232424 1.937486572300077 -3.6699753089785374 -1.3957429095153813 -0.005348817188143735
561 2.894506410183996 -1.4921666084913732 1.937372692924518 -3.6686703950921524 -1.3948363713596708 -0.004551219880683472
562 2.8941374912556808 -1.4925280439711692 1.9372573277060574 -3.6673615454975614 -1.3939343674602467 -0.003763755538492038
563 2.8937706597738284 -1.4928897079504715 1.937140509012234 -3.6660488468791312 -1.3930368742196229 -0.0029864175455475385
564 2.8934058997175662 -1.4932515985623294 1.9370222690720682 -3.664732385737168 -1.3921438683446812 -0.002219199002317991
565 2.8930431952351876 -1.4936137138855825 1.936902639976548 -3.6634122483869263 -1.3912553268452637 -0.0014620927263681955
566 2.892682530641236 -1.4939760519454457 1.9367816536791107 -3.6620885209576053 -1.3903712270325752 -0.0007150912529408379
567 2.8923238904137554 -1.4943386107141021 1.9366593419961131 -3.660761289391334 -1.3894915465174091 2.181316448669529e-05
568 2.891967259191687 -1.4947013881113005 1.936535736607296 -3.6594306394421423 -1.3886162632082133 0.0007486285536685124
569 2.8916126217724076 -1.4950643820049563 1.9364108690562374 -3.6580966566749162 -1.3877453553090047 0.0014653632230781258
570 2.891259963109394 -1.4954275902117595 1.9362847707507989 -3.6567594264643444 -1.3868788013171485 0.002172025761416823
571 2.890909268310002 -1.4957910104977836 1.936157472963562 -3.6554190339938435 -1.3860165800210087 0.0028686250371413786
572 2.8905605226333595 -1.4961546405790995 1.9360290068322545 -3.6540755642544758 -1.3851586704974825 0.0035551701980099538
573 2.8902137114883546 -1.4965184781223924 1.9358994033601689 -3.6527291020438444 -1.384305052109428 0.004231670670645114
574 2.8898688204317184 -1.496882520745581 1.9357686934165685 -3.6513797319649797 -1.383455704502993 0.004898136160112885
575 2.8895258351661885 -1.4972467660184403 1.9356369077370872 -3.6500275384252063 -1.3826106076048525 0.005554576649516929
576 2.8891847415387546 -1.497611211463224 1.9355040769241163 -3.648672605634995 -1.381769741619365 0.006201002399606825
577 2.8888455255389727 -1.4979758545552921 1.935370231447183 -3.6473150176068008 -1.3809330870256495 0.006837423948399454
578 2.8885081732973443 -1.498340692723737 1.9352354016433175 -3.645954858153882 -1.3801006245745964 0.007463852110812748
579 2.888172671083759 -1.498705723352012 1.935099617717412 -3.644592210889105 -1.379272335285813 0.008080297978310785
580 2.887839005305988 -1.4990709437785619 1.9349629097425667 -3.643227159223735 -1.3784482004445109 0.00868677291855943
581 2.8875071625082307 -1.4994363512974516 1.934825307660427 -3.641859786366206 -1.3776282015983417 0.009283288575091723
582 2.8871771293697077 -1.4998019431589977 1.9346868412815104 -3.640490175320879 -1.3768123205541838 0.009869856866982196
583 2.886848892703294 -1.500167716570399 1.9345475402855232 -3.6391184088867803 -1.3760005393748862 0.010446489988529333
584 2.8865224394541937 -1.5005336686963675 1.934407434221665 -3.6377445696563306 -1.3751928403759737 0.011013200408945416
585 2.886197756698647 -1.500899796659758 1.9342665525089255 -3.6363687400140496 -1.3743892061223155 0.01157000087205309
586 2.8858748316426728 -1.5012660975421994 1.934124924436368 -3.6349910021352514 -1.3735896194247637 0.012116904395987785
587 2.885553651620836 -1.501632568384723 1.933982579163405 -3.6336114379847215 -1.372794063336762 0.012653924272905468
588 2.885234204095049 -1.501999206188391 1.933839545720061 -3.6322301293153787 -1.3720025211509308 0.013181074068694898
589 2.884916476653386 -1.502366007914924 1.9336958530072275 -3.630847157666923 -1.3712149763956298 0.01369836762269382
590 2.8846004570089323 -1.502732970487328 1.9335515297969041 -3.629462604364465 -1.3704314128315005 0.014205819047408355
591 2.884286132998644 -1.5031000907905179 1.9334066047324345 -3.628076550517146 -1.3696518144479926 0.01470344272823505
592 2.8839734925822285 -1.5034673656719413 1.9332611063287255 -3.6266890770167377 -1.3688761654598758 0.015191253323184878
593 2.8836625238410436 -1.5038347919421993 1.9331150629724614 -3.62530026453623 -1.3681044503037405 0.01566926576260863
594 2.8833532149770087 -1.5042023663756663 1.9329685029223054 -3.6239101935284053 -1.3673366536344858 0.016137495248923057
595 2.8830455543115288 -1.504570085711107 1.932821454309091 -3.622518944224396 -1.3665727603218023 0.016595957256337245
596 2.8827395302844323 -1.5049379466522925 1.9326739451360049 -3.6211265966322324 -1.3658127554466482 0.01704466753057858
597 2.8824351314529184 -1.5053059458686113 1.9325260032787577 -3.6197332305353727 -1.365056624297718 0.01748364208861778
598 2.8821323464905126 -1.5056740799956811 1.9323776564857458 -3.6183389254912215 -1.3643043523679126 0.017912897218392444
599 2.881831164186034 -1.506042345635956 1.9322289323782031 -3.616943760829637 -1.3635559253508054 0.018332449478528568
600 2.881531573442566 -1.5064107393593305 1.932079858450344 -3.6155478156514222 -1.3628113291371082 0.018742315698059522
601 2.881233563276435 -1.5067792577037424 1.9319304620694948 -3.614151168826807 -1.3620705498111403 0.01914251297614191
602 2.880937122816196 -1.5071478971757715 1.9317807704762162 -3.6127538989939145 -1.3613335736472985 0.019533058681767912
603 2.880642241301623 -1.507516654251235 1.9316308107844178 -3.61135608455722 -1.3606003871065322 0.0199139704534735
604 2.8803489080827003 -1.5078855253757808 1.93148060998146 -3.609957803685994 -1.3598709768328225 0.020285266199042133
605 2.8800571126186227 -1.5082545069654756 1.9313301949282506 -3.6085591343127366 -1.3591453296496678 0.02064696409520338
606 2.8797668444767957 -1.5086235954073914 1.9311795923593282 -3.6071601541316007 -1.3584234325565758 0.020999082587326082
607 2.8794780933318385 -1.5089927870601878 1.931028828882938 -3.6057609405968054 -1.3577052727255652 0.02134164038910549
608 2.8791908489645897 -1.5093620782546902 1.9308779309811008 -3.604361570921036 -1.3569908374976738 0.021674656482244065
609 2.878905101261115 -1.5097314652944647 1.9307269250096697 -3.602962122073837 -1.3562801143794774 0.02199815011612541
610 2.8786208402117164 -1.5101009444563889 1.9305758371983797 -3.6015626707799964 -1.3555730910396202 0.022312140807480868
611 2.8783380559099427 -1.5104705119912194 1.9304246936508886 -3.6001632935179173 -1.354869755305355 0.02261664834004853
612 2.878056738551599 -1.5108401641241542 1.930273520344809 -3.598764066517984 -1.3541700951590954 0.022911692764224067
613 2.8777768784337603 -1.511209897055392 1.9301223431317318 -3.597365065760916 -1.3534740987349816 0.023197294396703077
614 2.877498465953783 -1.5115797069606873 1.929971187737242 -3.59596636697612 -1.3527817543154594 0.023473473820114527
615 2.877221491608315 -1.5119495899919009 1.9298200797609255 -3.594568045640025 -1.352093050327872 0.023740251882644954
616 2.8769459459923117 -1.5123195422775453 1.929669044676369 -3.5931701769744184 -1.3514079753410682 0.023997649697652987
617 2.876671819798046 -1.5126895599233277 1.9295181078311505 -3.591772835944771 -1.3507265180620238 0.024245688643273842
618 2.8763991038141197 -1.513059639012687 1.929367294446823 -3.5903760972585554 -1.3500486673324805 0.024484390362013473
619 2.876127788924477 -1.513429775607327 1.9292166296188906 -3.588980035363558 -1.3493744121256002 0.024713776760332012
620 2.8758578661074155 -1.5137999657477446 1.929066138316777 -3.5875847244461867 -1.3487037415426357 0.024933870008216123
621 2.875589326434595 -1.5141702054537538 1.928915845383786 -3.5861902384297695 -1.3480366448096197 0.025144692538740018
622 2.8753221610700517 -1.5145404907250049 1.928765775537055 -3.584796650972852 -1.3473731112740706 0.025346267047614727
623 2.875056361269204 -1.5149108175414987 1.9286159533675027 -3.583404035467486 -1.346713130401717 0.02553861649272542
624 2.8747919183778654 -1.5152811818640968 1.928466403339767 -3.5820124650375167 -1.346056691773241 0.025721764093656358
625 2.8745288238312505 -1.5156515796350258 1.9283171497921392 -3.580622012536862 -1.34540378508104 0.025895733331203284
626 2.8742670691529866 -1.5160220067783778 1.9281682169364904 -3.579232750547794 -1.3447544001260083 0.02606054794687292
627 2.8740066459541183 -1.5163924592006057 1.9280196288581897 -3.577844751379209 -1.3441085268143391 0.02621623194236929
628 2.8737475459321162 -1.5167629327910135 1.927871409516018 -3.5764580870649 -1.3434661551543468 0.026362809579066667
629 2.873489760869886 -1.5171334234222413 1.927723582742076 -3.575072829361825 -1.3428272752533084 0.026500305377468777
630 2.873233282634772 -1.517503926950746 1.9275761722416829 -3.5736890497483724 -1.3421918773143293 0.026628744116654147
631 2.8729781031775654 -1.5178744392172763 1.9274292015932735 -3.5723068194226246 -1.3415599516332266 0.026748150833707234
632 2.8727242145315106 -1.5182449560473439 1.9272826942482857 -3.570926209300618 -1.340931488595437 0.026858550823135187
633 2.872471608811311 -1.5186154732516874 1.927136673531045 -3.5695472900146066 -1.3403064786729464 0.02695996963627001
634 2.872220278212134 -1.518985986626734 1.9269911626386407 -3.5681701319113177 -1.339684912421241 0.027052433080655865
635 2.8719702150086186 -1.519356491955053 1.926846184640801 -3.566794805050212 -1.3390667804762826 0.02713596721942141
636 2.8717214115538803 -1.5197269850058077 1.926701762479757 -3.5654213792017435 -1.3384520735515053 0.027210598370636826
637 2.8714738602785177 -1.5200974615351985 1.9265579189701083 -3.564049923845613 -1.3378407824348382 0.027276353106655566
638 2.871227553689621 -1.5204679172869036 1.926414676798677 -3.5626805081690316 -1.3372328979857493 0.0273332582534404
639 2.870982484369776 -1.5208383479925132 1.9262720585243618 -3.561313201064977 -1.3366284111323155 0.027381340889873793
640 2.870738644976074 -1.521208749371959 1.9261300865779862 -3.559948071130452 -1.336027312868316 0.02742062834705239
641 2.8704960282391196 -1.5215791171339386 1.92598878326214 -3.5585851866647507 -1.3354295942503502 0.02745114820756533
642 2.8702546269620384 -1.5219494469763344 1.9258481707510204 -3.5572246156677174 -1.334835246394982 0.027472928304756544
643 2.8700144340194886 -1.5223197345866275 1.9257082710902638 -3.5558664258380137 -1.3342442604759073 0.02748599672197056
644 2.86977544235667 -1.5226899756423067 1.9255691061967795 -3.5545106845713845 -1.3336566277211488 0.027490381791781985
645 2.8695376449883385 -1.5230601658112715 1.925430697858574 -3.5531574589589296 -1.3330723394102761 0.02748611209520832
646 2.869301034997816 -1.5234303007522312 1.925293067734575 -3.551806815785377 -1.3324913868716517 0.02747321646090618
647 2.869065605536007 -1.5238003761150976 1.9251562373544504 -3.5504588215273563 -1.3319137614797028 0.027451723964350708
648 2.868831349820415 -1.5241703875413735 1.9250202281184239 -3.549113542351682 -1.3313394546522213 0.027421663926998116
649 2.8685982611341583 -1.5245403306645353 1.924885061297087 -3.547771044113635 -1.3307684578476886 0.02738306591543132
650 2.8683663328249906 -1.5249102011104116 1.9247507580312084 -3.5464313923552533 -1.33020076256263 0.027335959740488525
651 2.868135558304321 -1.5252799944975546 1.9246173393315413 -3.545094652303623 -1.329636360328994 0.02728037545637478
652 2.867905931046238 -1.525649706437609 1.9244848260786238 -3.5437608888691754 -1.3290752427115606 0.027216343359756336
653 2.8676774445865343 -1.5260193325356743 1.9243532390225815 -3.542430166643991 -1.3285174013053767 0.027143893988837868
654 2.867450092521735 -1.5263888683906615 1.924222598782924 -3.5411025499001068 -1.3279628277332203 0.027063058122422434
655 2.8672238685081264 -1.5267583095956465 1.9240929258483406 -3.539778102587831 -1.3274115136430926 0.026973866778954213
656 2.866998766260789 -1.5271276517382173 1.9239642405764925 -3.5384568883340624 -1.3268634507057377 0.02687635121554394
657 2.866774779552633 -1.527496890400816 1.9238365631938037 -3.537138970440616 -1.3263186306121926 0.02677054292697703
658 2.866551902213434 -1.5278660211610768 1.9237099137952482 -3.5358244118825572 -1.3257770450713648 0.02665647364470443
659 2.866330128128876 -1.5282350395921585 1.923584312344138 -3.534513275306542 -1.3252386858076397 0.02653417533581611
660 2.866109451239594 -1.5286039412630719 1.923459778671906 -3.533205623029162 -1.3247035445585165 0.0264036802019973
661 2.8658898655402205 -1.5289727217390023 1.9233363324778894 -3.5319015170353003 -1.3241716130722745 0.026265020678467418
662 2.865671365078437 -1.5293413765816284 1.9232139933291104 -3.5306010189764927 -1.3236428831056686 0.026118229432901714
663 2.8654539439540256 -1.5297099013494342 1.9230927806600564 -3.5293041901692983 -1.323117346421654 0.025963339364335692
664 2.8652375963179275 -1.5300782915980176 1.922972713772457 -3.5280110915936786 -1.322594994787142 0.0258003836020523
665 2.865022316371303 -1.5304465428803948 1.9228538118350627 -3.5267217838913822 -1.3220758199707865 0.025629395504452
666 2.864808098364597 -1.5308146507472982 1.922736093883419 -3.5254363273643428 -1.3215598137407971 0.025450408657905686
667 2.864594936596606 -1.5311826107474702 1.922619578819643 -3.524154781973082 -1.3210469678627885 0.025263456875590562
668 2.864382825413552 -1.5315504184279538 1.9225042854121948 -3.5228772073351236 -1.3205372740976558 0.025068574196309007
669 2.8641717592081593 -1.531918069334377 1.9223902322956536 -3.521603662723417 -1.3200307241994815 0.02486579488329056
670 2.863961732418734 -1.532285559011233 1.9222774379704883 -3.520334207064769 -1.3195273099134763 0.024655153422976993
671 2.86375273952825 -1.5326528830021557 1.9221659208028306 -3.5190688989382903 -1.3190270229739471 0.024436684523790685
672 2.863544775063441 -1.533020036850192 1.9220556990242454 -3.5178077965738432 -1.3185298551022986 0.024210423114886265
673 2.863337833593892 -1.533387016098068 1.921946790731504 -3.5165509578505096 -1.3180357980050654 0.023976404344885714
674 2.8631319097311407 -1.5337538162884516 1.9218392138863536 -3.515298440295062 -1.3175448433719759 0.023734663580596966
675 2.862926998127781 -1.5341204329642109 1.921732986315288 -3.5140503010804514 -1.317056982874047 0.023485236405716144
676 2.8627230934765735 -1.5344868616686678 1.9216281257093215 -3.5128065970243 -1.316572208161712 0.02322815861951356
677 2.8625201905095583 -1.5348530979458477 1.9215246496237557 -3.511567384587411 -1.3160905108629775 0.02296346623550355
678 2.8623182839971757 -1.5352191373407251 1.9214225754779546 -3.510332719872285 -1.3156118825816157 0.022691195480098292
679 2.8621173687473913 -1.535584975399465 1.9213219205551144 -3.509102658621652 -1.3151363148953865 0.02241138279124578
680 2.8619174396048273 -1.5359506076696594 1.921222702002037 -3.5078772562170126 -1.3146637993542905 0.02212406481705203
681 2.861718491449897 -1.5363160297005614 1.9211249368289005 -3.5066565676771937 -1.3141943274788581 0.02182927841438766
682 2.8615205191979483 -1.536681237043313 1.9210286419090346 -3.5054406476569118 -1.3137278907584657 0.021527060647479068
683 2.86132351779841 -1.5370462252511716 1.9209338339786934 -3.5042295504453542 -1.3132644806496887 0.02121744878648425
684 2.8611274822339468 -1.537410989879731 1.9208405296368314 -3.5030233299647695 -1.312804088574684 0.0209004803060535
685 2.8609324075196176 -1.5377755264871378 1.9207487453448775 -3.501822039769072 -1.3123467059196052 0.020576192883875116
686 2.8607382887020423 -1.538139830634306 1.9206584974265133 -3.500625733042457 -1.3118923240330524 0.020244624399206265
687 2.8605451208585735 -1.5385038978851262 1.9205698020674495 -3.499434462598033 -1.3114409342245505 0.019905812931389225
688 2.8603528990964744 -1.5388677238066728 1.9204826753152058 -3.4982482808764646 -1.310992527763064 0.01955979675835314
689 2.8601616185521035 -1.5392313039694054 1.9203971330788905 -3.497067239944627 -1.3105470958755423 0.019206614355101473
690 2.8599712743901065 -1.5395946339473683 1.920313191128983 -3.495891391494278 -1.3101046297454966 0.018846304392185344
691 2.859781861802614 -1.5399577093183856 1.920230865097115 -3.4947207868407415 -1.3096651205116125 0.018478905734162943
692 2.8595933760084455 -1.540320525664254 1.9201501704758557 -3.4935554769216046 -1.3092285592663921 0.018104457438045195
693 2.859405812252321 -1.5406830785709298 1.9200711226184985 -3.4923955122954293 -1.3087949370548297 0.017722998751727927
694 2.8592191658040806 -1.5410453636287156 1.9199937367388473 -3.4912409431404785 -1.308364244873121 0.017334569112410627
695 2.8590334319579074 -1.5414073764324412 1.9199180279110064 -3.4900918192534554 -1.3079364736674033 0.01693920814500211
696 2.858848606031562 -1.5417691125816424 1.9198440110691715 -3.4889481900482577 -1.3075116143325298 0.01653695566051323
697 2.8586646833656206 -1.5421305676807366 1.9197717010074224 -3.487810104554747 -1.307089657710876 0.016127851654436864
698 2.8584816593227225 -1.5424917373391949 1.919701112379518 -3.4866776114175306 -1.3066705945911765 0.015711936305115387
699 2.8582995292868234 -1.542852617171711 1.9196322596986928 -3.4855507588947603 -1.3062544157073988 0.015289249972095822
700 2.8581182886624585 -1.5432132027983674 1.9195651573374564 -3.484429594856945 -1.3058411117376443 0.014859833194472937
701 2.85793793287401 -1.5435734898447995 1.9194998195273936 -3.483314166785779 -1.3054306733030867 0.014423726689220442
702 2.8577584573649846 -1.5439334739423543 1.9194362603589676 -3.482204521772982 -1.3050230909669387 0.013980971349510572
703 2.857579857597296 -1.5442931507282485 1.9193744937813257 -3.4811007065191606 -1.3046183552334532 0.013531608243022226
704 2.85740212905056 -1.544652515845723 1.919314533602107 -3.480002767332678 -1.3042164565469558 0.013075678610237933
705 2.85722526722139 -1.545011564944195 1.9192563934872513 -3.478910750128544 -1.303817385290912 0.012613223862729842
706 2.857049267622709 -1.545370293679406 1.919200086960813 -3.477824700427317 -1.303421131787022 0.012144285581434973
707 2.856874125783061 -1.5457286977135698 1.9191456274047745 -3.4767446633540238 -1.3030276862943502 0.011668905514919975
708 2.8566998372459387 -1.546086772715515 1.9190930280588645 -3.475670683637094 -1.3026370390084885 0.01118712557763562
709 2.8565263975691106 -1.5464445143608263 1.9190423020203768 -3.474602805607311 -1.3022491800607472 0.010698987848161255
710 2.8563538023239636 -1.5468019183319845 1.9189934622439937 -3.4735410731967757 -1.301864099517381 0.01020453456743947
711 2.8561820470948516 -1.5471589803185017 1.91894652154161 -3.472485529937889 -1.3014817873788453 0.0097038081370012
712 2.856011127478448 -1.5475156960170557 1.9189014925821615 -3.4714362189623493 -1.3011022335790847 0.009196851117181522
713 2.855841039083113 -1.5478720611316221 1.9188583878914551 -3.4703931830001657 -1.3007254279848515 0.008683706225326375
714 2.8556717775282663 -1.5482280713736027 1.9188172198520026 -3.469356464378686 -1.3003513603950576 0.008164416333990442
715 2.855503338443768 -1.5485837224619536 1.9187780007028556 -3.4683261050216427 -1.2999800205401568 0.007639024469126429
716 2.8553357174693064 -1.5489390101233098 1.9187407425394454 -3.467302146448213 -1.2996113980815573 0.00710757380826604
717 2.855168910253799 -1.5492939300921078 1.9187054573134241 -3.4662846297720966 -1.2992454826110662 0.006570107678692786
718 2.8550029124547973 -1.5496484781107074 1.9186721568325094 -3.4652735957006082 -1.2988822636503645 0.006026669555606969
719 2.854837719737904 -1.5500026499295092 1.9186408527603325 -3.464269084533788 -1.2985217306505126 0.005477303060283063
720 2.854673327776194 -1.5503564413070727 1.918611556616289 -3.4632711361635247 -1.2981638729914864 0.004922051958219694
721 2.8545097322496518 -1.5507098480102308 1.9185842797753914 -3.4622797900726994 -1.2978086799817445 0.004360960157282503
722 2.854346928844607 -1.551062865814202 1.9185590334681262 -3.461295085334342 -1.2974561408578247 0.0037940717058401233
723 2.85418491325319 -1.5514154905027036 1.918535828780315 -3.4603170606108065 -1.29710624478397 0.0032214307908935394
724 2.854023681172789 -1.551767717868059 1.9185146766529753 -3.4593457541529604 -1.2967589808517863 0.002643081736199022
725 2.8538632283055168 -1.552119543711307 1.9184955878821879 -3.4583812037993926 -1.2964143380799285 0.0020590690003849466
726 2.8537035503576886 -1.552470963842307 1.9184785731189657 -3.457423446975634 -1.2960723054138164 0.0014694371750626708
727 2.853544643039309 -1.5528219740798452 1.9184636428691257 -3.4564725206934 -1.29573287172538 0.0008742309829317594
728 2.853386502063566 -1.5531725702517354 1.9184508074931648 -3.4555284615498434 -1.2953960258128336 0.0002734952758798077
729 2.8532291231463325 -1.5535227481949214 1.9184400772061392 -3.454591305726828 -1.2950617564004803 -0.00033272496692295366
730 2.853072502005683 -1.5538725037555772 1.9184314620775456 -3.453661088990217 -1.2947300521385428 -0.000944384640933967
731 2.852916634361412 -1.5542218327892046 1.9184249720312065 -3.4527378466891765 -1.294400901603025 -0.0015614385181533731
732 2.8527615159345667 -1.5545707311607309 1.91842061684516 -3.451821613755499 -1.2940742932956009 -0.0021838412490434974
733 2.8526071424469874 -1.5549191947446053 1.9184184061515503 -3.4509124247029392 -1.2937502156435325 -0.002811547364452582
734 2.852453509620855 -1.5552672194248918 1.918418349436524 -3.4500103136265685 -1.2934286569996136 -0.0034445112775424625
735 2.8523006131782496 -1.5556148010953637 1.918420456040128 -3.4491153142021447 -1.2931096056421443 -0.004082687285720055
736 2.8521484488407185 -1.5559619356595948 1.918424735156212 -3.4482274596854996 -1.2927930497749305 -0.0047260295725723555
737 2.851997012328853 -1.5563086190310509 1.9184311958323346 -3.447346782911941 -1.2924789775273124 -0.00537449220980472
738 2.8521762354874713 -1.5562114346961824 1.9190215362389837 -3.446325248083144 -1.2920465106729664 -0.006028029159182247
739 2.852336709780454 -1.5561278679512982 1.919295011489527 -3.4453506498658704 -1.2916354849531753 -0.006697827306068712
740 2.852481054304665 -1.5560533547775062 1.9193533585208684 -3.4444100940322153 -1.2912436889019883 -0.007380189215621427
741 2.8526113015649766 -1.5559848190332997 1.91926583717921 -3.443494832415249 -1.2908693368983946 -0.008072593689104844
742 2.852729070474351 -1.5559201871253956 1.919079626484732 -3.4425989399954853 -1.2905109524268767 -0.008773317935504088
743 2.852835682909996 -1.5558580631208636 1.9188268794255645 -3.441718413643282 -1.2901672877606098 -0.009481181330939767
744 2.852932243236216 -1.5557975099295374 1.9185295178224253 -3.4408505580362685 -1.2898372681323043 -0.010195371442105276
745 2.8530196931548204 -1.5557379013444779 1.9182024945511014 -3.43999356724994 -1.2895199525216259 -0.01091532582065938
746 2.8527622802494053 -1.5561312727969958 1.9172633617531396 -3.4392970150984272 -1.289337098976644 -0.01164065165859921
747 2.852518265881099 -1.5565092600647223 1.916638965926615 -3.438568295943156 -1.2891455804610965 -0.012359719224590159
748 2.852285269446372 -1.556876665326772 1.9162289509034027 -3.4378203849913866 -1.2889471447074052 -0.013076041211158237
749 2.8520615357234695 -1.557236766129197 1.9159651371301973 -3.4370620805833063 -1.2887431104622362 -0.013791983122250355
750 2.851845751396225 -1.5575917910646664 1.9158012458356648 -3.4362993454508266 -1.2885344919737396 -0.014509130845019896
751 2.8516369152175676 -1.5579432508390263 1.915705883007076 -3.435536218860224 -1.2883220861830347 -0.015228541115182317
752 2.8514342471282896 -1.5582921666692053 1.915657760750756 -3.434775436194091 -1.2881065335103445 -0.015950911859273338
753 2.8512371250426507 -1.55863922690141 1.9156424479926284 -3.434018849445856 -1.2878883601665474 -0.016676697889197668
754 2.851045040998855 -1.5589848939627906 1.9156501636233787 -3.433267712416034 -1.2876680076402727 -0.017406189404899474
755 2.8508575707369355 -1.5593294771873463 1.9156742788490342 -3.432522874048097 -1.2874458533257749 -0.018139565223065198
756 2.85067435253323 -1.5596731823052739 1.9157103014018195 -3.4317849094384814 -1.287222225046352 -0.018876928848804105
757 2.8504950723956344 -1.5600161450254286 1.915755186847521 -3.4310542085805094 -1.2869974113743745 -0.019618332909173385
758 2.8503194536242566 -1.5603584537992203 1.9158068717918244 -3.430331036456486 -1.2867716690542226 -0.02036379569651594
759 2.8501472493692255 -1.5607001652379209 1.9158639575531784 -3.4296155737127227 -1.2865452284234469 -0.021113312364818074
760 2.8499782372502227 -1.561041314546515 1.9159254958319907 -3.428907944179103 -1.2863182974449787 -0.021866862503771824
761 2.8498122153992465 -1.5613819225797492 1.9159908435034774 -3.4282082334776027 -1.2860910647697565 -0.022624415259633435
762 2.849648999491041 -1.561722000610072 1.9160595642478537 -3.427516501596143 -1.2858637021169315 -0.02338593279509527
763 2.8494884204639375 -1.5620615535463669 1.9161313619126559 -3.426832791376711 -1.2856363661686083 -0.024151372624865868
764 2.8496593689093017 -1.561959005757523 1.9167885781771952 -3.426010188669644 -1.2852895467266645 -0.024920689190468394
765 2.8498132107119054 -1.561870078436134 1.9171286086776704 -3.425235392066436 -1.2849621666950535 -0.025704925519516843
766 2.8499524489309054 -1.5617901880440253 1.91725391897171 -3.424495414185576 -1.2846520641290253 -0.026500418263828533
767 2.8500790024606815 -1.5617162513960845 1.9172340861826394 -3.423781459471054 -1.2843575228421922 -0.02730467414678461
768 2.850194381492574 -1.5616461937434032 1.9171163848535142 -3.423087579284642 -1.2840771460072657 -0.028115992107766413
769 2.850299805246031 -1.5615786203399349 1.916932951350901 -3.422409758236905 -1.2838097697672397 -0.028933207749031953
770 2.850396281926674 -1.5615125958089842 1.9167056405064384 -3.421745293330288 -1.2835544036304765 -0.029755520280458483
771 2.8504846635938317 -1.5614474953359678 1.9164493213512577 -3.4210923720405244 -1.2833101889588836 -0.03058237523618016
772 2.850565684185583 -1.561382904050842 1.9161741151376508 -3.4204497856034752 -1.2830763697594643 -0.0314133849515603
773 2.850639986150133 -1.5613185488903631 1.9158869157518845 -3.4198167342075894 -1.2828522718874984 -0.03224827463094522
774 2.850372341087767 -1.5617050681150935 1.9149987067455971 -3.419342396838588 -1.2827587013728885 -0.03308684576964097
775 2.8501200459385427 -1.5620757777946763 1.914434673469974 -3.418835642720877 -1.2826537222503698 -0.03391773541446232
776 2.849880515176028 -1.5624356200994565 1.9140909746950132 -3.418309837627041 -1.2825393489240222 -0.03474450465932565
777 2.8496518225220164 -1.5627879590234588 1.9138972330980972 -3.4177740153966214 -1.2824171149421442 -0.035569545090035216
778 2.8494325084665415 -1.5631350753887745 1.913805791496089 -3.417234276345254 -1.2822882119157317 -0.03639445524220326
779 2.8492214442108983 -1.5634785106037195 1.9137843958036587 -3.41669473598446 -1.2821535866661118 -0.0372202966225381
780 2.8490177365246248 -1.56381930324284 1.9138112240667802 -3.416158167855784 -1.2820140088697212 -0.03804776746428838
781 2.8488206616037464 -1.5641581508636466 1.9138715150066805 -3.4156264387124042 -1.2818701181131038 -0.03887732048102129
782 2.8486296191854397 -1.5644955202205428 1.9139552840027414 -3.415100802932307 -1.281722456690156 -0.039709242586351334
783 2.8484441006795893 -1.5648317221144152 1.9140557769666164 -3.414582101597729 -1.2815714925722343 -0.040543708823715566
784 2.8482636669454444 -1.5651669621225228 1.9141684242701504 -3.4140708970555944 -1.2814176356200788 -0.041380818827981204
785 2.848087932685967 -1.565501374931315 1.9142901332508917 -3.4135675638349747 -1.2812612491493474 -0.04222062146467044
786 2.847916555379178 -1.5658350475468308 1.9144188098246124 -3.4130723500535987 -1.281102658296893 -0.043063131472359684
787 2.8477492273232734 -1.5661680349720437 1.9145530350649067 -3.412585418874952 -1.280942156177072 -0.04390834069820949
788 2.847913837634182 -1.5660603784541587 1.9152746040477118 -3.4119608072004035 -1.2806612729489528 -0.044756225679003794
789 2.848062545627995 -1.565966287201577 1.9156798212786323 -3.411384371330551 -1.2803982631775008 -0.045617752005415166
790 2.8481977622799826 -1.5658811806486743 1.9158713024233356 -3.4108431050144863 -1.2801509944064664 -0.046489296305757426
791 2.8483213182632414 -1.565801981796587 1.9159186026126789 -3.4103282099285193 -1.2799177971050957 -0.047368395350969254
792 2.8484346405302534 -1.5657266225006146 1.9158688981186531 -3.409833740422326 -1.2796973303044799 -0.048253370056955874
793 2.848538870456201 -1.5656537137673896 1.9157542022147185 -3.4093556846477138 -1.2794884901744596 -0.04914307168287409
794 2.848634943817009 -1.5655823246665241 1.915596247770642 -3.408891341353941 -1.2792903472666766 -0.05003671027513537
795 2.8487236454686067 -1.5655118334816776 1.9154097946407993 -3.408438897149721 -1.279102103064556 -0.05093373860108474
796 2.848805647082259 -1.5654418272408883 1.9152048716220338 -3.4079971397420437 -1.2789230596199646 -0.05183377358125636
797 2.8488815334458217 -1.565372033795468 1.9149882968851948 -3.407565263429847 -1.2787525981057652 -0.05273654308963495
798 2.848951821002875 -1.5653022758630302 1.9147647093813944 -3.4071427371957195 -1.2785901634710526 -0.05364184992762062
799 2.8490169710946107 -1.565232439921266 1.9145372686324706 -3.4067292152733133 -1.2784352532935914 -0.05454954742944556
800 2.8487425775541726 -1.5656116118495125 1.913714387174041 -3.4064733009118315 -1.2784079116133933 -0.05545952294739464
801 2.8484848048849942 -1.5659747779698092 1.913219770952459 -3.406184971654445 -1.278367096622287 -0.05636055268798911
802 2.848240939952167 -1.5663269391061454 1.912947946867297 -3.405877753800031 -1.278315016598229 -0.057256200863269956
803 2.8480089478950332 -1.56667149286529 1.9128275435617892 -3.4055607692708216 -1.2782533599076373 -0.058148857589562696
804 2.847787274683908 -1.567010738391557 1.91281030427685 -3.4052401623319897 -1.2781834450532998 -0.05904011786555018
805 2.8475747077041054 -1.5673462263055198 1.9128636169983224 -3.404920065956935 -1.2781063254367866 -0.05993103900833938
806 2.847370278347256 -1.567678999114147 1.9129654483991403 -3.404603255542476 -1.2780228622110554 -0.06082231514681002
807 2.847173194326937 -1.5680097553538812 1.9131009137173416 -3.404291590726055 -1.277933774913233 -0.061714395317288034
808 2.846982792720615 -1.5683389611894947 1.9132599568666862 -3.403986313795406 -1.2778396767424083 -0.06260756330484789
809 2.846798507331342 -1.5686669260698123 1.9134357825899964 -3.4036882511393864 -1.2777410992733487 -0.06350199158001125
810 2.846619845889729 -1.5689938539138064 1.913623797382949 -3.403397949189064 -1.2776385099166685 -0.06439777771376175
811 2.846773813303661 -1.568881045332944 1.9144036608202746 -3.4029703035837797 -1.2774142426623822 -0.06529496895045105
812 2.8469131687281792 -1.5687816795435794 1.9148700654492226 -3.4025907071563153 -1.2772061684115803 -0.06620453313519044
813 2.8470402143192906 -1.5686912106710327 1.9151249591405268 -3.4022462365336237 -1.2770122048790709 -0.0671229034732296
814 2.847156681015139 -1.5686065871409176 1.915237363256942 -3.4019281540565767 -1.2768307439444804 -0.06804765641005395
815 2.847263904348032 -1.5685257589610317 1.9152540374519167 -3.4016305563295943 -1.276660511336768 -0.06897714030980429
816 2.847362941823649 -1.5684473497078384 1.9152066753439865 -3.4013494591461817 -1.2765004714774735 -0.06991022512760321
817 2.847454652179041 -1.5683704368191773 1.9151167675827891 -3.401082177644686 -1.2763497624194153 -0.07084613339794538
818 2.847539749404958 -1.5682944038430777 1.9149988920968044 -3.4008269063580348 -1.2762076510144718 -0.07178432601251608
819 2.8476188398932254 -1.5682188408209754 1.914862941830877 -3.400582434672859 -1.2760735017620202 -0.07272442497817706
820 2.847692448217162 -1.5681434770167955 1.9147156338072713 -3.400347954042154 -1.2759467549540382 -0.07366616116381
821 2.8477610352112657 -1.5680681354476138 1.9145615316741693 -3.400122927379943 -1.2758269111648242 -0.07460933894608314
