lar-deeufba/potential_fields_with_aruco/src/custom_codes/csv_files/csv_to_eps/csv_files/joint_smoothed_AAPF_OriOFF.csv
Index Joint1 Joint2 Joint3 Joint4 Joint5 Joint6
0 3.139318617769042 -1.5696891801148605 0.01899307504802738 -1.5678550842473555 -1.571092624299303 -1.5707
1 3.138586290061637 -1.5687076724488265 0.03684895032523207 -1.5651314974028456 -1.5715256427050472 -1.5707
2 3.137852554972765 -1.5677196068917114 0.054993472811082134 -1.5624161678513289 -1.5719553160441795 -1.5707
3 3.1371168179580424 -1.5667253949546538 0.0734078435383126 -1.5597117075002027 -1.572382036898189 -1.5707000000000002
4 3.136378484473083 -1.565725448148795 0.0920732635396585 -1.5570207282568636 -1.5728061978485648 -1.5706999999999998
5 3.1356369599735046 -1.564720177985275 0.11097093384785485 -1.554345842028709 -1.5732281914767958 -1.5706999999999998
6 3.1348916499149206 -1.5637099959752336 0.13008205549563673 -1.551689660723137 -1.5736484103643718 -1.5707
7 3.1341419597529447 -1.5626953136298103 0.14938782951573903 -1.5490547962475432 -1.5740672470927806 -1.5706999999999998
8 3.1333872949431947 -1.561676542460146 0.16886945694089692 -1.546443860509326 -1.574485094243512 -1.5707000000000002
9 3.1326270609412843 -1.5606540939773794 0.18850813880384526 -1.5438594654158817 -1.5749023443980554 -1.5707
10 3.13186066320283 -1.5596283796926524 0.2082850761373193 -1.5413042228746083 -1.5753193901378995 -1.5707000000000002
11 3.1310875071834454 -1.5585998111171036 0.2281814699740538 -1.5387807447929025 -1.575736624044533 -1.5707
12 3.130306998338748 -1.5575687997618735 0.24817852134678406 -1.5362916430781615 -1.5761544386994462 -1.5707000000000004
13 3.1295185421243508 -1.5565357571381022 0.26825743128824486 -1.5338395296377827 -1.5765732266841266 -1.5707000000000004
14 3.1287215439958675 -1.555501094756929 0.28839940083117127 -1.5314270163791621 -1.5769933805800636 -1.5706999999999995
15 3.127915409408918 -1.5544652241294952 0.3085856310082985 -1.5290567152096985 -1.5774152929687473 -1.5707
16 3.1270995438191154 -1.5534285567669406 0.3287973228523614 -1.526731238036789 -1.5778393564316664 -1.5707000000000002
17 3.1262733526820745 -1.5523915041804042 0.3490156773960951 -1.5244531967678296 -1.5782659635503096 -1.5707000000000007
18 3.125436241453409 -1.5513544778810258 0.36922189567223435 -1.5222252033102177 -1.5786955069061657 -1.5707
19 3.1245876155887364 -1.5503178893799474 0.3893971787135145 -1.5200498695713511 -1.579128379080724 -1.5707
20 3.1237268805436704 -1.5492821501883074 0.4095227275526704 -1.5179298074586265 -1.5795649726554744 -1.5707
21 3.1228534417738283 -1.5482476718172467 0.4295797432224373 -1.515867628879442 -1.5800056802119051 -1.5707000000000002
22 3.1219667047348234 -1.5472148657779043 0.4495494267555498 -1.5138659457411932 -1.5804508943315052 -1.5707000000000002
23 3.1210660748822723 -1.5461841435814216 0.46941297918474334 -1.5119273699512785 -1.5809010075957646 -1.5707000000000002
24 3.120150957671789 -1.5451559167389377 0.4891516015427528 -1.5100545134170946 -1.5813564125861712 -1.5707
25 3.1192207585589875 -1.5441305967615924 0.508746494862313 -1.5082499880460385 -1.5818175018842142 -1.5707
26 3.1182748829994864 -1.5431085951605266 0.5281788601761593 -1.5065164057455078 -1.5822846680713838 -1.5707000000000002
27 3.117312736448899 -1.54209032344688 0.5474298985170265 -1.5048563784228994 -1.5827583037291681 -1.5707000000000002
28 3.11633372436284 -1.541076193131792 0.5664808109176496 -1.5032725179856103 -1.5832388014390566 -1.5707
29 3.115337252196926 -1.5400666157264036 0.585312798410764 -1.5017674363410387 -1.583726553782538 -1.5707000000000002
30 3.11432272540677 -1.5390620027418538 0.603907062029104 -1.50034374539658 -1.5842219533411015 -1.5707
31 3.1132895494479893 -1.5380627656892831 0.6222448028054053 -1.4990040570596328 -1.5847253926962361 -1.5706999999999998
32 3.112237129776199 -1.5370693160798328 0.6403072217724028 -1.4977509832375941 -1.585237264429432 -1.5707
33 3.111164871847014 -1.5360820654246412 0.6580755199628314 -1.4965871358378606 -1.5857579611221766 -1.5707000000000002
34 3.1100721811160486 -1.5351014252348485 0.6755308984094258 -1.4955151267678295 -1.5862878753559595 -1.5707
35 3.1089584630389187 -1.5341278070215951 0.6926545581449215 -1.4945375679348982 -1.5868273997122702 -1.5706999999999998
36 3.10782312307124 -1.5331616222960216 0.7094277002020537 -1.493657071246464 -1.5873769267725981 -1.5707000000000004
37 3.1066655666686267 -1.5322032825692669 0.7258315256135567 -1.4928762486099234 -1.5879368491184307 -1.5707
38 3.105485199286694 -1.5312531993524716 0.741847235412166 -1.4921977119326744 -1.5885075593312585 -1.5707
39 3.1042814263810588 -1.530311784156776 0.7574560306306166 -1.4916240731221133 -1.58908944999257 -1.5707
40 3.103053653407334 -1.5293794484933199 0.7726391123016434 -1.4911579440856384 -1.5896829136838546 -1.5707
41 3.1018019650130397 -1.5284564929802231 0.787383272054931 -1.4908008399937052 -1.5902878428292704 -1.5706999999999998
42 3.100529162613307 -1.5275427746635284 0.8016976639079613 -1.4905498890690057 -1.5909021292236536 -1.5707
43 3.0992387268151713 -1.5266380396962564 0.8155970324751654 -1.4904011227972915 -1.5915231645045096 -1.5707000000000002
44 3.0979341382256664 -1.5257420342314287 0.8290961223709749 -1.4903505726643127 -1.592148340309342 -1.5706999999999995
45 3.0966188774518293 -1.5248545044220687 0.8422096782098211 -1.4903942701558222 -1.5927750482756582 -1.5706999999999998
46 3.0952964251006936 -1.5239751964211972 0.8549524446061358 -1.4905282467575707 -1.5934006800409621 -1.5707000000000002
47 3.0939702617792935 -1.523103856381836 0.8673391661743495 -1.4907485339553082 -1.5940226272427591 -1.5706999999999998
48 3.0926438680946666 -1.522240230457007 0.8793845875288943 -1.4910511632347871 -1.594638281518555 -1.5707
49 3.0913207246538454 -1.521384064799732 0.8911034532842013 -1.491432166081758 -1.5952450345058538 -1.5707000000000002
50 3.0900043120638663 -1.5205351055630336 0.9025105080547017 -1.4918875739819726 -1.595840277842162 -1.5707000000000002
51 3.0886981109317637 -1.5196930988999324 0.9136204964548269 -1.492413418421181 -1.5964214031649835 -1.5706999999999998
52 3.0874056018645737 -1.5188577909634515 0.9244481630990089 -1.493005730885136 -1.5969858021118255 -1.5707000000000004
53 3.0861302654693286 -1.518028927906611 0.9350082526016781 -1.493660542859587 -1.5975308663201906 -1.5707
54 3.0848755823530656 -1.5172062558824346 0.9453155095772665 -1.4943738858302866 -1.5980539874275859 -1.5707000000000004
55 3.0836450331228193 -1.5163895210439426 0.9553846786402052 -1.4951417912829854 -1.5985525570715156 -1.5707
56 3.0824420983856253 -1.5155784695441579 0.9652305044049256 -1.4959602907034344 -1.5990239668894857 -1.5707
57 3.0812702587485177 -1.5147728475361022 0.9748677314858594 -1.4968254155773852 -1.5994656085190009 -1.5707000000000004
58 3.080132994818531 -1.5139724011727964 0.9843111044974372 -1.4977331973905885 -1.5998748735975663 -1.5707
59 3.079033787202701 -1.5131768766072637 0.9935753680540911 -1.4986796676287961 -1.6002491537626875 -1.5707
60 3.0779761165080637 -1.512386019992525 1.002675266770252 -1.4996608577777581 -1.6005858406518696 -1.5706999999999998
61 3.076961403998156 -1.511599625295691 1.011620788959364 -1.5006736675107566 -1.6008839894235722 -1.5706999999999998
62 3.0759828335625357 -1.5108176777402254 1.02040289773092 -1.5017184692511858 -1.6011493093200728 -1.5707
63 3.075031529747264 -1.5100402103636812 1.0290077998934262 -1.5027965036099722 -1.6013891731046042 -1.5707000000000002
64 3.0740986170983975 -1.5092672562036094 1.037421702255387 -1.50390901119804 -1.601610953540397 -1.5707
65 3.073175220162 -1.5084988482975645 1.0456308116253097 -1.505057232626315 -1.6018220233906841 -1.5706999999999998
66 3.072252463484132 -1.507735019683098 1.0536213348116987 -1.5062424085057229 -1.6020297554186984 -1.5707000000000007
67 3.0713214716108506 -1.5069758033977618 1.0613794786230597 -1.507465779447187 -1.60224152238767 -1.5707
68 3.07037336908822 -1.5062212324791093 1.068891449867899 -1.508728586061635 -1.602464697060833 -1.5707000000000002
69 3.0693992804622967 -1.5054713399646924 1.0761434553547211 -1.5100320689599904 -1.6027066522014182 -1.5707
70 3.068390330279144 -1.5047261588920637 1.0831217018920323 -1.511377468753179 -1.6029747605726579 -1.5707
71 3.0673376430848207 -1.503985722298776 1.0898123962883386 -1.512766026052126 -1.6032763949377844 -1.5706999999999998
72 3.066232343425389 -1.5032500632223815 1.0962017453521449 -1.5141989814677566 -1.60361892806003 -1.5707
73 3.0650655558469064 -1.502519214700432 1.1022759558919573 -1.5156775756109953 -1.604009732702626 -1.5707000000000002
74 3.0638284048954354 -1.5017932097704811 1.108021234716281 -1.5172030490927684 -1.604456181628805 -1.5707000000000004
75 3.062512015117035 -1.5010720814700802 1.1134237886336211 -1.5187766425240001 -1.6049656476017988 -1.5707
76 3.0611075110577666 -1.5003558628367828 1.1184698244524847 -1.5203995965156163 -1.6055455033848398 -1.5706999999999998
77 3.0596060172636905 -1.499644586908141 1.1231455489813766 -1.5220731516785424 -1.60620312174116 -1.5707000000000002
78 3.057998658280866 -1.4989382867217067 1.127437169028802 -1.5237985486237025 -1.6069458754339914 -1.5706999999999998
79 3.0562765586553544 -1.498236995315033 1.1313308914032674 -1.5255770279620227 -1.6077811372265658 -1.5707
80 3.0544308429332148 -1.4975407457256718 1.1348129229132775 -1.527409830304428 -1.6087162798821155 -1.5706999999999998
81 3.0524564083522305 -1.4968497215911347 1.1378757800449444 -1.5292974261941907 -1.6097555765392184 -1.5707
82 3.050363242917068 -1.4961647089487662 1.140537217994803 -1.531237205903974 -1.610890901837836 -1.5707
83 3.0481651073241163 -1.495486644435869 1.1428213016369946 -1.5332257896387864 -1.612111030793275 -1.5707000000000002
84 3.0458757622697616 -1.4948164646897462 1.1447520958456592 -1.5352597976036377 -1.6134047384208419 -1.5706999999999995
85 3.043508968450394 -1.4941551063477012 1.1463536654949384 -1.5373358500035381 -1.614760799735844 -1.5706999999999998
86 3.0410784865624034 -1.4935035060470372 1.1476500754589736 -1.5394505670434975 -1.616167989753589 -1.5707000000000002
87 3.0385980773021752 -1.4928626004250567 1.1486653906119046 -1.5416005689285242 -1.6176150834893828 -1.5707000000000002
88 3.0360815013661 -1.4922333261190637 1.1494236758278735 -1.5437824758636287 -1.6190908559585329 -1.5707000000000004
89 3.0335425194505645 -1.4916166197663603 1.1499489959810207 -1.5459929080538206 -1.620584082176346 -1.5707000000000002
90 3.0309948922519587 -1.49101341800425 1.150265415945487 -1.548228485704109 -1.6220835371581295 -1.5707000000000002
91 3.0284523804666703 -1.4904246574700364 1.1503970005954138 -1.5504858290195047 -1.6235779959191903 -1.5707
92 3.0259287447910888 -1.4898512748010224 1.150367814804942 -1.552761558205017 -1.6250562334748353 -1.5707
93 3.023437745921601 -1.4892942066345103 1.1502019234482121 -1.555052293465654 -1.626507024840371 -1.5707
94 3.0209931445545966 -1.4887543896078037 1.1499233913993656 -1.5573546550064274 -1.6279191450311055 -1.5707000000000004
95 3.0186087013864618 -1.488232760358206 1.1495562835325426 -1.559665263032345 -1.6292813690623442 -1.5707
96 3.016298177113588 -1.4877302555230199 1.149124664721885 -1.5619807377484178 -1.6305824719493958 -1.5706999999999998
97 3.0140753324323626 -1.4872478117395491 1.1486525998415336 -1.5642976993596553 -1.6318112287075661 -1.5707000000000002
98 3.0119539280391736 -1.4867863656450957 1.1481641537656286 -1.5666127680710664 -1.6329564143521627 -1.5707
99 3.0099477246304094 -1.4863468538769635 1.147683391368312 -1.5689225640876616 -1.6340068038984923 -1.5707000000000002
100 3.008070482902459 -1.4859302130724557 1.1472343775237241 -1.5712237076144495 -1.6349511723618617 -1.5707
101 3.006332498170386 -1.4855371070879309 1.1468369495944069 -1.5735134666577413 -1.635781128403979 -1.5707
102 3.004730204223956 -1.4851671086559741 1.1464940348965054 -1.5757917004290483 -1.636499615272155 -1.5707
103 3.0032565694716093 -1.4848195177282257 1.146204333234566 -1.5780589159411822 -1.637112409860102 -1.5707000000000002
104 3.0019045623217884 -1.4844936342563253 1.1459665444131335 -1.5803156202069555 -1.6376252890615308 -1.5706999999999998
105 3.0006671511829337 -1.4841887581919138 1.1457793682367547 -1.58256232023918 -1.6380440297701544 -1.5706999999999998
106 2.9995373044634874 -1.4839041894866323 1.1456415045099757 -1.584799523050669 -1.638374408879684 -1.5707000000000002
107 2.9985079905718877 -1.4836392280921205 1.1455516530373415 -1.587027735654233 -1.6386222032838311 -1.5707000000000002
108 2.9975721779165787 -1.4833931739600184 1.1455085136233993 -1.5892474650626855 -1.6387931898763084 -1.5707000000000004
109 2.996722834905999 -1.4831653270419671 1.1455107860726936 -1.5914592182888376 -1.6388931455508267 -1.5707000000000002
110 2.995952929948592 -1.4829549872896073 1.1455571701897713 -1.5936635023455024 -1.6389278472010984 -1.5707000000000004
111 2.995255431452798 -1.4827614546545786 1.1456463657791784 -1.5958608242454915 -1.6389030717208353 -1.5707000000000002
112 2.994623307827058 -1.4825840290885222 1.1457770726454604 -1.5980516910016174 -1.6388245960037493 -1.5707000000000002
113 2.994049527479812 -1.4824220105430779 1.145947990593163 -1.6002366096266918 -1.6386981969435515 -1.5707000000000002
114 2.993527058819503 -1.4822746989698865 1.146157819426833 -1.6024160871335271 -1.6385296514339545 -1.5707000000000004
115 2.9930488702545697 -1.4821413943205881 1.1464052589510152 -1.6045906305349353 -1.6383247363686693 -1.5707
116 2.9926079301934556 -1.4820213965468234 1.1466890089702564 -1.6067607468437286 -1.6380892286414086 -1.5707000000000002
117 2.992197207044601 -1.4819140056002336 1.1470077692891025 -1.60892694307272 -1.6378289051458843 -1.5707000000000002
118 2.991809669216446 -1.4818185214324573 1.1473602397120988 -1.61108972623472 -1.6375495427758073 -1.5707
119 2.991438285117433 -1.4817342439951364 1.1477451200437916 -1.613249603342542 -1.6372569184248895 -1.5707
120 2.991076023156002 -1.481660473239911 1.148161110088727 -1.6154070814089976 -1.6369568089868438 -1.5707
121 2.9907170940445567 -1.4815965819597996 1.1486070294951967 -1.6175625442083574 -1.6366539771759352 -1.5707
122 2.990360677711343 -1.4815422343133338 1.1490821772864757 -1.6197158825607227 -1.6363491289886478 -1.5707
123 2.990007196388571 -1.4814971673004236 1.149585972329586 -1.6218668640476543 -1.6360419562420196 -1.5707000000000002
124 2.989657072308447 -1.4814611179209782 1.1501178334915478 -1.6240152562507104 -1.6357321507530875 -1.5706999999999998
125 2.9893107277031823 -1.4814338231749085 1.1506771796393833 -1.6261608267514525 -1.63541940433889 -1.5706999999999998
126 2.9889685848049843 -1.481415020062124 1.1512634296401136 -1.6283033431314402 -1.6351034088164658 -1.5707000000000002
127 2.98863106584606 -1.481404445582534 1.1518760023607593 -1.6304425729722325 -1.6347838560028507 -1.5707
128 2.9882985930586217 -1.4814018367360489 1.1525143166683427 -1.63257828385539 -1.6344604377150842 -1.5707000000000002
129 2.9879715886748737 -1.4814069305225779 1.1531777914298837 -1.634710243362472 -1.6341328457702036 -1.5707000000000002
130 2.987650474927028 -1.4814194639420313 1.1538658455124047 -1.6368382190750392 -1.6338007719852468 -1.5707
131 2.9873356740472916 -1.481439173994319 1.1545778977829262 -1.6389619785746508 -1.6334639081772517 -1.5706999999999998
132 2.9870276082678737 -1.481465797679351 1.1553133671084703 -1.6410812894428672 -1.6331219461632562 -1.5707
133 2.986726699820982 -1.4814990719970367 1.1560716723560573 -1.6431959192612473 -1.6327745777602976 -1.5706999999999998
134 2.986433370938827 -1.481538733947286 1.156852232392709 -1.6453056356113522 -1.6324214947854145 -1.5707000000000002
135 2.986148043853615 -1.4815845205300084 1.1576544660854466 -1.6474102060747406 -1.6320623890556443 -1.5706999999999998
136 2.985871140797556 -1.481636168745115 1.158477792301291 -1.6495093982329732 -1.631696952388025 -1.5706999999999998
137 2.985603084002859 -1.4816934155925146 1.1593216299072642 -1.6516029796676102 -1.6313248765995947 -1.5707
138 2.9853442957017307 -1.4817559980721169 1.1601853977703864 -1.65369071796021 -1.6309458535073904 -1.5706999999999998
139 2.9850951981263814 -1.4818236531838322 1.1610685147576798 -1.6557723806923335 -1.6305595749284507 -1.5706999999999998
140 2.9848562135090195 -1.4818961179275705 1.161970399736165 -1.6578477354455403 -1.6301657326798136 -1.5706999999999998
141 2.9846276196671178 -1.4819725602704286 1.1628898865157757 -1.6599166305722934 -1.6297641208815539 -1.5706999999999998
142 2.984409116759212 -1.482049872048253 1.163823468678093 -1.6619792375086635 -1.6293549428658987 -1.5707
143 2.9842002605291014 -1.4821243760640772 1.1647670547476103 -1.664035808461625 -1.628938504268112 -1.5707000000000002
144 2.9840006067205835 -1.482192395120935 1.1657165532488205 -1.6660865956381516 -1.6285151107234574 -1.5706999999999995
145 2.983809711077461 -1.4822502520218601 1.1666678727062174 -1.6681318512452177 -1.6280850678672 -1.5706999999999998
146 2.983627129343532 -1.4822942695698869 1.1676169216442944 -1.6701718274897979 -1.6276486813346038 -1.5707000000000002
147 2.9834524172625954 -1.4823207705680475 1.1685596085875438 -1.6722067765788653 -1.6272062567609324 -1.5707000000000002
148 2.983285130578452 -1.4823260778193774 1.1694918420604603 -1.6742369507193942 -1.6267580997814508 -1.5707000000000004
149 2.9831248250349 -1.482306514126909 1.1704095305875362 -1.6762626021183584 -1.626304516031422 -1.5707000000000002
150 2.9829710563757406 -1.4822584022936764 1.1713085826932648 -1.6782839829827332 -1.6258458111461112 -1.5707000000000004
151 2.982823380344772 -1.4821780651227134 1.17218490690214 -1.680301345519491 -1.6253822907607822 -1.5707000000000002
152 2.9826813526857947 -1.482061825417054 1.1730344117386549 -1.6823149419356074 -1.6249142605106992 -1.5707000000000004
153 2.9825445291426074 -1.481906005979731 1.1738530057273027 -1.684325024438055 -1.6244420260311263 -1.5707000000000002
154 2.98241246545901 -1.4817069296137793 1.1746365973925765 -1.6863318452338087 -1.6239658929573284 -1.5707000000000007
155 2.982284717378802 -1.4814609191222308 1.1753810952589698 -1.6883356565298422 -1.623486166924568 -1.5707000000000002
156 2.9821608406457836 -1.4811642973081212 1.176082407850976 -1.6903367105331297 -1.6230031535681104 -1.5707000000000002
157 2.9820403910037547 -1.4808133869744833 1.1767364436930885 -1.6923352594506458 -1.6225171585232205 -1.5707000000000004
158 2.9819229241965126 -1.4804045109243504 1.1773391113098002 -1.6943315554893634 -1.6220284874251611 -1.5707000000000002
159 2.981807995967859 -1.479933991960757 1.1778863192256044 -1.6963258508562575 -1.6215374459091971 -1.5707000000000002
160 2.9816951620615924 -1.4793981528867362 1.178373975964995 -1.6983183977583018 -1.6210443396105925 -1.5707000000000002
161 2.9815840754888647 -1.478795078205466 1.1787990990349981 -1.7003094307740916 -1.6205494360619135 -1.5707000000000002
162 2.9814747783302344 -1.4781298992206997 1.1791631418727748 -1.7022991139687071 -1.6200528503849365 -1.5707000000000002
163 2.9813674099336103 -1.4774095089363344 1.1794686668980188 -1.70428759377885 -1.6195546595987387 -1.5707000000000004
164 2.9812621096469014 -1.4766408003562672 1.179718236530424 -1.7062750166412213 -1.6190549407223975 -1.5707
165 2.981159016818019 -1.4758306664843965 1.1799144131896848 -1.708261528992523 -1.6185537707749917 -1.5707000000000002
166 2.9810582707948727 -1.4749860003246191 1.1800597592954956 -1.7102472772694568 -1.6180512267755995 -1.5707000000000007
167 2.9809600109253713 -1.4741136948808318 1.1801568372675497 -1.7122324079087234 -1.617547385743297 -1.5707000000000002
168 2.9808643765574256 -1.4732206431569326 1.1802082095255417 -1.7142170673470252 -1.617042324697164 -1.5707000000000004
169 2.980771507038944 -1.472313738156818 1.1802164384891647 -1.7162014020210627 -1.6165361206562772 -1.5707000000000002
170 2.9806815417178383 -1.4713998728843865 1.1801840865781141 -1.7181855583675383 -1.6160288506397147 -1.5707000000000004
171 2.9805946199420164 -1.4704859403435346 1.1801137162120834 -1.7201696828231532 -1.6155205916665547 -1.5707000000000002
172 2.9805108810593888 -1.4695788335381605 1.1800078898107664 -1.722153921824609 -1.6150114207558752 -1.5707000000000004
173 2.980430464417865 -1.46868544547216 1.179869169793857 -1.7241384218086064 -1.614501414926753 -1.5707000000000002
174 2.9803535093653557 -1.467812669149432 1.1797001185810503 -1.726123329211848 -1.6139906511982671 -1.5707000000000004
175 2.980280155249768 -1.4669673975738726 1.1795032985920388 -1.7281087904710346 -1.6134792065894945 -1.5707
176 2.980210541419015 -1.46615652374938 1.179281272246518 -1.730094952022868 -1.6129671581195142 -1.5707
177 2.9801448072210057 -1.4653869406798516 1.1790366019641816 -1.7320819603040498 -1.6124545828074037 -1.5707000000000004
178 2.980083092003648 -1.4646655413691843 1.1787718501647229 -1.7340699617512811 -1.6119415576722398 -1.5707
179 2.980025535114853 -1.4639992188212752 1.1784895792678363 -1.736059102801264 -1.6114281597331013 -1.5707
180 2.97997227590253 -1.463394866040022 1.1781923516932165 -1.738049529890699 -1.6109144660090662 -1.5707
181 2.9799233317715847 -1.462857835415817 1.1778832160077388 -1.7400412533970793 -1.6104005777374688 -1.5707
182 2.9798782323549027 -1.4623873168850314 1.177567165367008 -1.7420337394610568 -1.6098866930286717 -1.5707
183 2.9798363853423675 -1.461980959770532 1.17724967907381 -1.7440263181640758 -1.6093730342112937 -1.5707000000000002
184 2.9797971984238574 -1.4616364133951838 1.1769362364309313 -1.746018319587579 -1.6088598236139535 -1.5706999999999998
185 2.9797600792892562 -1.4613513270818546 1.1766323167411579 -1.7480090738130096 -1.608347283565271 -1.5706999999999998
186 2.9797244356284462 -1.46112335015341 1.176343399307277 -1.7499979109218122 -1.607835636393865 -1.5707000000000002
187 2.979689675131307 -1.460950131932716 1.1760749634320735 -1.751984160995429 -1.6073251044283539 -1.5707000000000002
188 2.9796552054877217 -1.4608293217426394 1.1758324884183353 -1.7539671541153041 -1.6068159099973578 -1.5707000000000004
189 2.979620434387571 -1.460758568906046 1.1756214535688472 -1.7559462203628802 -1.6063082754294946 -1.5707000000000002
190 2.9795847695207374 -1.4607355227458023 1.1754473381863964 -1.7579206898196016 -1.6058024230533847 -1.5707000000000002
191 2.979547618577102 -1.4607578325847745 1.175315621573769 -1.7598898925669109 -1.6052985751976458 -1.5707
192 2.9795083892465475 -1.4608231477458296 1.1752317830337513 -1.7618531586862523 -1.6047969541908984 -1.5707000000000002
193 2.9794664892189537 -1.4609291175518329 1.1752013018691294 -1.7638098182590685 -1.6042977823617603 -1.5707
194 2.979421326184204 -1.4610733913256513 1.17522965738269 -1.7657592013668035 -1.6038012820388514 -1.5707000000000004
195 2.979372307832178 -1.46125361839015 1.1753223288772188 -1.7677006380908997 -1.6033076755507898 -1.5707
196 2.979318841852759 -1.461467448068197 1.1754847956555028 -1.769633458512802 -1.6028171852261959 -1.5707
197 2.979260335935829 -1.4617125296826576 1.175722537020328 -1.7715569927139527 -1.602330033393688 -1.5707000000000004
198 2.9791961977712678 -1.461986512556398 1.1760410322744805 -1.7734705707757952 -1.601846442381885 -1.5707000000000002
199 2.9791258350489587 -1.4622870460122845 1.1764457607207466 -1.7753735227797733 -1.6013666345194062 -1.5707000000000002
200 2.9790486554587825 -1.4626117793731839 1.176942201661913 -1.7772651788073306 -1.600890832134871 -1.5707
201 2.978964235099555 -1.462958517000739 1.1775338889192144 -1.7791450760674554 -1.6004191840703927 -1.5707
202 2.978872823705822 -1.4633256834116999 1.1782165743876813 -1.7810135802793206 -1.599951545222064 -1.5707000000000002
203 2.9787748394210682 -1.4637118581615949 1.1789840644807916 -1.7828712642896434 -1.5994876969994731 -1.5707000000000002
204 2.9786707003887707 -1.4641156208059503 1.179830165612025 -1.7847187009451395 -1.599027420812206 -1.5707
205 2.9785608247524133 -1.4645355509002942 1.1807486841948593 -1.7865564630925286 -1.598570498069851 -1.5706999999999998
206 2.9784456306554774 -1.4649702280001542 1.1817334266427744 -1.7883851235785273 -1.5981167101819955 -1.5707000000000007
207 2.9783255362414423 -1.4654182316610567 1.1827781993692479 -1.7902052552498529 -1.5976658385582263 -1.5707000000000002
208 2.978200959653791 -1.4658781414385298 1.1838768087877591 -1.792017430953223 -1.5972176646081315 -1.5707000000000004
209 2.9780723190360034 -1.4663485368881 1.185023061311787 -1.7938222235353545 -1.5967719697412976 -1.5707000000000002
210 2.977940032531561 -1.466827997565296 1.1862107633548096 -1.795620205842966 -1.596328535367313 -1.5707000000000004
211 2.9778045182839454 -1.4673151030256444 1.1874337213303066 -1.7974119507227742 -1.5958871428957644 -1.5707000000000002
212 2.977666194436638 -1.4678084328246725 1.188685741651756 -1.799198031021497 -1.5954475737362397 -1.5707000000000004
213 2.977525479133118 -1.4683065665179076 1.189960630732637 -1.800979019585851 -1.5950096092983252 -1.5707000000000002
214 2.9773827905168706 -1.468808083660878 1.1912521949864283 -1.8027554892625548 -1.5945730309916097 -1.5707000000000007
215 2.977238546731372 -1.4693115638091092 1.192554240826608 -1.8045280128983243 -1.5941376202256794 -1.5707
216 2.9770931659201065 -1.4698155865181302 1.1938605746666557 -1.8062971633398786 -1.5937031584101224 -1.5707000000000002
217 2.976947066226556 -1.4703187313434682 1.1951650029200502 -1.8080635134339347 -1.5932694269545264 -1.5707000000000004
218 2.9768006657941983 -1.4708195778406499 1.1964613320002695 -1.8098276360272092 -1.5928362072684779 -1.5707000000000002
219 2.976654382766518 -1.471316705565203 1.1977433683207928 -1.8115901039664206 -1.5924032807615647 -1.5707
220 2.9765086352869945 -1.4718086940726547 1.199004918295099 -1.8133514900982854 -1.591970428843374 -1.5707
221 2.9763637594633683 -1.4722944249832008 1.2002410890825386 -1.8151122471564525 -1.5915374751535294 -1.5707
222 2.976219763260416 -1.4727739881757103 1.201452190825949 -1.8168723474222885 -1.5911044122517963 -1.5707000000000002
223 2.9760765726071736 -1.4732477755937194 1.2026398344140405 -1.8186316430640928 -1.5906712749279772 -1.5707000000000004
224 2.975934113432674 -1.4737161791807654 1.2038056307355223 -1.820389986250162 -1.5902380979718733 -1.5707
225 2.9757923116659555 -1.474179590880385 1.2049511906791042 -1.8221472291487955 -1.589804916173287 -1.5706999999999998
226 2.9756510932360527 -1.474638402636116 1.2060781251334962 -1.8239032239282915 -1.5893717643220209 -1.5707000000000007
227 2.975510384072 -1.4750930063914938 1.2071880449874073 -1.8256578227569467 -1.5889386772078748 -1.5707000000000002
228 2.9753701101028343 -1.4755437940900566 1.2082825611295476 -1.8274108778030609 -1.5885056896206526 -1.5707000000000004
229 2.975230197257589 -1.4759911576753408 1.2093632844486266 -1.8291622412349309 -1.5880728363501546 -1.5707000000000002
230 2.9750905714653015 -1.4764354890908833 1.2104318258333542 -1.8309117652208555 -1.5876401521861836 -1.5707000000000004
231 2.9749511586550064 -1.4768771802802214 1.21148979617244 -1.832659301929133 -1.5872076719185413 -1.5707000000000002
232 2.9748118847557397 -1.4773166231868913 1.2125388063545937 -1.8344047035280617 -1.5867754303370296 -1.5707000000000002
233 2.974672675696535 -1.4777542097544307 1.2135804672685242 -1.8361478221859386 -1.5863434622314498 -1.5707000000000002
234 2.97453345740643 -1.478190331926376 1.2146163898029423 -1.8378885100710631 -1.5859118023916046 -1.5707000000000004
235 2.974394155814458 -1.4786253816462644 1.2156481848465566 -1.8396266193517317 -1.5854804856072948 -1.5707
236 2.9742546968496564 -1.4790597508576329 1.216677463288078 -1.8413620021962442 -1.5850495466683232 -1.5707
237 2.97411500644106 -1.4794938315040183 1.2177058360162154 -1.8430945107728989 -1.5846190203644916 -1.5707000000000002
238 2.9739750105177025 -1.4799280155289571 1.218734913919678 -1.844823997249992 -1.5841889414856012 -1.5707
239 2.9738346350086218 -1.4803626948759867 1.219766307887176 -1.8465503137958232 -1.5837593448214542 -1.5707000000000002
240 2.973693805842852 -1.480798261488644 1.2208016288074195 -1.8482733125786903 -1.5833302651618526 -1.5707
241 2.9735524660570882 -1.4812350256094025 1.2218421481065358 -1.8499928774730237 -1.5829017293030676 -1.5707
242 2.973410627118662 -1.4816729706764833 1.2228877793603266 -1.8517090191777827 -1.5824737320672466 -1.5707
243 2.973268317602564 -1.4821119984270439 1.2239380966820106 -1.8534217800980608 -1.5820462602830063 -1.5707000000000002
244 2.973125566083784 -1.4825520105982417 1.2249926741848074 -1.8551312026389484 -1.5816193007789627 -1.5706999999999998
245 2.9729824011373154 -1.4829929089272345 1.226051085981937 -1.8568373292055385 -1.581192840383734 -1.5706999999999998
246 2.9728388513381487 -1.4834345951511803 1.2271129061866186 -1.858540202202924 -1.5807668659259364 -1.5707000000000002
247 2.972694945261273 -1.483876971007236 1.228177708912071 -1.8602398640361952 -1.580341364234186 -1.5707000000000002
248 2.9725507114816807 -1.4843199382325596 1.2292450682715141 -1.861936357110446 -1.5799163221371004 -1.5707000000000004
249 2.9724061785743614 -1.4847633985643083 1.2303145583781672 -1.8636297238307675 -1.5794917264632957 -1.5707000000000002
250 2.972261375114308 -1.4852072537396401 1.2313857533452497 -1.8653200066022522 -1.5790675640413891 -1.5707000000000004
251 2.9721163296765103 -1.4856514054957128 1.2324582272859814 -1.867007247829992 -1.5786438216999974 -1.5707000000000002
252 2.9719710708359592 -1.4860957555696839 1.2335315543135816 -1.8686914899190799 -1.5782204862677376 -1.5707000000000002
253 2.971825627167645 -1.4865402056987105 1.2346053085412694 -1.8703727752746064 -1.5777975445732255 -1.5707000000000002
254 2.97168002724656 -1.4869846576199508 1.2356790640822641 -1.8720511463016654 -1.5773749834450785 -1.5707000000000007
255 2.9715342996476934 -1.4874290130705616 1.2367523950497854 -1.8737266454053474 -1.5769527897119133 -1.5707
256 2.971388472946039 -1.4878731737877016 1.237824875557053 -1.875399314990746 -1.5765309502023466 -1.5707000000000002
257 2.971242575716585 -1.4883170415085285 1.2388960797172859 -1.877069197462953 -1.5761094517449954 -1.5707000000000004
258 2.9710966365343228 -1.4887605179701984 1.2399655816437036 -1.8787363352270594 -1.5756882811684763 -1.5707000000000002
259 2.9709506839742437 -1.48920350490987 1.2410329554495256 -1.8804007706881585 -1.5752674253014058 -1.5707
260 2.9708047466113396 -1.4896459040647008 1.2420977752479714 -1.8820625462513423 -1.5748468709724008 -1.5707
261 2.970658847326577 -1.4900876389642548 1.2431597061287543 -1.8837216959948744 -1.574426607866374 -1.5707
262 2.970512986224832 -1.490528720307722 1.2442187770875648 -1.8853782206897038 -1.5740066370934185 -1.5707000000000002
263 2.9703671577169586 -1.4909691805866983 1.2452751080965871 -1.8870321127799523 -1.5735869626199237 -1.5707000000000004
264 2.970221356213808 -1.4914090522927796 1.2463288191280057 -1.8886833647097392 -1.5731675884122778 -1.5706999999999998
265 2.9700755761262347 -1.491848367917563 1.2473800301540046 -1.8903319689231874 -1.5727485184368708 -1.5706999999999998
266 2.9699298118650916 -1.4922871599526446 1.248428861146769 -1.8919779178644178 -1.5723297566600922 -1.5707000000000004
267 2.96978405784123 -1.4927254608896199 1.2494754320784822 -1.89362120397755 -1.5719113070483297 -1.5707000000000002
268 2.969638308465504 -1.4931633032200855 1.2505198629213297 -1.895261819706706 -1.5714931735679734 -1.5707000000000004
269 2.9694925581487657 -1.4936007194356378 1.2515622736474947 -1.896899757496006 -1.5710753601854117 -1.5707000000000002
270 2.969346801301869 -1.4940377420278732 1.2526027842291625 -1.898535009789572 -1.570657870867034 -1.5707000000000002
271 2.9692010323356666 -1.4944744034883874 1.253641514638517 -1.9001675690315243 -1.57024070957923 -1.5707
272 2.969055245661011 -1.4949107363087772 1.254678584847743 -1.9017974276659844 -1.5698238802883877 -1.5707
273 2.9689094356887558 -1.4953467729806385 1.2557141148290243 -1.903424578137072 -1.5694073869608964 -1.5707
274 2.968763596829753 -1.4957825459955674 1.2567482245545458 -1.90504901288891 -1.568991233563146 -1.5707000000000004
275 2.968617723494855 -1.49621808784516 1.2577810339964912 -1.9066707243656171 -1.5685754240615242 -1.5707
276 2.968471810094917 -1.4966534310210131 1.2588126631270458 -1.9082897050113163 -1.5681599624224216 -1.5706999999999998
277 2.968325851040791 -1.4970886080147232 1.2598432319183934 -1.9099059472701283 -1.5677448526122268 -1.5707000000000002
278 2.968179840743328 -1.4975236513178856 1.2608728603427182 -1.911519443586173 -1.5673300985973277 -1.5707
279 2.9680337736133833 -1.497958593422097 1.261901668372205 -1.9131301864035721 -1.5669157043441146 -1.5707
280 2.967887644061808 -1.4983934668189534 1.262929775979038 -1.9147381681664464 -1.5665016738189763 -1.5706999999999995
281 2.9677414477664303 -1.4988282981044225 1.263957278752016 -1.9163433836316743 -1.5660880103425725 -1.5707
282 2.967595185472968 -1.499263090291957 1.2649841747463948 -1.9179458368071647 -1.5656747146526429 -1.5707
283 2.9674488591941155 -1.4996978404993815 1.2660104376340444 -1.9195455340135832 -1.5652617868411987 -1.5707000000000002
284 2.967302470942563 -1.5001325458445192 1.2670360410868349 -1.9211424815715945 -1.5648492270002499 -1.5706999999999998
285 2.9671560227310056 -1.5005672034451942 1.268060958776637 -1.9227366858018664 -1.5644370352218075 -1.5706999999999998
286 2.967009516572137 -1.5010018104192318 1.2690851643753205 -1.9243281530250642 -1.5640252115978828 -1.5707000000000002
287 2.966862954478647 -1.5014363638844541 1.2701086315547552 -1.9259168895618524 -1.5636137562204855 -1.5707000000000002
288 2.9667163384632307 -1.5018708609586868 1.2711313339868118 -1.9275029017328986 -1.5632026691816268 -1.5707000000000004
289 2.96656967053858 -1.5023052987597525 1.2721532453433604 -1.9290861958588672 -1.5627919505733165 -1.5707000000000002
290 2.9664229527173873 -1.5027396744054766 1.273174339296271 -1.930666778260425 -1.5623816004875666 -1.5707000000000002
291 2.9662761870123466 -1.5031739850136823 1.2741945895174138 -1.9322446552582377 -1.5619716190163868 -1.5707
292 2.9661293754361506 -1.503608227702194 1.2752139696786593 -1.9338198331729717 -1.561562006251788 -1.5707000000000002
293 2.965982520001491 -1.5040423995888357 1.276232453451877 -1.9353923183252917 -1.561152762285781 -1.5707
294 2.9658356227210625 -1.5044764977914316 1.2772500145089378 -1.9369621170358642 -1.5607438872103765 -1.5707000000000004
295 2.965688685607555 -1.5049105194278045 1.2782666265217109 -1.9385292356253543 -1.5603353811175842 -1.5707
296 2.965541710673664 -1.5053444616157803 1.2792822631620673 -1.940093680414429 -1.5599272440994163 -1.5707
297 2.965394699932082 -1.5057783214731821 1.2802968981018774 -1.9416554577237546 -1.5595194762478826 -1.5707000000000004
298 2.9652476553955003 -1.506212096117834 1.2813105050130105 -1.943214573873995 -1.5591120776549934 -1.5707000000000002
299 2.9651005790766134 -1.5066457826675599 1.282323057567337 -1.9447710351858172 -1.55870504841276 -1.5707000000000002
300 2.9649534729881126 -1.5070793782401843 1.2833345294367273 -1.9463248479798874 -1.558298388613193 -1.5707
301 2.9648063387342374 -1.5075128814989212 1.284344900821045 -1.947876018000015 -1.5578920985148055 -1.5707
302 2.964659176285405 -1.507946297288547 1.2853541780321263 -1.9494245486825879 -1.5574861790421226 -1.5707000000000002
303 2.964511985203579 -1.5083796319992266 1.2863623739098011 -1.9509704428871386 -1.5570806312861716 -1.5707000000000002
304 2.964364765050721 -1.508812892021127 1.2873695012938988 -1.9525137034731976 -1.5566754563379794 -1.5707
305 2.9642175153887975 -1.5092460837444137 1.2883755730242497 -1.9540543333002978 -1.5562706552885743 -1.5706999999999998
306 2.964070235779771 -1.509679213559254 1.289380601940684 -1.9555923352279712 -1.5558662292289844 -1.5707000000000007
307 2.9639229257856012 -1.5101122878558126 1.2903846008830302 -1.9571277121157484 -1.5554621792502352 -1.5707000000000002
308 2.963775584968255 -1.5105453130242563 1.2913875826911194 -1.9586604668231626 -1.5550585064433562 -1.5707000000000004
309 2.9636282128896947 -1.510978295454751 1.2923895602047806 -1.960190602209745 -1.5546552118993735 -1.5707000000000002
310 2.963480809111884 -1.5114112415374628 1.2933905462638438 -1.9617181211350276 -1.5542522967093158 -1.5707000000000004
311 2.963333373196785 -1.5118441576625576 1.294390553708139 -1.9632430264585428 -1.553849761964209 -1.5707000000000002
312 2.963185904706362 -1.5122770502202023 1.2953895953774959 -1.9647653210398222 -1.5534476087550826 -1.5707000000000004
313 2.963038403202578 -1.5127099256005623 1.2963876841117439 -1.9662850077383969 -1.5530458381729622 -1.5707000000000002
314 2.962890868247396 -1.5131427901938035 1.2973848327507134 -1.9678020894137997 -1.5526444513088766 -1.5707000000000007
315 2.9627432994027783 -1.5135756503900921 1.298381054134233 -1.9693165689255614 -1.5522434492538526 -1.5707
316 2.9625956962306907 -1.5140085125795948 1.2993763611021345 -1.9708284491332153 -1.551842833098918 -1.5707000000000002
317 2.9624480582930954 -1.514441383152478 1.3003707664942463 -1.972337732896293 -1.5514426039351004 -1.5707000000000004
318 2.962300385151954 -1.5148742684989058 1.3013642831503984 -1.973844423074325 -1.551042762853427 -1.5707000000000002
319 2.9621526763692314 -1.5153071750090463 1.302356923910421 -1.9753485225268446 -1.5506433109449251 -1.5707000000000002
320 2.9620049315068906 -1.5157401090730644 1.303348701614143 -1.976850034113383 -1.5502442493006228 -1.5707
321 2.961857150208114 -1.5161730766544286 1.3043396273625505 -1.9783489608649756 -1.549845578938127 -1.5707
322 2.9617093324409636 -1.5166060820098093 1.3053297053012494 -1.9798453064986696 -1.5494473005813647 -1.5707000000000002
323 2.961561478254718 -1.51703912896918 1.306318937837001 -1.9813390749030158 -1.5490494148808416 -1.5707000000000004
324 2.9614135876986567 -1.5174722213625125 1.307307327376567 -1.9828302699665643 -1.5486519224870634 -1.5707
325 2.9612656608220616 -1.5179053630197803 1.3082948763267093 -1.9843188955778657 -1.5482548240505374 -1.5706999999999998
326 2.961117697674213 -1.5183385577709567 1.3092815870941896 -1.9858049556254718 -1.54785812022177 -1.5707000000000007
327 2.9609696983043885 -1.5187718094460125 1.3102674620857684 -1.9872884539979314 -1.5474618116512664 -1.5707000000000002
328 2.9608216627618704 -1.5192051218749225 1.3112525037082083 -1.9887693945837968 -1.5470658989895338 -1.5707000000000004
329 2.9606735910959374 -1.519638498887658 1.3122367143682703 -1.9902477812716164 -1.5466703828870774 -1.5707000000000002
330 2.9605254833558705 -1.5200719443141923 1.3132200964727163 -1.9917236179499427 -1.5462752639944046 -1.5707000000000004
331 2.96037733959095 -1.5205054619844982 1.314202652428308 -1.9931969085073256 -1.545880542962021 -1.5707000000000002
332 2.960229159850456 -1.5209390557285485 1.3151843846418068 -1.9946676568323158 -1.5454862204404336 -1.5707000000000004
333 2.9600809441836677 -1.5213727293763153 1.3161652955199739 -1.9961358668134637 -1.5450922970801473 -1.5707000000000002
334 2.959932692639866 -1.5218064867577723 1.3171453874695713 -1.9976015423393199 -1.5446987735316697 -1.5707000000000007
335 2.9597844052683295 -1.5222403317028907 1.3181246628973602 -1.9990646872984346 -1.5443056504455062 -1.5707
336 2.9596360821183407 -1.522674268041645 1.3191031242101026 -2.0005253055793593 -1.543912928472163 -1.5707000000000002
337 2.959487723239179 -1.5231082996040075 1.3200807738145601 -2.0019834010706443 -1.5435206082621478 -1.5707000000000004
338 2.9593393286801226 -1.5235424302199498 1.321057614117494 -2.003438977660839 -1.5431286904659651 -1.5707000000000002
339 2.959190898490454 -1.5239766637194458 1.3220336475256655 -2.004892039238496 -1.5427371757341215 -1.5707000000000002
340 2.959042432719452 -1.5244110039324676 1.323008876445837 -2.0063425896921645 -1.542346064717124 -1.5707
341 2.9588939313792206 -1.5248454547977959 1.3239833037374527 -2.00779063286486 -1.5419553580580014 -1.5707
342 2.9587453943331603 -1.5252800206894392 1.3249569340706877 -2.009236172417458 -1.541565056369876 -1.5707000000000002
343 2.958596821407495 -1.5257147060902152 1.3259297725684018 -2.0106792119652988 -1.5411751602583907 -1.5707000000000004
344 2.958448212428446 -1.5261495154829392 1.3269018243534527 -2.0121197551237215 -1.540785670329191 -1.5707
345 2.9582995672222387 -1.5265844533504294 1.3278730945486998 -2.0135578055080674 -1.5403965871879215 -1.5706999999999998
346 2.9581508856150975 -1.527019524175502 1.3288435882770018 -2.014993366733676 -1.5400079114402272 -1.5707000000000007
347 2.9580021674332437 -1.5274547324409726 1.329813310661216 -2.016426442415887 -1.539619643691751 -1.5707000000000002
348 2.9578534125029026 -1.5278900826296589 1.330782266824203 -2.0178570361700414 -1.539231784548139 -1.5707000000000004
349 2.9577046206502957 -1.5283255792243773 1.3317504618888203 -2.019285151611478 -1.5388443346150347 -1.5707000000000002
350 2.957555791701649 -1.5287612267079447 1.332717900977927 -2.020710792355538 -1.5384572944980834 -1.5707000000000004
351 2.9574069254831854 -1.5291970295631776 1.3336845892143814 -2.0221339620175605 -1.5380706648029292 -1.5707000000000002
352 2.9572580218211284 -1.529632992272893 1.3346505317210426 -2.0235546642128868 -1.5376844461352168 -1.5707000000000004
353 2.9571090805417004 -1.530069119319907 1.335615733620769 -2.0249729025568555 -1.5372986391005907 -1.5707000000000002
354 2.956960101471127 -1.5305054151870368 1.3365802000364198 -2.026388680664808 -1.5369132443046953 -1.5707000000000007
355 2.9568110844356292 -1.5309418843570983 1.3375439360908525 -2.027802002152083 -1.5365282623531749 -1.5707
356 2.956662029261433 -1.531378531312909 1.3385069469069273 -2.0292128706340216 -1.5361436938516744 -1.5707000000000002
357 2.9565129357747617 -1.5318153605372855 1.3394692376075021 -2.030621289725964 -1.5357595394058385 -1.5707000000000004
358 2.956363803801837 -1.532252376513044 1.3404308133154355 -2.032027263043249 -1.535375799621311 -1.5707000000000002
359 2.9562146331688846 -1.5326895837230015 1.341391679153586 -2.0334307942012186 -1.5349924751037372 -1.5707000000000002
360 2.956065423702127 -1.5331269866499744 1.3423518402448127 -2.034831886815211 -1.5346095664587613 -1.5707
361 2.95591617520941 -1.5335645898044423 1.343311301709222 -2.0362305444857327 -1.5342270742690833 -1.5707
362 2.955766887425068 -1.534002397807534 1.344270068655911 -2.0376267707539495 -1.5338449990256255 -1.5707000000000002
363 2.9556175600650594 -1.53444041530804 1.3452281461912252 -2.0390205691461927 -1.5334633411963652 -1.5707000000000004
364 2.9554681928453372 -1.5348786469547515 1.346185539421509 -2.040411943188794 -1.5330821012492795 -1.5707
365 2.9553187854818614 -1.5353170973964603 1.3471422534531077 -2.0418008964080854 -1.5327012796523465 -1.5706999999999998
366 2.9551693376905885 -1.5357557712819574 1.3480982933923666 -2.0431874323303987 -1.5323208768735443 -1.5707000000000007
367 2.9550198491874733 -1.5361946732600338 1.3490536643456303 -2.044571554482064 -1.5319408933808492 -1.5707000000000002
368 2.954870319688473 -1.536633807979481 1.3500083714192443 -2.045953266389414 -1.5315613296422392 -1.5707000000000004
369 2.9547207489095446 -1.5370731800890893 1.350962419719553 -2.04733257157878 -1.531182186125692 -1.5707000000000002
370 2.954571136566645 -1.537512794237651 1.3519158143529024 -2.0487094735764932 -1.5308034632991852 -1.5707000000000004
371 2.9544214823757304 -1.5379526550739564 1.3528685604256367 -2.0500839759088856 -1.530425161630696 -1.5707000000000002
372 2.954271786052759 -1.5383927672467976 1.3538206630441016 -2.051456082102289 -1.5300472815882025 -1.5707000000000004
373 2.954122047313685 -1.5388331354049647 1.3547721273146414 -2.0528257956830336 -1.529669823639682 -1.5707000000000002
374 2.953972265874467 -1.5392737641972498 1.3557229583436017 -2.0541931201774526 -1.5292927882531115 -1.5707000000000007
375 2.9538224414510603 -1.5397146582724432 1.356673161237327 -2.055558059111876 -1.5289161758964689 -1.5707
376 2.9536725737594223 -1.5401558222793368 1.357622741102163 -2.0569206160126363 -1.5285399870377323 -1.5707000000000002
377 2.9535226625155104 -1.5405972608667222 1.358571703044455 -2.058280794406066 -1.5281642221448788 -1.5707000000000004
378 2.9533727074352796 -1.541038978683389 1.3595200521705468 -2.0596385978184943 -1.5277888816858851 -1.5707000000000002
379 2.953222708234688 -1.5414809803781298 1.3604677935867846 -2.0609940297762543 -1.5274139661287303 -1.5707000000000002
380 2.953072664629691 -1.5419232705997352 1.3614149323995128 -2.0623470938056774 -1.5270394759413908 -1.5707
381 2.952922576366174 -1.5423658539104863 1.3623614733961302 -2.0636977934376 -1.5266654115922877 -1.5707
382 2.952772443309728 -1.5428087345266233 1.363307420088249 -2.0650461322208797 -1.5262917735516124 -1.5707000000000002
383 2.9526222653558745 -1.5432519165778769 1.3642527756685343 -2.0663921137088797 -1.5259185622899993 -1.5707000000000004
384 2.9524720424001307 -1.5436954041939763 1.3651975433296513 -2.067735741454962 -1.5255457782780832 -1.5707
385 2.952321774338018 -1.5441392015046522 1.366141726264266 -2.0690770190124903 -1.5251734219864987 -1.5706999999999998
386 2.952171461065057 -1.544583312639635 1.3670853276650445 -2.0704159499348282 -1.5248014938858814 -1.5707000000000007
387 2.952021102476765 -1.5450277417286544 1.368028350724651 -2.0717525377753363 -1.5244299944468638 -1.5707000000000002
388 2.9518706984686633 -1.545472492901441 1.368970798635752 -2.0730867860873796 -1.5240589241400824 -1.5707000000000004
389 2.9517202489362706 -1.545917570287724 1.3699126745910122 -2.074418698424319 -1.5236882834361705 -1.5707000000000002
390 2.951569753775108 -1.5463629780172345 1.3708539817830976 -2.075748278339518 -1.5233180728057638 -1.5707000000000004
391 2.951419212880694 -1.5468087202197023 1.3717947234046737 -2.0770755293863408 -1.5229482927194962 -1.5707000000000002
392 2.951268626148549 -1.5472548010248575 1.372734902648406 -2.078400455118149 -1.5225789436480026 -1.5707000000000004
393 2.9511179934741913 -1.5477012245624304 1.3736745227069593 -2.079723059088305 -1.5222100260619171 -1.5707000000000002
394 2.9509673147531426 -1.548147994962151 1.3746135867730003 -2.0810433448501726 -1.5218415404318755 -1.5707000000000007
395 2.9508165898809207 -1.5485951163537492 1.3755520980391929 -2.082361315957114 -1.5214734872285112 -1.5707
396 2.950665818753047 -1.5490425928669558 1.3764900596982041 -2.0836769759624922 -1.521105866922459 -1.5707000000000002
397 2.950515001265041 -1.5494904286315008 1.3774274749426991 -2.084990328419671 -1.5207386799843545 -1.5707000000000004
398 2.950364137312421 -1.5499386277771137 1.3783643469653426 -2.086301376882011 -1.520371926884831 -1.5707000000000002
399 2.9502132267907077 -1.550387194433525 1.379300678958801 -2.087610124902877 -1.5200056080945241 -1.5707000000000002
400 2.950062269595421 -1.5508361327304652 1.380236474115739 -2.088916576035631 -1.5196397240840676 -1.5707
401 2.949911265436866 -1.5512854473599322 1.3811717370972396 -2.090220733664488 -1.5192742752780424 -1.5707
402 2.9497602132844922 -1.551735145262996 1.382106478438053 -2.091522600497064 -1.5189092619168127 -1.5707000000000002
403 2.949609111922536 -1.5521852339429953 1.383040710141347 -2.092822179071831 -1.5185446841946872 -1.5707000000000004
404 2.9494579601352293 -1.5526357209032675 1.3839744442102877 -2.094119471927257 -1.5181805423059758 -1.5707
405 2.9493067567068114 -1.5530866136471517 1.3849076926480444 -2.0954144816018125 -1.5178168364449884 -1.5706999999999998
406 2.9491555004215164 -1.5535379196779857 1.385840467457783 -2.0967072106339666 -1.5174535668060347 -1.5707000000000007
407 2.949004190063578 -1.5539896464991074 1.386772780642671 -2.0979976615621876 -1.5170907335834234 -1.5707000000000002
408 2.948852824417234 -1.5544418016138555 1.387704644205877 -2.0992858369249463 -1.5167283369714655 -1.5707000000000004
409 2.948701402266717 -1.5548943925255678 1.3886360701505664 -2.100571739260712 -1.516366377164469 -1.5707000000000002
410 2.9485499223962655 -1.5553474267375824 1.3895670704799081 -2.101855371107954 -1.516004854356745 -1.5707000000000004
411 2.9483983835901113 -1.5558009117532385 1.3904976571970693 -2.1031367350051418 -1.515643768742602 -1.5707000000000002
412 2.948246784632493 -1.5562548550758735 1.3914278423052169 -2.1044158334907452 -1.5152831205163504 -1.5707000000000004
413 2.948095124307643 -1.5567092642088254 1.3923576378075184 -2.1056926691032327 -1.5149229098722992 -1.5707000000000002
414 2.947943401399799 -1.557164146655433 1.3932870557071417 -2.106967244381075 -1.5145631370047583 -1.5707000000000007
415 2.947791614693194 -1.5576195099190335 1.3942161080072528 -2.10823956186274 -1.5142038021080368 -1.5707
416 2.9476397629720656 -1.5580753615029663 1.3951448067110206 -2.109509624086699 -1.5138449053764451 -1.5707000000000002
417 2.9474878450206488 -1.5585317089105697 1.3960731638216122 -2.110777433591421 -1.5134864470042928 -1.5707000000000004
418 2.947335859623177 -1.5589885596451805 1.397001191342194 -2.112042992915374 -1.5131284271858887 -1.5707000000000002
419 2.9471838055638875 -1.559445921210138 1.3979289012759344 -2.1133063045970295 -1.5127708461155427 -1.5707000000000002
420 2.9470316816270143 -1.5599038011087802 1.3988563056260004 -2.114567371174856 -1.5124137039875651 -1.5707
421 2.9468794872166337 -1.5603622050580324 1.3997834111163254 -2.1158261956333644 -1.5120570011461192 -1.5707
422 2.946727224216179 -1.5608211316291694 1.4007102033539076 -2.117082782741233 -1.51170073853479 -1.5707000000000002
423 2.946574895128925 -1.561280577607052 1.4016366626665107 -2.1183371377131817 -1.5113449172470164 -1.5707000000000004
424 2.946422502458144 -1.5617405397765411 1.4025627693818983 -2.119589265763928 -1.5109895383762357 -1.5707
425 2.9462700487071123 -1.5622010149224999 1.4034885038278349 -2.1208391721081936 -1.510634603015889 -1.5706999999999998
426 2.946117536379104 -1.562661999829789 1.4044138463320852 -2.122086861960698 -1.5102801122594143 -1.5707000000000007
427 2.9459649679773907 -1.5631234912832694 1.4053387772224115 -2.123332340536158 -1.5099260672002497 -1.5707000000000002
428 2.945812346005249 -1.5635854860678036 1.4062632768265793 -2.124575613049296 -1.5095724689318348 -1.5707000000000004
429 2.9456596729659505 -1.5640479809682524 1.407187325472351 -2.1258166847148288 -1.5092193185476082 -1.5707000000000002
430 2.9455069513627725 -1.5645109727694775 1.4081109034874921 -2.127055560747478 -1.508866617141009 -1.5707000000000004
431 2.9453541836989863 -1.56497445825634 1.409033991199766 -2.1282922463619625 -1.5085143658054765 -1.5707000000000002
432 2.945201372477867 -1.5654384342137024 1.4099565689369369 -2.129526746773002 -1.5081625656344488 -1.5707000000000004
433 2.9450485202026884 -1.5659028974264253 1.410878617026768 -2.130759067195315 -1.507811217721365 -1.5707000000000002
434 2.9448956293767257 -1.5663678446793705 1.4118001157970244 -2.1319892128436213 -1.507460323159664 -1.5707000000000007
435 2.9447427025032504 -1.5668332727573993 1.412721045575469 -2.1332171889326403 -1.5071098830427847 -1.5707
436 2.944589742085539 -1.5672991784453731 1.4136413866898663 -2.1344430006770923 -1.5067598984641661 -1.5707000000000002
437 2.944436750626865 -1.5677655585281545 1.4145611194679808 -2.1356666532916964 -1.5064103705172476 -1.5707000000000004
438 2.944283730630502 -1.5682324097906033 1.4154802242375755 -2.1368881519911715 -1.5060613002954666 -1.5707000000000002
439 2.9441306845997244 -1.5686997290175824 1.4163986813264149 -2.138107501990237 -1.5057126888922632 -1.5707000000000002
440 2.943977615037806 -1.5691675129939524 1.417316471062263 -2.139324708503613 -1.5053645374010758 -1.5707
441 2.9438245220516865 -1.569635765626605 1.4182335938070754 -2.140539774846759 -1.5050168463637323 -1.5707
442 2.943671396162971 -1.5701045193105492 1.4191501300595741 -2.141752696738097 -1.5046696141156162 -1.5707000000000002
443 2.9435182254969288 -1.5705738135628247 1.4200661803526722 -2.1429634679967884 -1.5043228384404999 -1.5707000000000004
444 2.9433649981788292 -1.57104368790047 1.4209818452192835 -2.1441720824419943 -1.5039765171221549 -1.5707
445 2.9432117023339432 -1.5715141818405254 1.421897225192322 -2.1453785338928784 -1.5036306479443537 -1.5706999999999998
446 2.9430583260875407 -1.5719853349000297 1.4228124208047015 -2.1465828161686016 -1.5032852286908691 -1.5707000000000007
447 2.9429048575648915 -1.5724571865960209 1.4237275325893344 -2.147784923088326 -1.5029402571454724 -1.5707000000000002
448 2.942751284891265 -1.5729297764455397 1.4246426610791352 -2.148984848471213 -1.5025957310919367 -1.5707000000000004
449 2.942597596191932 -1.5734031439656244 1.4255579068070168 -2.150182586136424 -1.5022516483140336 -1.5707000000000002
450 2.9424437795921614 -1.5738773286733148 1.4264733703058936 -2.151378129903123 -1.501908006595536 -1.5707000000000004
451 2.942289823217225 -1.5743523700856494 1.4273891521086786 -2.15257147359047 -1.5015648037202156 -1.5707000000000002
452 2.9421357151923915 -1.5748283077196683 1.4283053527482859 -2.153762611017628 -1.5012220374718448 -1.5707000000000004
453 2.9419814436429306 -1.5753051810924097 1.4292220727576281 -2.154951536003758 -1.5008797056341954 -1.5707000000000002
454 2.9418269966941133 -1.5757830297209137 1.4301394126696203 -2.1561382423680224 -1.5005378059910406 -1.5707000000000007
455 2.941672362471208 -1.5762618931222183 1.4310574730171741 -2.1573227239295827 -1.5001963363261515 -1.5707
456 2.9415175290994866 -1.5767418108133637 1.4319763543332047 -2.1585049745076015 -1.499855294423301 -1.5707000000000002
457 2.9413624847042183 -1.5772228223113895 1.4328961571506256 -2.1596849879212403 -1.4995146780662618 -1.5707000000000004
458 2.9412072174106725 -1.5777049671333334 1.4338169820023492 -2.160862757989661 -1.499174485038805 -1.5707000000000002
459 2.9410517153441194 -1.5781882847962354 1.43473892942129 -2.162038278532025 -1.4988347131247035 -1.5707000000000002
460 2.9408959666298298 -1.578672814817135 1.4356620999403615 -2.163211543367495 -1.4984953601077293 -1.5707
461 2.9407399682405138 -1.5791585707543732 1.4365865197632501 -2.164382553121889 -1.4981564258697395 -1.5707
462 2.9405837525386493 -1.5796454623315033 1.4375119177767335 -2.165551335647649 -1.4978179186849272 -1.5707000000000002
463 2.940427360734154 -1.5801333733133796 1.4384379485383632 -2.1667179256038738 -1.4974798489255703 -1.5707000000000004
464 2.9402708340369457 -1.5806221874648565 1.4393642666056887 -2.1678823576496615 -1.497142226963946 -1.5707
465 2.9401142136569423 -1.58111178855079 1.440290526536262 -2.1690446664441114 -1.4968050631723333 -1.5706999999999998
466 2.939957540804063 -1.5816020603360348 1.4412163828876337 -2.170204886646323 -1.4964683679230102 -1.5707000000000007
467 2.9398008566882243 -1.582092886585445 1.442141490217354 -2.171363052915393 -1.4961321515882535 -1.5707000000000002
468 2.9396442025193457 -1.5825841510638763 1.4430655030829744 -2.1725191999104214 -1.495796424540342 -1.5707000000000004
469 2.939487619507344 -1.5830757375361826 1.4439880760420454 -2.173673362290505 -1.4954611971515528 -1.5707000000000002
470 2.9393311488621383 -1.5835675297672203 1.444908863652118 -2.174825574714745 -1.4951264797941641 -1.5707000000000004
471 2.939174831793646 -1.5840594115218436 1.4458275204707425 -2.175975871842238 -1.494792282840454 -1.5707000000000002
472 2.939018709511787 -1.584551266564907 1.4467437010554707 -2.1771242883320836 -1.4944586166627005 -1.5707000000000004
473 2.9388628232264766 -1.585042978661266 1.4476570599638523 -2.17827085884338 -1.494125491633181 -1.5707000000000002
474 2.9387072141476347 -1.5855344315757753 1.4485672517534391 -2.1794156180352267 -1.4937929181241736 -1.5707000000000007
475 2.9385519234851776 -1.5860255090732895 1.4494739309817806 -2.18055860056672 -1.4934609065079558 -1.5707
476 2.938396992449026 -1.586516094918664 1.450376752206429 -2.1816998410969615 -1.4931294671568065 -1.5707000000000002
477 2.9382424622490975 -1.5870060728767539 1.4512753699849348 -2.1828393742850483 -1.4927986104430027 -1.5707000000000004
478 2.9380883740953077 -1.5874953267124132 1.452169438874848 -2.1839772347900785 -1.4924683467388224 -1.5707000000000002
479 2.937934769197577 -1.5879837401904975 1.4530586134337204 -2.185113457271152 -1.4921386864165436 -1.5707000000000002
480 2.9377816887658232 -1.5884711970758616 1.4539425482191024 -2.186248076387366 -1.4918096398484444 -1.5707
481 2.9376291408764525 -1.588957678850986 1.4548211757851 -2.187381101059784 -1.4914812096538945 -1.5707
482 2.9374770010718305 -1.5894435578688517 1.4556955406720402 -2.1885124372573226 -1.491153367440635 -1.5707000000000002
483 2.93732511176081 -1.5899293042000666 1.4565669654168063 -2.189641965210863 -1.4908260770634973 -1.5707000000000004
484 2.9371733153522426 -1.5904153879152363 1.4574367725562802 -2.1907695651512857 -1.490499302377314 -1.5707
485 2.937021454254984 -1.5909022790849692 1.4583062846273442 -2.1918951173094707 -1.490173007236918 -1.5706999999999998
486 2.936869370877887 -1.5913904477798717 1.4591768241668823 -2.1930185019163013 -1.489847155497142 -1.5707000000000007
487 2.9367169076298025 -1.59188036407055 1.4600497137117747 -2.194139599202655 -1.4895217110128172 -1.5707000000000002
488 2.936563906919587 -1.5923724980276124 1.4609262757989059 -2.195258289399415 -1.4891966376387777 -1.5707000000000004
489 2.9364102111560912 -1.5928673197216647 1.461807832965157 -2.1963744527374613 -1.4888718992298544 -1.5707000000000002
490 2.9362556627481697 -1.5933652992233147 1.4626957077474112 -2.1974879694476748 -1.488547459640881 -1.5707000000000004
491 2.9361001041046766 -1.593866906603169 1.463591222682551 -2.1985987197609367 -1.4882232827266895 -1.5707000000000002
492 2.9359433776344637 -1.5943726119318349 1.4644957003074592 -2.1997065839081267 -1.4878993323421124 -1.5707000000000004
493 2.9357853257463837 -1.5948828852799188 1.4654104631590177 -2.2008114421201266 -1.487575572341982 -1.5707000000000002
494 2.9356257908492926 -1.5953981967180284 1.4663368337741096 -2.2019131746278178 -1.4872519665811308 -1.5707000000000007
495 2.93546461535204 -1.5959190163167696 1.4672761346896164 -2.203011661662078 -1.4869284789143913 -1.5707
496 2.9353016416634823 -1.5964458141467501 1.4682296884424215 -2.2041067834537924 -1.486605073196596 -1.5707000000000002
497 2.935136712192472 -1.5969790602785774 1.469198817569408 -2.20519842023384 -1.486281713282578 -1.5707000000000004
498 2.934969669347861 -1.5975192247828573 1.4701848446074568 -2.2062864522331 -1.4859583630271684 -1.5707000000000002
499 2.9348003555385036 -1.5980667777301973 1.4711890920934514 -2.2073707596824548 -1.4856349862852007 -1.5707000000000002
500 2.9346286131732535 -1.598622189191205 1.4722128825642744 -2.2084512228127853 -1.4853115469115072 -1.5707
501 2.934454559944054 -1.5991854038231845 1.473256748794159 -2.209527768180735 -1.4849879840916922 -1.5707
502 2.9342794146752076 -1.599754264630235 1.4743180645067437 -2.210600507645999 -1.484664138334448 -1.5707000000000002
503 2.9341046714741097 -1.600326089203153 1.4753934136630176 -2.211669599394035 -1.4843398254792397 -1.5707000000000004
504 2.9339318244481527 -1.6008981951327348 1.476479380223969 -2.2127352016103004 -1.4840148613655304 -1.5707
505 2.9337623677047313 -1.6014679000097778 1.4775725481505884 -2.213797472480254 -1.4836890618327856 -1.5706999999999998
506 2.9335977953512407 -1.6020325214250786 1.4786695014038647 -2.214856570189355 -1.4833622427204698 -1.5707000000000007
507 2.933439601495071 -1.6025893769694328 1.479766823944786 -2.2159126529230586 -1.4830342198680466 -1.5707000000000002
508 2.93328928024362 -1.6031357842336387 1.480861099734343 -2.216965878866825 -1.4827048091149813 -1.5707000000000004
509 2.9331483257042783 -1.6036690608084916 1.4819489127335235 -2.2180164062061105 -1.4823738263007376 -1.5707000000000002
510 2.9330182319844424 -1.6041865242847893 1.4830268469033177 -2.2190643931263754 -1.4820410872647805 -1.5707000000000004
511 2.9329004931915046 -1.6046854922533276 1.4840914862047143 -2.220109997813075 -1.4817064078465738 -1.5707000000000002
512 2.93279660343286 -1.6051632823049042 1.485139414598703 -2.2211533784516697 -1.4813696038855828 -1.5707000000000004
513 2.9327080568159007 -1.6056172120303145 1.4861672160462722 -2.2221946932276153 -1.4810304912212706 -1.5707000000000002
514 2.932636347448022 -1.6060445990203567 1.4871714745084121 -2.223234100326372 -1.4806888856931029 -1.5707000000000007
515 2.932582969436616 -1.6064427608658258 1.4881487739461103 -2.224271757933395 -1.4803446031405432 -1.5707
516 2.9325494168890787 -1.60680901515752 1.4890956983203576 -2.2253078242341444 -1.479997459403057 -1.5707000000000002
517 2.9325371839128036 -1.6071406794862355 1.490008831592143 -2.2263424574140784 -1.4796472703201076 -1.5707000000000004
518 2.9325477646151836 -1.6074350714427683 1.4908847577224544 -2.2273758156586534 -1.47929385173116 -1.5707000000000002
519 2.932582653103612 -1.607689508617916 1.4917200606722822 -2.2284080571533287 -1.4789370194756783 -1.5707000000000002
520 2.9326433434854846 -1.6079013086024747 1.4925113244026154 -2.229439340083561 -1.4785765893931275 -1.5707
521 2.932730676333531 -1.6080687079876035 1.4932560938065111 -2.2304698045391578 -1.4782125321244848 -1.5707
522 2.9328428780818308 -1.6081936193659068 1.4939557575052995 -2.2314995182273134 -1.4778454375167827 -1.5707000000000002
523 2.9329775216297995 -1.6082788743303513 1.494612665052379 -2.232528530759574 -1.477476050218566 -1.5707000000000004
524 2.933132179876854 -1.6083273044739033 1.4952291660011476 -2.2335568917474813 -1.4771051148783798 -1.5707
525 2.933304425722411 -1.6083417413895293 1.4958076099050037 -2.2345846508025806 -1.4767333761447698 -1.5706999999999998
526 2.933491832065886 -1.6083250166701968 1.4963503463173464 -2.2356118575364166 -1.4763615786662818 -1.5707000000000007
527 2.9336919718066956 -1.6082799619088715 1.4968597247915727 -2.2366385615605315 -1.47599046709146 -1.5707000000000002
528 2.9339024178442563 -1.6082094086985204 1.4973380948810817 -2.2376648124864706 -1.4756207860688502 -1.5707000000000004
529 2.9341207430779828 -1.6081161886321094 1.497787806139271 -2.238690659925777 -1.4752532802469975 -1.5707000000000002
530 2.934344520407293 -1.6080031333026061 1.49821120811954 -2.2397161534899968 -1.4748886942744477 -1.5707000000000004
531 2.9345713227316037 -1.6078730743029768 1.4986106503752863 -2.2407413427906713 -1.4745277727997457 -1.5707000000000002
532 2.9347987229503287 -1.6077288432261878 1.498988482459908 -2.2417662774393468 -1.474171260471437 -1.5707000000000004
533 2.9350242939628863 -1.6075732716652054 1.4993470539268037 -2.242791007047565 -1.4738199019380664 -1.5707000000000002
534 2.935245608668693 -1.6074091912129973 1.499688714329372 -2.243815581226873 -1.47347444184818 -1.5707000000000007
535 2.935460239967162 -1.6072394334625286 1.50001581322101 -2.2448400495888112 -1.473135624850322 -1.5707
536 2.935665760757713 -1.607066830006767 1.5003307001551176 -2.245864461744926 -1.4728041955930389 -1.5707000000000002
537 2.935859743939762 -1.6068942124386787 1.5006357246850923 -2.2468888673067613 -1.4724808987248752 -1.5707000000000004
538 2.9360397624127224 -1.60672441235123 1.5009332363643326 -2.2479133158858606 -1.4721664788943762 -1.5707000000000002
539 2.9362033890760135 -1.6065602613373886 1.5012255847462364 -2.2489378570937677 -1.4718616807500877 -1.5707000000000002
540 2.9363481968290497 -1.6064045909901197 1.5015151193842022 -2.249962540542027 -1.4715672489405547 -1.5707
541 2.9364723843240634 -1.6062596201286732 1.5018038327000507 -2.2509873808380374 -1.4712836966328382 -1.5707
542 2.936576653224547 -1.6061251164774284 1.5020922885892913 -2.252012252572617 -1.4710106110680636 -1.5707000000000002
543 2.9366623309468087 -1.6060002349870481 1.502380693815856 -2.25303699533244 -1.4707473480058717 -1.5707000000000004
544 2.936730744907155 -1.6058841306081937 1.5026692551436758 -2.2540614487041766 -1.4704932632059022 -1.5707
545 2.936783222521895 -1.6057759582915279 1.502958179336683 -2.255085452274503 -1.4702477124277968 -1.5706999999999998
546 2.936821091207337 -1.605674872987713 1.5032476731588102 -2.2561088456300915 -1.4700100514311965 -1.5707000000000007
547 2.9368456783797874 -1.6055800296474105 1.5035379433739873 -2.2571314683576134 -1.4697796359757411 -1.5707000000000002
548 2.9368583114555546 -1.6054905832212831 1.5038291967461475 -2.258153160043744 -1.4695558218210725 -1.5707000000000004
549 2.936860317850947 -1.6054056886599928 1.5041216400392219 -2.2591737602751554 -1.4693379647268303 -1.5707000000000002
550 2.936853024982272 -1.6053245009142023 1.504415480017142 -2.2601931086385205 -1.4691254204526565 -1.5707000000000004
551 2.9368377602658375 -1.605246174934573 1.5047109234438407 -2.2612110447205134 -1.4689175447581913 -1.5707000000000002
552 2.936815851117952 -1.6051698656717683 1.505008177083249 -2.2622274081078064 -1.4687136934030753 -1.5707000000000004
553 2.936788624954922 -1.605094728076449 1.5053074476992983 -2.2632420383870726 -1.4685132221469495 -1.5707000000000002
554 2.936757409193057 -1.605019917099278 1.5056089420559213 -2.2642547751449857 -1.4683154867494548 -1.5707000000000007
555 2.9367235312486626 -1.604944587690917 1.5059128669170485 -2.265265457968218 -1.4681198429702313 -1.5707
556 2.9366883185380486 -1.604867894802029 1.5062194290466127 -2.266273926443443 -1.4679256465689208 -1.5707000000000002
557 2.936653098477523 -1.604788993383276 1.5065288352085457 -2.2672800201573344 -1.4677322533051638 -1.5707000000000004
558 2.9366191984833923 -1.6047070383853197 1.5068412921667784 -2.2682835786965643 -1.4675390189386002 -1.5707000000000002
559 2.9365879459719646 -1.6046211847588223 1.5071570066852429 -2.269284441647806 -1.467345299228872 -1.5707000000000002
560 2.9365606683595487 -1.6045305874544467 1.5074761855278715 -2.270282448597733 -1.4671504499356192 -1.5707
561 2.936538335883658 -1.6044346477110176 1.5077987914594937 -2.271277504089054 -1.4669539970448662 -1.5707
562 2.9365204900666297 -1.6043337519200154 1.508123811248534 -2.27226977248862 -1.46675614744817 -1.5707000000000002
563 2.9365063152520077 -1.6042285327610823 1.5084499876643138 -2.273259483119317 -1.466557278263472 -1.5707000000000004
564 2.9364949957833337 -1.604119622913861 1.5087760634761553 -2.274246865304031 -1.4663577666087113 -1.5707
565 2.9364857160041526 -1.6040076550579945 1.5091007814533817 -2.27523214836565 -1.46615798960183 -1.5706999999999998
566 2.9364776602580083 -1.6038932618731259 1.5094228843653148 -2.2762155616270596 -1.465958324360768 -1.5707000000000007
567 2.9364700128884427 -1.6037770760388972 1.5097411149812756 -2.277197334411147 -1.465759148003465 -1.5707000000000002
568 2.9364619582389997 -1.603659730234952 1.5100542160705883 -2.2781776960407973 -1.465560837647863 -1.5707000000000004
569 2.936452680653222 -1.6035418571409323 1.5103609304025734 -2.279156875838898 -1.4653637704119018 -1.5707000000000002
570 2.9364413644746548 -1.6034240894364817 1.5106600007465536 -2.280135103128335 -1.4651683234135224 -1.5707000000000004
571 2.93642719404684 -1.603307059801243 1.5109501698718517 -2.281112607231995 -1.4649748737706652 -1.5707000000000002
572 2.936409353713321 -1.6031914009148587 1.5112301805477895 -2.2820896174727663 -1.4647837986012708 -1.5707000000000004
573 2.9363870278176414 -1.6030777454569713 1.5114987755436888 -2.283066363173533 -1.464595475023279 -1.5707000000000002
574 2.9363594007033456 -1.6029667261072245 1.5117546976288727 -2.284043073657182 -1.464410280154632 -1.5707000000000007
575 2.936325656713975 -1.6028589755452596 1.5119966895726622 -2.2850199782466003 -1.4642285911132682 -1.5707
576 2.9362849801930735 -1.602755126450721 1.5122234941443806 -2.2859973062646746 -1.4640507850171303 -1.5707000000000002
577 2.936236555484186 -1.6026558115032508 1.5124338541133497 -2.286975287034292 -1.4638772389841581 -1.5707000000000004
578 2.936179566930854 -1.6025616633824917 1.5126265122488918 -2.2879541498783365 -1.4637083301322913 -1.5707000000000002
579 2.9361131988766216 -1.602473314768087 1.5128002113203285 -2.288934124119697 -1.4635444355794716 -1.5707000000000002
580 2.9360366356650323 -1.6023913983396785 1.512953694096983 -2.289915439081259 -1.4633859324436391 -1.5707
581 2.935949215573399 -1.6023166351055922 1.5130865506139333 -2.2908982250315773 -1.4632330581418171 -1.5707
582 2.935850892614114 -1.6022500993888784 1.5132017599692837 -2.291882216021878 -1.4630854912873599 -1.5707000000000002
583 2.935741774733337 -1.6021929538412716 1.5133031485268955 -2.292867047049054 -1.4629427707927039 -1.5707000000000004
584 2.93562196987723 -1.6021463611145044 1.5133945426506277 -2.2938523531099997 -1.4628044355702852 -1.5707
585 2.9354915859919544 -1.6021114838603112 1.5134797687043422 -2.294837769201609 -1.4626700245325412 -1.5706999999999998
586 2.935350731023673 -1.6020894847304255 1.5135626530519002 -2.2958229303207762 -1.4625390765919088 -1.5707000000000007
587 2.935199512918543 -1.6020815263765793 1.513647022057161 -2.2968074714643945 -1.4624111306608234 -1.5707000000000002
588 2.9350380396227296 -1.6020887714505077 1.513736702083986 -2.2977910276293576 -1.4622857256517234 -1.5707000000000004
589 2.934866419082392 -1.602112382603943 1.5138355194962356 -2.298773233812559 -1.462162400477044 -1.5707000000000002
590 2.934684759243692 -1.6021535224886194 1.5139473006577704 -2.2997537250108935 -1.4620406940492223 -1.5707000000000004
591 2.934493168052791 -1.6022133537562702 1.5140758719324516 -2.3007321362212547 -1.4619201452806951 -1.5707000000000002
592 2.934291753455851 -1.602293039058629 1.5142250596841393 -2.301708102440536 -1.4618002930838991 -1.5707000000000004
593 2.934080623399031 -1.6023937410474287 1.5143986902766942 -2.302681258665632 -1.4616806763712709 -1.5707000000000002
594 2.933859885828494 -1.6025166223744034 1.5146005900739772 -2.3036512398934352 -1.4615608340552475 -1.5707000000000007
595 2.9336296486904008 -1.602662845691286 1.5148345854398482 -2.3046176811208396 -1.461440305048264 -1.5707
596 2.933390019930913 -1.6028335736498103 1.515104502738169 -2.3055802173447404 -1.4613186282627593 -1.5707000000000002
597 2.933141107496192 -1.6030299689017105 1.5154141683327997 -2.3065384835620315 -1.461195342611169 -1.5707000000000004
598 2.932883019332398 -1.6032531940987185 1.5157674085876005 -2.3074921147696044 -1.4610699870059292 -1.5707000000000002
599 2.9326158633856925 -1.603504411892569 1.5161680498664327 -2.3084407459643552 -1.4609421003594774 -1.5707000000000002
600 2.9323397476022377 -1.6037847849349944 1.5166199185331568 -2.309384012143177 -1.4608112215842497 -1.5707
601 2.9320549112058574 -1.6040949878493587 1.5171255941146728 -2.3103216550707337 -1.4606769618268236 -1.5707
602 2.9317621185310294 -1.6044337431455387 1.5176826687900369 -2.311253843582775 -1.4605392211703343 -1.5707000000000002
603 2.931462265189894 -1.6047992853050421 1.5182874879013448 -2.3121808532828205 -1.4603979719320592 -1.5707000000000004
604 2.9311562467945893 -1.6051898488093748 1.5189363967906928 -2.313102959774388 -1.460253186429274 -1.5707
605 2.9308449589572585 -1.6056036681400452 1.519625740800176 -2.314020438660998 -1.4601048369792553 -1.5706999999999998
606 2.9305292972900423 -1.6060389777785606 1.520351865271891 -2.314933565546171 -1.45995289589928 -1.5707000000000007
607 2.930210157405078 -1.6064940122064266 1.5211111155479329 -2.315842616033424 -1.4597973355066232 -1.5707000000000002
608 2.929888434914508 -1.6069670059051513 1.521899836970398 -2.3167478657262777 -1.4596381281185622 -1.5707000000000004
609 2.929565025430472 -1.6074561933562412 1.5227143748813816 -2.317649590228252 -1.4594752460523728 -1.5707000000000002
610 2.9292408245651123 -1.6079598090412042 1.5235510746229797 -2.318548065142866 -1.4593086616253323 -1.5707000000000004
611 2.928916727930567 -1.6084760874415465 1.524406281537288 -2.319443566073638 -1.459138347154716 -1.5707000000000002
612 2.9285936311389777 -1.6090032630387756 1.525276340966403 -2.320336368624089 -1.4589642749578011 -1.5707000000000004
613 2.9282724298024836 -1.6095395703143982 1.5261575982524191 -2.321226748397737 -1.4587864173518632 -1.5707000000000002
614 2.9279540195332268 -1.610083243749922 1.5270463987374336 -2.322114980998103 -1.4586047466541796 -1.5707000000000007
615 2.927639295943345 -1.6106325178268528 1.5279390877635406 -2.3230013420287046 -1.458419235182025 -1.5707
616 2.9273291546449816 -1.6111856270266989 1.5288320106728372 -2.3238861070930623 -1.4582298552526773 -1.5707000000000002
617 2.9270244912502763 -1.6117408058309675 1.529721512807419 -2.3247695517946965 -1.4580365791834131 -1.5707000000000004
618 2.926726201371368 -1.6122962887211645 1.5306039395093816 -2.325651951737124 -1.4578393792915074 -1.5707000000000002
619 2.926435180620398 -1.6128503101787977 1.5314756361208206 -2.3265335825238664 -1.4576382278942375 -1.5707000000000002
620 2.9261523246095065 -1.613401104685374 1.5323329479838317 -2.3274147197584423 -1.4574330973088796 -1.5707
621 2.925878377931269 -1.6139472216914057 1.533173195757021 -2.3282955485932986 -1.4572239609527626 -1.5707
622 2.9256134810999987 -1.6144884705234241 1.533997601365033 -2.3291758923765906 -1.4570107966434263 -1.5707000000000002
623 2.9253576236104455 -1.6150249754769663 1.5348083620490223 -2.330055484005401 -1.4567935832984635 -1.5707000000000004
624 2.9251107949573547 -1.6155568608475686 1.5356076750501433 -2.330934056376812 -1.4565722998354662 -1.5707
625 2.9248729846354777 -1.6160842509307687 1.536397737609551 -2.3318113423879074 -1.4563469251720278 -1.5706999999999998
626 2.924644182139563 -1.6166072700221026 1.5371807469684 -2.33268707493577 -1.4561174382257407 -1.5707000000000007
627 2.924424376964356 -1.617126042417107 1.5379589003678444 -2.3335609869174805 -1.4558838179141966 -1.5707000000000002
628 2.9242135586046087 -1.6176406924113194 1.5387343950490393 -2.334432811230124 -1.4556460431549887 -1.5707000000000004
629 2.924011716555067 -1.618151344300275 1.5395094282531385 -2.3353022807707813 -1.455404092865709 -1.5707000000000002
630 2.923818840310481 -1.6186581223795125 1.5402861972212978 -2.3361691284365365 -1.4551579459639512 -1.5707000000000004
631 2.9236349193655977 -1.619161150944567 1.541066899194671 -2.337033087124472 -1.454907581367307 -1.5707000000000002
632 2.923459943215167 -1.6196605542909768 1.541853731414413 -2.33789388973167 -1.454652977993369 -1.5707000000000004
633 2.9232939013539365 -1.6201564567142772 1.5426488911216785 -2.3387512691552135 -1.4543941147597297 -1.5707000000000002
634 2.9231367832766555 -1.620648982510006 1.5434545755576214 -2.3396049582921856 -1.454130970583982 -1.5707000000000007
635 2.9229885784780705 -1.6211382559736989 1.544272981963397 -2.340454690039668 -1.4538635243837177 -1.5707
636 2.922849276452932 -1.6216244014008936 1.5451063075801597 -2.341300197294744 -1.45359175507653 -1.5707000000000002
637 2.9227188666959885 -1.622107543087127 1.5459567496490645 -2.342141212954497 -1.453315641580012 -1.5707000000000004
638 2.9225973387019866 -1.6225878053279346 1.5468265054112647 -2.3429774699160086 -1.4530351628117548 -1.5707000000000002
639 2.922484681965676 -1.6230653124188543 1.5477177721079165 -2.343808701076362 -1.452750297689352 -1.5707000000000002
640 2.922380885981805 -1.6235401886554228 1.5486327469801733 -2.34463463933264 -1.4524610251303958 -1.5707
641 2.922285959695675 -1.6240122881059165 1.5495725657204764 -2.3454551280132656 -1.4521673923416993 -1.5707
642 2.9221999898548017 -1.6244803839295727 1.550534117826411 -2.3462704521720235 -1.4518697196869594 -1.5707000000000002
643 2.922123082657253 -1.62494297905837 1.5515132312468476 -2.34708100729404 -1.4515683958190917 -1.5707000000000004
644 2.9220553443010964 -1.6253985764242844 1.5525057339306567 -2.3478871888644384 -1.451263809391013 -1.5707
645 2.921996880984401 -1.6258456789592948 1.5535074538267102 -2.348689392368345 -1.4509563490556403 -1.5706999999999998
646 2.921947798905236 -1.6262827895953786 1.554514218883879 -2.349488013290887 -1.4506464034658908 -1.5707000000000007
647 2.921908204261667 -1.6267084112645125 1.5555218570510334 -2.350283447117187 -1.45033436127468 -1.5707000000000002
648 2.921878203251765 -1.627121046898675 1.5565261962770451 -2.3510760893323708 -1.4500206111349254 -1.5707000000000004
649 2.9218579020735964 -1.6275191994298428 1.5575230645107847 -2.3518663354215645 -1.4497055416995435 -1.5707000000000002
650 2.92184740692523 -1.6279013717899944 1.5585082897011233 -2.352654580869893 -1.449389541621451 -1.5707000000000004
651 2.9218468240047346 -1.6282660669111069 1.559477699796932 -2.353441221162482 -1.4490729995535647 -1.5707000000000002
652 2.9218562595101787 -1.628611787725158 1.5604271227470818 -2.354226651784457 -1.4487563041488012 -1.5707000000000004
653 2.9218758196396286 -1.6289370371641245 1.5613523865004433 -2.3550112682209416 -1.448439844060077 -1.5707000000000002
654 2.9219056105911543 -1.6292403181599853 1.5622493190058881 -2.355795465957063 -1.448124007940309 -1.5707000000000007
655 2.9219457385628234 -1.629520133644717 1.563113748212286 -2.3565796404779444 -1.4478091844424137 -1.5707
656 2.9219963097527044 -1.6297749865502973 1.5639415020685101 -2.357364187268714 -1.447495762219308 -1.5707000000000002
657 2.9220574303588664 -1.6300033798087046 1.5647284085234294 -2.358149501814495 -1.447184129923909 -1.5707000000000004
658 2.922129206579376 -1.6302038163519152 1.5654702955259159 -2.358935979600413 -1.4468746762091322 -1.5707000000000002
659 2.922211744612302 -1.6303747991119073 1.5661629910248402 -2.3597240161115938 -1.4465677897278955 -1.5707000000000002
660 2.922305150655714 -1.6305148310206588 1.5668023229690737 -2.3605140068331627 -1.4462638591331147 -1.5707
661 2.922409316951883 -1.6306229997060262 1.5673853962215847 -2.3613062474033573 -1.445963232770517 -1.5707
662 2.9225232799199037 -1.6307007315793858 1.5679144233017326 -2.3621006340728674 -1.4456660977570672 -1.5707000000000002
663 2.9226458620230744 -1.630750037747993 1.568392893642975 -2.3628969632454955 -1.445372600902541 -1.5707000000000004
664 2.922775885724692 -1.6307729293191027 1.5688242966787684 -2.3636950313250424 -1.445082889016713 -1.5707
665 2.9229121734880557 -1.630771417399971 1.5692121218425705 -2.364494634715312 -1.4447971089093588 -1.5706999999999998
666 2.9230535477764636 -1.6307475130978537 1.569559858567839 -2.365295569820107 -1.4445154073902537 -1.5707000000000007
667 2.9231988310532127 -1.6307032275200048 1.5698709962880295 -2.366097633043227 -1.4442379312691724 -1.5707000000000002
668 2.923346845781602 -1.6306405717736812 1.5701490244366003 -2.366900620788477 -1.4439648273558907 -1.5707000000000004
669 2.923496414424929 -1.630561556966137 1.5703974324470078 -2.3677043294596567 -1.443696242460183 -1.5707000000000002
670 2.9236463594464936 -1.6304681942046286 1.57061970975271 -2.3685085554605707 -1.4434323233918251 -1.5707000000000004
671 2.9237955033095924 -1.6303624945964112 1.5708193457871638 -2.3693130951950194 -1.4431732169605922 -1.5707000000000002
672 2.923942668477524 -1.6302464692487406 1.570999829983826 -2.370117745066807 -1.442919069976259 -1.5707000000000004
673 2.9240866774135856 -1.6301221292688712 1.5711646517761537 -2.370922301479734 -1.442670029248601 -1.5707000000000002
674 2.9242263525810768 -1.6299914857640596 1.5713173005976044 -2.3717265608376037 -1.4424262415873939 -1.5707000000000007
675 2.9243605164432944 -1.6298565498415603 1.5714612658816351 -2.3725303195442167 -1.442187853802411 -1.5707
676 2.924487991463538 -1.6297193326086292 1.571600037061703 -2.373333374003377 -1.44195501270343 -1.5707000000000002
677 2.9246076001051047 -1.6295818451725226 1.5717371035712655 -2.3741355206188866 -1.4417278651002248 -1.5707000000000004
678 2.924718164831293 -1.629446098640494 1.571875954843779 -2.3749365557945468 -1.44150655780257 -1.5707000000000002
679 2.9248185081054 -1.6293141041198003 1.5720200803127016 -2.3757362759341607 -1.4412912376202418 -1.5707000000000002
680 2.924907452390726 -1.6291878727176963 1.5721729694114899 -2.3765344774415302 -1.4410820513630151 -1.5707
681 2.924984137006542 -1.6290689873557724 1.5723373892050387 -2.3773309941141796 -1.4408790686675002 -1.5707
682 2.9250489686960237 -1.6289573182129593 1.572513217283994 -2.3781258093245214 -1.4406820504776463 -1.5707000000000002
683 2.925102671058319 -1.6288523072825203 1.5726996088704397 -2.378918943838689 -1.4404906805642383 -1.5707000000000004
684 2.9251459676925777 -1.6287533965577194 1.5728957191864579 -2.379710418422817 -1.4403046426980604 -1.5707
685 2.925179582197949 -1.6286600280318229 1.5731007034541336 -2.380500253843039 -1.440123620649898 -1.5706999999999998
686 2.925204238173582 -1.6285716436980948 1.57331371689555 -2.3812884708654902 -1.4399472981905355 -1.5707000000000007
687 2.925220659218625 -1.628487685549799 1.5735339147327894 -2.3820750902563033 -1.439775359090757 -1.5707000000000002
688 2.9252295689322283 -1.6284075955802007 1.5737604521879371 -2.3828601327816137 -1.4396074871213476 -1.5707000000000004
689 2.92523169091354 -1.628330815782564 1.573992484483075 -2.3836436192075543 -1.4394433660530916 -1.5707000000000002
690 2.92522774876171 -1.6282567881501537 1.5742291668402872 -2.38442557030026 -1.4392826796567737 -1.5707000000000004
691 2.925218466075887 -1.6281849546762344 1.5744696544816577 -2.385206006825865 -1.4391251117031791 -1.5707000000000002
692 2.9252045664552204 -1.6281147573540709 1.5747131026292696 -2.3859849495505037 -1.438970345963092 -1.5707000000000004
693 2.925186773498859 -1.628045638176927 1.5749586665052058 -2.3867624192403096 -1.4388180662072965 -1.5707000000000002
694 2.9251658108059524 -1.6279770391380686 1.575205501331551 -2.387538436661417 -1.438667956206578 -1.5707000000000007
695 2.9251424019756485 -1.6279084022307582 1.5754527623303871 -2.3883130225799585 -1.4385196997317204 -1.5707
696 2.9251172706070983 -1.6278391694482623 1.5756996047237988 -2.389086197762071 -1.4383729805535093 -1.5707000000000002
697 2.9250911402994504 -1.627768782783845 1.57594518373387 -2.3898579829738877 -1.4382274824427286 -1.5707000000000004
698 2.9250647346518526 -1.62769668423077 1.5761886545826824 -2.3906283989815416 -1.438082889170163 -1.5707000000000002
699 2.925038777263455 -1.6276223157823024 1.5764291724923214 -2.3913974665511675 -1.4379388845065972 -1.5707000000000002
700 2.9250139917334073 -1.6275451194317072 1.5766658926848691 -2.3921652064489 -1.4377951522228158 -1.5707
701 2.924990941864325 -1.6274646831074362 1.5768981561401187 -2.39293163697208 -1.4376514388475568 -1.5707
702 2.9249695522726964 -1.6273811784786936 1.577126046868697 -2.3936967665428766 -1.437507741941371 -1.5707000000000002
703 2.924949587778477 -1.6272949231498703 1.5773498346389412 -2.3944606011146674 -1.437364121822763 -1.5707000000000004
704 2.9249308132016196 -1.6272062347253577 1.5775697892191864 -2.395223146640828 -1.4372206388102362 -1.5707
705 2.924912993362082 -1.6271154308095477 1.5777861803777697 -2.395984409074736 -1.4370773532222958 -1.5706999999999998
706 2.9248958930798183 -1.627022829006832 1.577999277883028 -2.3967443943697693 -1.4369343253774458 -1.5707000000000007
707 2.924879277174782 -1.6269287469216016 1.5782093515032958 -2.3975031084793015 -1.4367916155941898 -1.5707000000000002
708 2.9248629104669304 -1.626833502158248 1.5784166710069105 -2.398260557356712 -1.436649284191033 -1.5707000000000004
709 2.9248465577762164 -1.6267374123211626 1.5786215061622084 -2.3990167469553763 -1.4365073914864785 -1.5707000000000002
710 2.924829983922597 -1.6266407950147372 1.5788241267375258 -2.3997716832286713 -1.4363659977990315 -1.5707000000000004
711 2.924812953726027 -1.626543967843363 1.5790248025011993 -2.400525372129974 -1.4362251634471963 -1.5707000000000002
712 2.9247952320064603 -1.6264472484114323 1.5792238032215644 -2.401277819612661 -1.4360849487494762 -1.5707000000000004
713 2.924776583583852 -1.626350954323335 1.579421398666958 -2.402029031630109 -1.4359454140243761 -1.5707000000000002
714 2.9247567732781588 -1.626255403183464 1.5796178586057164 -2.402779014135695 -1.4358066195904005 -1.5707000000000007
715 2.9247355659093333 -1.6261609125962095 1.5798134528061745 -2.4035277730827946 -1.4356686257660525 -1.5707
716 2.9247127262973325 -1.626067800165964 1.5800084510366708 -2.404275314424786 -1.4355314928698375 -1.5707000000000002
717 2.9246880192621116 -1.6259763834971193 1.580203123065541 -2.4050216441150454 -1.4353952812202597 -1.5707000000000004
718 2.9246612096236237 -1.6258869801940654 1.5803977386611199 -2.405766768106949 -1.4352600511358222 -1.5707000000000002
719 2.9246320622018254 -1.625799907861195 1.5805925675917454 -2.406510692353874 -1.4351258629350307 -1.5707000000000002
720 2.9246003418166717 -1.6257154841028991 1.5807878796257528 -2.4072534228091973 -1.4349927769363884 -1.5707
721 2.924565942843332 -1.6256338596734228 1.5809838635875562 -2.4079949560587814 -1.434860817021468 -1.5707
722 2.9245292778778413 -1.6255545179264221 1.5811803845258734 -2.4087352512184323 -1.4347298613241146 -1.5707000000000002
723 2.9244908890714463 -1.6254767753654085 1.5813772265455013 -2.409474258036442 -1.4345997515412414 -1.5707000000000004
724 2.924451318575395 -1.625399948493891 1.581574173751234 -2.410211926261101 -1.4344703293697612 -1.5707
725 2.9244111085409368 -1.625323353815381 1.5817710102478693 -2.410948205640702 -1.4343414365065874 -1.5706999999999998
726 2.9243708011193212 -1.6252463078333885 1.581967520140202 -2.4116830459235383 -1.4342129146486333 -1.5707000000000007
727 2.9243309384617944 -1.6251681270514227 1.5821634875330268 -2.4124163968578998 -1.4340846054928114 -1.5707000000000002
728 2.9242920627196063 -1.6250881279729947 1.5823586965311407 -2.4131482081920783 -1.4339563507360353 -1.5707000000000004
729 2.9242547160440036 -1.6250056271016144 1.5825529312393387 -2.413878429674367 -1.4338279920752177 -1.5707000000000002
730 2.9242194405862367 -1.6249199409407926 1.5827459757624172 -2.4146070110530573 -1.4336993712072725 -1.5707000000000004
731 2.9241867784975533 -1.6248303859940385 1.5829376142051712 -2.41533390207644 -1.4335703298291123 -1.5707000000000002
732 2.924157271929202 -1.6247362787648636 1.5831276306723974 -2.416059052492808 -1.4334407096376505 -1.5707000000000004
733 2.9241314630324293 -1.6246369357567774 1.5833158092688906 -2.416782412050453 -1.4333103523297999 -1.5707000000000002
734 2.9241098939584873 -1.6245316734732898 1.583501934099447 -2.417503930497667 -1.433179099602474 -1.5707000000000007
735 2.9240931068586207 -1.6244198084179111 1.5836857892688614 -2.4182235575827407 -1.433046793152585 -1.5707
736 2.9240816438840804 -1.6243006570941523 1.5838671588819306 -2.4189412430539674 -1.4329132746770474 -1.5707000000000002
737 2.9240760471861145 -1.624173536005523 1.5840458270434505 -2.4196569366596385 -1.432778385872774 -1.5707000000000004
738 2.92407685891597 -1.6240377616555335 1.5842215778582158 -2.4203705881480446 -1.4326419684366771 -1.5707000000000002
739 2.9240846212248965 -1.623892650547694 1.5843941954310228 -2.4210821472674797 -1.4325038640656707 -1.5707000000000002
740 2.924099876264142 -1.6237375191855148 1.584563463866667 -2.4217915637662344 -1.4323639144566676 -1.5707
741 2.924122765334213 -1.623572202653016 1.5847293042083517 -2.422498829659407 -1.4322220745881458 -1.5707
742 2.9241518263326443 -1.623398610356255 1.5848921852529096 -2.423204106029326 -1.432078752564843 -1.5707000000000002
743 2.9241851963062295 -1.6232191702818004 1.5850527127355807 -2.4239075962251238 -1.4319344697730623 -1.5707000000000004
744 2.9242210123017607 -1.6230363104162189 1.585211492391604 -2.424609503595934 -1.431789747599106 -1.5707
745 2.924257411366033 -1.622852458746079 1.5853691299562211 -2.425310031490891 -1.4316451074292769 -1.5706999999999998
746 2.9242925305458387 -1.622670043257949 1.5855262311646707 -2.426009383259129 -1.4315010706498783 -1.5707000000000007
747 2.9243245068879697 -1.622491491938395 1.5856834017521932 -2.42670776224978 -1.431358158647212 -1.5707000000000002
748 2.9243514774392207 -1.622319232773986 1.5858412474540287 -2.4274053718119806 -1.431216892807581 -1.5707000000000004
749 2.924371579246384 -1.6221556937512884 1.5860003740054167 -2.428102415294862 -1.431077794517288 -1.5707000000000002
750 2.924382949356253 -1.6220033028568717 1.5861613871415978 -2.4287990960475594 -1.430941385162636 -1.5707000000000004
751 2.924383724815621 -1.6218644880773023 1.5863248925978113 -2.4294956174192057 -1.4308081861299276 -1.5707000000000002
752 2.9243720426712816 -1.6217416773991487 1.5864914961092984 -2.4301921827589363 -1.4306787188054655 -1.5707000000000004
753 2.9243460399700263 -1.6216372988089778 1.5866618034112974 -2.4308889954158825 -1.4305535045755517 -1.5707000000000002
754 2.92430385375865 -1.6215537802933582 1.5868364202390497 -2.4315862587391806 -1.4304330648264902 -1.5707000000000007
755 2.9242436210839435 -1.6214935498388563 1.5870159523277938 -2.432284176077962 -1.4303179209445824 -1.5707
756 2.924163478992703 -1.6214590354320413 1.5872010054127712 -2.432982950781362 -1.4302085943161322 -1.5707000000000002
757 2.92406156453172 -1.6214526650594805 1.5873921852292217 -2.433682786198515 -1.4301056063274418 -1.5707000000000004
758 2.923936014747787 -1.621476866707741 1.5875900975123838 -2.434383885678553 -1.4300094783648134 -1.5707000000000002
759 2.9237849666876983 -1.6215340683633916 1.5877953479974989 -2.435086452570611 -1.4299207318145504 -1.5707000000000002
760 2.9236065573982466 -1.621626698012999 1.5880085424198063 -2.4357906902238216 -1.429839888062955 -1.5707
761 2.9233995894400553 -1.6217564833827878 1.5882303032577607 -2.436496718467999 -1.4297672295985593 -1.5707
762 2.923165527429073 -1.621922351157609 1.5884613199626718 -2.4372043230556693 -1.4297020833188105 -1.5707000000000002
763 2.922906501495075 -1.6221225277619706 1.5887022987290649 -2.4379132062200384 -1.4296435372233853 -1.5707000000000004
764 2.9226246417678396 -1.622355239620379 1.588953945751463 -2.4386230701943106 -1.4295906793119586 -1.5707
765 2.9223220783771455 -1.6226187131573429 1.5892169672243919 -2.439333617211694 -1.4295425975842075 -1.5706999999999998
766 2.92200094145277 -1.6229111747973697 1.589492069342376 -2.4400445495053944 -1.4294983800398091 -1.5707000000000007
767 2.921663361124489 -1.6232308509649656 1.5897799582999386 -2.4407555693086147 -1.429457114678438 -1.5707000000000002
768 2.921311467522082 -1.6235759680846393 1.5900813402916056 -2.441466378854564 -1.4294178894997722 -1.5707000000000004
769 2.920947390775326 -1.6239447525808979 1.5903969215119005 -2.4421766803764453 -1.4293797925034863 -1.5707000000000002
770 2.9205732610139976 -1.6243354308782492 1.5907274081553482 -2.442886176107466 -1.429341911689258 -1.5707000000000004
771 2.920191208367876 -1.6247462294012005 1.591073506416473 -2.443594568280831 -1.4293033350567625 -1.5707000000000002
772 2.919803362966739 -1.6251753745742596 1.5914359224897996 -2.4443015591297472 -1.4292631506056772 -1.5707000000000004
773 2.919411854940362 -1.6256210928219337 1.591815362569852 -2.445006850887419 -1.4292204463356768 -1.5707000000000002
774 2.9190188144185245 -1.6260816105687306 1.5922125328511554 -2.445710145787053 -1.4291743102464394 -1.5707000000000007
775 2.9186263715310026 -1.626555154239157 1.592628139528233 -2.4464111460618536 -1.4291238303376392 -1.5707
776 2.9182366564075752 -1.6270399502577215 1.5930628887956106 -2.4471095539450296 -1.429068094608954 -1.5707000000000002
777 2.9178517991780204 -1.6275342250489315 1.5935174868478126 -2.447805071669784 -1.4290061910600602 -1.5707000000000004
778 2.9174739299721137 -1.6280362050372936 1.593992639879362 -2.4484974014693233 -1.4289372076906328 -1.5707000000000002
779 2.917105178919635 -1.6285441166473162 1.594489054084785 -2.449186245576853 -1.4288602325003492 -1.5707000000000002
780 2.91674767615036 -1.6290561863035065 1.595007435658605 -2.4498713062255795 -1.428774353488885 -1.5707
781 2.9164031885359885 -1.6295708566580813 1.5955482961192797 -2.450552334252952 -1.4286788484353343 -1.5707
782 2.9160720299159055 -1.6300874352740933 1.5961113682809969 -2.4512292749133975 -1.4285737542364576 -1.5707000000000002
783 2.9157541508714178 -1.6306054459423056 1.596696190281878 -2.4519021220655857 -1.4284592975684354 -1.5707000000000004
784 2.9154495019838294 -1.6311244124534798 1.597302300260042 -2.4525708695681865 -1.428335705107445 -1.5707
785 2.915158033834448 -1.6316438585983786 1.5979292363536115 -2.4532355112798707 -1.4282032035296661 -1.5706999999999998
786 2.9148796970045807 -1.6321633081677647 1.5985765367007072 -2.453896041059309 -1.4280620195112779 -1.5707000000000007
787 2.9146144420755307 -1.6326822849523992 1.599243739439449 -2.4545524527651703 -1.4279123797284579 -1.5707000000000002
788 2.9143622196286065 -1.6332003127430452 1.5999303827079578 -2.4552047402561272 -1.4277545108573864 -1.5707000000000004
789 2.914122980245114 -1.633716915330465 1.6006360046443544 -2.455852897390847 -1.4275886395742408 -1.5707000000000002
790 2.913896674506358 -1.6342316165054211 1.6013601433867604 -2.456496918028002 -1.4274149925552013 -1.5707000000000004
791 2.9136832529936463 -1.6347439400586752 1.6021023370732956 -2.4571367960262616 -1.4272337964764463 -1.5707000000000002
792 2.913482666288285 -1.6352534097809905 1.6028621238420815 -2.457772525244297 -1.4270452780141543 -1.5707000000000004
793 2.9132948649715793 -1.6357595494631285 1.603639041831238 -2.4584040995407777 -1.4268496638445045 -1.5707000000000002
794 2.9131197996248357 -1.636261882895852 1.6044326291788868 -2.459031512774374 -1.4266471806436758 -1.5707000000000007
795 2.91295742082936 -1.6367599338699224 1.6052424240231478 -2.459654758803756 -1.4264380550878462 -1.5707
796 2.9128076791664586 -1.6372532261761035 1.6060679645021423 -2.4602738314875943 -1.4262225138531959 -1.5707000000000002
797 2.912670525217439 -1.637741283605157 1.6069087887539915 -2.4608887246845605 -1.426000783615903 -1.5707000000000004
798 2.9125459095636055 -1.6382236299478445 1.607764434916815 -2.461499432253322 -1.4257730910521464 -1.5707000000000002
799 2.9124337827862643 -1.6386997889949289 1.6086344411287345 -2.4621059480525513 -1.4255396628381047 -1.5707000000000002
800 2.912334095466723 -1.6391692845371728 1.6095183455278708 -2.462708265940918 -1.4253007256499572 -1.5707
801 2.912246767671059 -1.6396315416257528 1.6104152134787575 -2.463306435086662 -1.4250565483609998 -1.5707
802 2.912171597404436 -1.640085590353504 1.6113222192515815 -2.4639007258963 -1.4248075686329968 -1.5707000000000002
803 2.9121083521567934 -1.6405303620736769 1.6122360643429428 -2.4644914640859223 -1.4245542663248303 -1.5707000000000004
804 2.912056799418065 -1.64096478813952 1.6131534502494405 -2.465078975371613 -1.424297121295381 -1.5707
805 2.912016706678189 -1.6413877999042845 1.6140710784676755 -2.465663585469461 -1.4240366134035312 -1.5706999999999998
806 2.911987841427104 -1.6417983287212206 1.614985650494248 -2.466245620095554 -1.4237732225081632 -1.5707000000000007
807 2.911969971154743 -1.6421953059435768 1.615893867825756 -2.466825404965978 -1.4235074284681568 -1.5707000000000002
808 2.911962863351046 -1.6425776629246034 1.6167924319588014 -2.4674032657968223 -1.4232397111423958 -1.5707000000000004
809 2.911966285505948 -1.6429443310175504 1.6176780443899832 -2.467979528304172 -1.4229705503897598 -1.5707000000000002
810 2.9119800051093865 -1.6432942415756682 1.6185474066159014 -2.468554518204117 -1.422700426069132 -1.5707000000000004
811 2.9120037896512985 -1.6436263259522057 1.6193972201331563 -2.4691285612127425 -1.422429818039393 -1.5707000000000002
812 2.9120374066216215 -1.643939515500414 1.6202241864383475 -2.469701983046137 -1.4221592061594255 -1.5707000000000004
813 2.91208062351029 -1.6442327415735416 1.6210250070280747 -2.470275109420388 -1.42188907028811 -1.5707000000000002
814 2.9121332078072433 -1.6445049355248393 1.6217963833989382 -2.4708482660515823 -1.4216198902843291 -1.5707000000000007
815 2.9121949270024157 -1.6447550287075563 1.6225350170475372 -2.4714217786558064 -1.4213521460069631 -1.5707
816 2.9122655485857463 -1.6449819524749432 1.6232376094704726 -2.4719959729491494 -1.421086317314895 -1.5707000000000002
817 2.912344840047172 -1.6451846381802497 1.6239008621643443 -2.4725711746476984 -1.4208228840670067 -1.5707000000000004
818 2.9124325688766266 -1.6453620171767254 1.624521476625751 -2.47314770946754 -1.4205623261221783 -1.5707000000000002
819 2.91252850256405 -1.6455130208176199 1.6250961543512936 -2.4737259031247616 -1.4203051233392923 -1.5707000000000002
820 2.9126324085993778 -1.6456365804561837 1.625621596837572 -2.4743060813354507 -1.4200517555772303 -1.5707
821 2.9127439398906674 -1.6457320993297153 1.62609559175772 -2.474888483878074 -1.419802630772356 -1.5707
822 2.9128622910184596 -1.6458008682117085 1.6265202714910114 -2.47547300678061 -1.41955786917096 -1.5707000000000002
823 2.9129865419814136 -1.645844649759706 1.6268988545932535 -2.4760594601334165 -1.4193175190968164 -1.5707000000000004
824 2.9131157727781907 -1.64586520663125 1.6272345596202518 -2.4766476540268507 -1.4190816288736972 -1.5707
825 2.913249063407451 -1.6458643014838836 1.6275306051278162 -2.4772373985512712 -1.4188502468253759 -1.5706999999999998
826 2.9133854938678563 -1.6458436969751504 1.6277902096717536 -2.4778285037970362 -1.4186234212756264 -1.5707000000000007
827 2.9135241441580653 -1.6458051557625915 1.62801659180787 -2.4784207798545013 -1.4184012005482203 -1.5707000000000002
828 2.91366409427674 -1.6457504405037509 1.628212970091974 -2.4790140368140268 -1.4181836329669317 -1.5707000000000004
829 2.9138044242225396 -1.64568131385617 1.6283825630798725 -2.4796080847659687 -1.4179707668555332 -1.5707000000000002
830 2.9139442139941267 -1.6455995384773923 1.6285285893273733 -2.4802027338006853 -1.4177626505377983 -1.5707000000000004
831 2.9140825435901596 -1.6455068770249603 1.6286542673902837 -2.4807977940085344 -1.4175593323375 -1.5707000000000002
832 2.914218493009301 -1.6454050921564172 1.6287628158244112 -2.4813930754798745 -1.4173608605784112 -1.5707000000000004
833 2.914351142250209 -1.6452959465293049 1.6288574531855624 -2.4819883883050613 -1.417167283584305 -1.5707000000000002
834 2.914479571311547 -1.6451812028011665 1.628941398029546 -2.4825835425744542 -1.416978649678955 -1.5707000000000007
835 2.9146028601919722 -1.6450626236295438 1.6290178689121677 -2.48317834837841 -1.4167950071861335 -1.5707
836 2.9147200888901486 -1.644941971671981 1.6290900843892366 -2.4837726158072875 -1.416616404429614 -1.5707000000000002
837 2.914830337404735 -1.6448210095860205 1.6291612630165597 -2.484366154951444 -1.4164428897331698 -1.5707000000000004
838 2.9149326857343913 -1.6447015000292038 1.6292346233499437 -2.484958775901237 -1.4162745114205733 -1.5707000000000002
839 2.915026213877779 -1.6445852056590744 1.6293133839451965 -2.4855502887470244 -1.4161113178155982 -1.5707000000000002
840 2.915110001833559 -1.644473889133175 1.6294007633581256 -2.4861405035791635 -1.4159533572420178 -1.5707
841 2.915183380674303 -1.6443689441304266 1.6294993113257612 -2.48672926722647 -1.415800627234927 -1.5707
842 2.9152466857682326 -1.6442702884152611 1.6296089023100275 -2.4873165734715843 -1.415652922174713 -1.5707000000000002
843 2.91530050355748 -1.6441774707734909 1.6297287419540711 -2.4879024528356077 -1.4155099856530844 -1.5707000000000004
844 2.915345420484177 -1.644090039990926 1.6298580359010386 -2.4884869358396373 -1.4153715612617495 -1.5707
