lar-deeufba/potential_fields_with_aruco/src/custom_codes/csv_files/csv_to_eps/csv_files/joint_AAPF_OriOFF.csv
Index Joint1 Joint2 Joint3 Joint4 Joint5 Joint6
0 3.14 -1.5707 0.0 -1.5707 -1.5707 -1.5707
1 3.139318617769042 -1.5696891801148605 0.01899307504802738 -1.5678550842473555 -1.571092624299303 -1.5707
2 3.1386292846905866 -1.5686768119772594 0.03807045627444851 -1.5650342601772027 -1.5714876587662614 -1.5707
3 3.1379318077448715 -1.5676629829720445 0.05722795148450389 -1.5622388061753505 -1.5718851771533697 -1.5707
4 3.1372259877754702 -1.566647782965842 0.07646116214524253 -1.5594700333008389 -1.5722852559520502 -1.5707
5 3.1365116193574116 -1.565631304416295 0.09576547414082534 -1.5567292861216153 -1.5726879744130953 -1.5707
6 3.135788490683539 -1.5646136424982235 0.11513604791246382 -1.5540179435811905 -1.5730934145528388 -1.5707
7 3.135056383473764 -1.5635948952488483 0.13456780794310436 -1.5513374198935133 -1.5735016611423955 -1.5707
8 3.1343150729126115 -1.5625751637344074 0.1540554315476105 -1.5486891654619532 -1.5739128016769441 -1.5707
9 3.1335643276212983 -1.561554552240673 0.17359333693086593 -1.5460746678166293 -1.574326926321609 -1.5707
10 3.13280390967153 -1.560533168490061 0.19317567047920642 -1.5434954525623221 -1.574744127830042 -1.5707
11 3.1320335746492645 -1.5595111238881934 0.21279629325523908 -1.5409530843268013 -1.575164501431291 -1.5707
12 3.1312530717778553 -1.5584885338029255 0.2324487666728336 -1.5384491676965255 -1.5755881446799962 -1.5707
13 3.1304621441113 -1.5574655178789745 0.2521263373383716 -1.5359853481232608 -1.5760151572643455 -1.5707
14 3.1296605288097217 -1.5564422003913594 0.27182192105679676 -1.5335633127811423 -1.5764456407655745 -1.5707
15 3.1288479575107635 -1.5554187106408899 0.29152808601730046 -1.5311847913489882 -1.57687969836211 -1.5707
16 3.128024156812206 -1.5543951833948653 0.3112370351943895 -1.5288515566872019 -1.5773174344707397 -1.5707
17 3.127188848882854 -1.5533717593759793 0.33094058802650383 -1.5265654253722722 -1.5777589543164503 -1.5707
18 3.126341752220529 -1.5523485858021018 0.3506301614672826 -1.5243282580446502 -1.578204363421855 -1.5707
19 3.12548258257778 -1.5513258169791135 0.3702967505451009 -1.5221419595175782 -1.5786537670064247 -1.5707
20 3.124611054077684 -1.5503036149482379 0.3899309086157878 -1.5200084785852654 -1.5791072692851156 -1.5707
21 3.123726880543671 -1.5492821501883074 0.40952272755267044 -1.5179298074586265 -1.5795649726554741 -1.5707
22 3.122829777068651 -1.5482616023720495 0.4290618181884377 -1.515907980745724 -1.5800269767619806 -1.5707
23 3.121919461849614 -1.547242161173721 0.4485372914057976 -1.5139450738822116 -1.5804933774263252 -1.5707
24 3.1209956583141745 -1.5462240271231853 0.46793774036929203 -1.5120432009047065 -1.5809642654326181 -1.5707
25 3.120058097564987 -1.5452074124987425 0.48725122449924424 -1.5102045114475384 -1.5814397251573054 -1.5707
26 3.1191065211663065 -1.5441925422476381 0.5064652559102966 -1.5084311868312406 -1.5819198330349564 -1.5707
27 3.118140684293854 -1.5431796549191121 0.5255667891700164 -1.5067254351002555 -1.5824046558532396 -1.5707
28 3.117160359264261 -1.5421690035901097 0.5445422153749496 -1.5050894848586067 -1.582894248873487 -1.5707
29 3.116165339453289 -1.541160856758343 0.5633773616878908 -1.5035255777469847 -1.5833886537774289 -1.5707
30 3.1151554436023674 -1.5401554991713429 0.5820574976244656 -1.5020359594043804 -1.5838878964461238 -1.5707
31 3.1141305205004537 -1.5391532325536095 0.600567349510235 -1.500622868763858 -1.5843919845839403 -1.5707
32 3.113090454012449 -1.538154376187184 0.6188911246393654 -1.4992885255473516 -1.5849009052087655 -1.5707
33 3.1120351684063445 -1.5371592672942855 0.637012546737282 -1.4980351158506617 -1.5854146220394014 -1.5707
34 3.1109646339089685 -1.5361682611645529 0.6549149043444809 -1.4968647757492783 -1.585933072822258 -1.5707
35 3.109878872395066 -1.53518173096455 0.672581113676216 -1.4957795729101449 -1.5864561666516803 -1.5707
36 3.1087779630872765 -1.5342000671642806 0.6899937973512575 -1.4947814862653388 -1.5869837813510694 -1.5707
37 3.1076620481166053 -1.5332236765154095 0.7071353801010556 -1.4938723838912273 -1.5875157609946724 -1.5707
38 3.106531337766066 -1.5322529805196157 0.7239882021504747 -1.493053999339928 -1.5880519136615785 -1.5707
39 3.1053861151965383 -1.5312884133339184 0.7405346503915234 -1.4923279067859951 -1.5885920095228883 -1.5707
40 3.1042267404363177 -1.5303304190736393 0.7567573067515827 -1.491695495475098 -1.5891357793688776 -1.5707
41 3.103053653407334 -1.5293794484933196 0.7726391123016434 -1.4911579440856384 -1.5896829136838546 -1.5707
42 3.1018673757644715 -1.5284359550513478 0.7881635446901556 -1.4907161957290669 -1.5902330623709855 -1.5707
43 3.1006685113424504 -1.527500390394557 0.8033148054763656 -1.490370934408647 -1.5907858352166093 -1.5707
44 3.099457745038875 -1.5265731993332305 0.8180780129448533 -1.4901225638173043 -1.5913408031629488 -1.5707
45 3.098235840012675 -1.5256548144125908 0.8324393950970973 -1.4899711893712486 -1.59189750042984 -1.5707
46 3.097003633142792 -1.5247456502211325 0.8463864768307514 -1.489916604337826 -1.5924554274912026 -1.5707
47 3.095762028769299 -1.5238460976058372 0.8599082549242024 -1.4899582808180838 -1.5930140548724125 -1.5707
48 3.094511990822991 -1.522956517986057 0.8729953544180293 -1.4900953661869527 -1.593572827693311 -1.5707
49 3.0932545335333304 -1.5220772379687897 0.8856401603721339 -1.4903266853833936 -1.5941311708416757 -1.5707
50 3.09199071098115 -1.5212085444661332 0.8978369197838331 -1.4906507491924381 -1.5946884946271271 -1.5707
51 3.09072160582465 -1.5203506805000875 0.9095818096392227 -1.4910657683894086 -1.5952442007389902 -1.5707
52 3.0894483175690923 -1.5195038418512714 0.9208729685549579 -1.4915696733457473 -1.5957976883161256 -1.5707
53 3.08817195076832 -1.5186681746686221 0.9317104911323174 -1.4921601384485523 -1.5963483599336614 -1.5707
54 3.086893603538559 -1.5178437741101432 0.9420963858514491 -1.4928346104825088 -1.596895627321028 -1.5707
55 3.0856143567333505 -1.5170306840343606 0.9520344989399024 -1.4935903399788926 -1.5974389166465117 -1.5707
56 3.0843352640768344 -1.5162288977126896 0.9615304080304697 -1.494424414460416 -1.5979776732333961 -1.5707
57 3.0830573434866175 -1.5154383594883902 0.9705912904841043 -1.4953337925041277 -1.5985113656085312 -1.5707
58 3.0817815697437716 -1.5146589672713535 0.9792257719392473 -1.496315337601633 -1.5990394888224917 -1.5707
59 3.080508868592683 -1.5138905757316314 0.9874437609465372 -1.4973658509053065 -1.599561567018083 -1.5707
60 3.079240112283383 -1.5131330000391954 0.9952562754832517 -1.4984821020961752 -1.6000771552580937 -1.5707
61 3.0779761165080637 -1.512386019992525 1.002675266770252 -1.4996608577777586 -1.6005858406518698 -1.5707
62 3.076717638634674 -1.5116493843830323 1.0097134452094345 -1.5008989069751193 -1.6010872428423513 -1.5707
63 3.075465377104957 -1.5109228154541512 1.0163841125025108 -1.5021930834866768 -1.6015810139303086 -1.5707
64 3.0742199718419907 -1.5102060133310267 1.0227010031801695 -1.5035402849881423 -1.6020668379209662 -1.5707
65 3.072982005501931 -1.5094986603169904 1.028678137931934 -1.5049374889168003 -1.6025444297807974 -1.5707
66 3.071752005404378 -1.5088004249744862 1.0343296903345414 -1.5063817652671645 -1.6030135341901222 -1.5707
67 3.0705304459833327 -1.508110965929236 1.039669867867677 -1.5078702865053168 -1.6034739240714195 -1.5707
68 3.0693177516138332 -1.5074299353560576 1.044712807502482 -1.5094003348606713 -1.6039253989651603 -1.5707
69 3.068114299685942 -1.506756982122087 1.049472485659418 -1.5109693072834423 -1.6043677833155 -1.5707
70 3.066920423816064 -1.5060917545778152 1.053962641956647 -1.5125747183674794 -1.6048009247182144 -1.5707
71 3.065736417104171 -1.5054339029982047 1.058196715899706 -1.514214201535246 -1.6052246921734612 -1.5707
72 3.064562535363344 -1.5047830816852876 1.0621877954851708 -1.515885508768329 -1.6056389743767676 -1.5707
73 3.0633990002644964 -1.5041389507503258 1.0659485765903276 -1.5175865091463014 -1.606043678073394 -1.5707
74 3.062246002353701 -1.5035011775981175 1.0694913319823582 -1.5193151864318537 -1.6064387264940192 -1.5707
75 3.061103703912105 -1.5023338193791407 1.0880748383221295 -1.5193977475859575 -1.6067504635826106 -1.5707
76 3.05996618940738 -1.5013217197966995 1.102088241923408 -1.520030432163279 -1.6070745858970246 -1.5707
77 3.0588370441703985 -1.5004268882326324 1.1126683939611786 -1.5210607909199942 -1.6074048998049462 -1.5707
78 3.057718187232141 -1.4996205615612785 1.120667853992965 -1.5223809889701643 -1.6077369904943877 -1.5707
79 3.0566106008293388 -1.49888101910703 1.1267255064041872 -1.5239138975949804 -1.608067683210592 -1.5707
80 3.0555147544590735 -1.4981918703822055 1.1313205463572453 -1.5256037493747014 -1.6083946741983517 -1.5707
81 3.054430842933215 -1.497540745725672 1.1348129229132775 -1.5274098303044281 -1.6087162798821157 -1.5707
82 3.0533589172018814 -1.4969183061218103 1.1374734209789046 -1.529302172507976 -1.609031264826631 -1.5707
83 3.0522989550682236 -1.4963174976350717 1.1395060160699353 -1.5312585703766286 -1.609338721814545 -1.5707
84 3.0484633904921647 -1.4957006336853642 1.1409227638465573 -1.533429608244407 -1.6119039935913857 -1.5707
85 3.044840969243827 -1.4950944958151686 1.14202508883433 -1.5356306762173153 -1.6142912031443388 -1.5707
86 3.041420244200455 -1.4944966411477691 1.1428912876242123 -1.5378523659371963 -1.6165101748327382 -1.5707
87 3.0381903380927517 -1.4939052598717426 1.1435801569595785 -1.5400875373890341 -1.6185702427390565 -1.5707
88 3.0351409161625904 -1.4933190139083377 1.1441358123550185 -1.5423307697908288 -1.6204802743737612 -1.5707
89 3.0322621614133265 -1.4927369157304362 1.1445913205525062 -1.5445779500903063 -1.6222486903445992 -1.5707
90 3.029544751727358 -1.4921582374643418 1.1449714385655791 -1.546825962937716 -1.6238834818946204 -1.5707
91 3.026979838320206 -1.491582442828158 1.1452946789703946 -1.5490724560920561 -1.6253922274203556 -1.5707
92 3.0245590251720817 -1.4910091362822635 1.1455748667046646 -1.5513156622627537 -1.6267821085738534 -1.5707
93 3.022274349211059 -1.4904380251408496 1.1458223119573627 -1.553554263390117 -1.6280599262365476 -1.5707
94 3.0201182611173407 -1.4898688914310736 1.1460446931952994 -1.5557872869702418 -1.6292321164641614 -1.5707
95 3.0180836066822696 -1.4893015710713118 1.146247721380743 -1.5580140266566356 -1.6303047663954708 -1.5707
96 3.0161636086962127 -1.4887359385343013 1.146435639085981 -1.5602339813051316 -1.6312836300635474 -1.5707
97 3.01435184936306 -1.4881718956110634 1.1466115951018905 -1.562446808064506 -1.632174144025964 -1.5707
98 3.0126422532511676 -1.4876093632323781 1.146777925223485 -1.5646522861876413 -1.6329814427271678 -1.5707
99 3.011029070795217 -1.487048275562616 1.1469363623941569 -1.5668502890428937 -1.6337103735132879 -1.5707
100 3.0095068623634877 -1.486488575775944 1.1470881937140935 -1.5690407624114748 -1.6343655112317435 -1.5707
101 3.008070482902459 -1.4859302130724557 1.1472343775237241 -1.5712237076144497 -1.6349511723618617 -1.5707
102 3.00671506716676 -1.485373140603167 1.1473756305248142 -1.573399168359418 -1.6354714286364453 -1.5707
103 3.0054360155381468 -1.4848173140568142 1.147512492446171 -1.5755672204595912 -1.6359301201268324 -1.5707
104 3.004228980432866 -1.4842626907246306 1.1476453739055097 -1.5777279637773587 -1.6363308677749797 -1.5707
105 3.0030898532928245 -1.4837092289068219 1.147774591718036 -1.5798815158959736 -1.636677085365361 -1.5707
106 3.002014752152505 -1.4831568875601342 1.1479003948452005 -1.5820280071382877 -1.636971990937024 -1.5707
107 3.0010000097706446 -1.48260562611262 1.1480229833800526 -1.5841675766393073 -1.637218617642169 -1.5707
108 3.000042162313315 -1.482055404391663 1.1481425223651838 -1.5863003692463304 -1.6374198240622624 -1.5707
109 2.999137938573165 -1.4815061826261877 1.1482591517873135 -1.5884265330716116 -1.6375783039961966 -1.5707
110 2.998284249708171 -1.4809579214950155 1.148372993752715 -1.590546217561638 -1.6376965957375507 -1.5707
111 2.9974310275538723 -1.481110786404277 1.1468731384428246 -1.5929750390693433 -1.6378008898219867 -1.5707
112 2.996625052234154 -1.48122966942325 1.1459528757418465 -1.5953432256549467 -1.6378611284009075 -1.5707
113 2.9958635190859693 -1.4813229650898385 1.1454633111531858 -1.5976646450704093 -1.6378815088972194 -1.5707
114 2.995143739124976 -1.48139704390394 1.1452930044628526 -1.5999498526706404 -1.6378656131665574 -1.5707
115 2.9944631515222997 -1.4814567051310246 1.1453588109327162 -1.6022068371646059 -1.6378165329425014 -1.5707
116 2.993819329335451 -1.4815055440783655 1.1455988506516626 -1.604441621590282 -1.637736966330268 -1.5707
117 2.9932099804858465 -1.4815462421238836 1.1459671618981044 -1.6066587361634213 -1.6376292921916116 -1.5707
118 2.9926329455505805 -1.4815807916362307 1.1464296628654012 -1.6088615842370688 -1.6374956276664345 -1.5707
119 2.9920861935305547 -1.4816106682144023 1.1469611170004579 -1.6110527222575526 -1.6373378728370165 -1.5707
120 2.9915678164214428 -1.4816369614021512 1.1475428612073353 -1.6132340721421476 -1.6371577455880624 -1.5707
121 2.991076023156002 -1.4816604732399108 1.1481611100887268 -1.6154070814089976 -1.6369568089868436 -1.5707
122 2.990609133296952 -1.4816817922079222 1.1488056930258028 -1.6175728433695131 -1.636736492951174 -1.5707
123 2.9901655707252255 -1.4817013485030097 1.149469115299801 -1.6197321870420163 -1.6364981115486108 -1.5707
124 2.9897438574754465 -1.4817194552454627 1.1501458611241273 -1.6218857442466317 -1.6362428769470294 -1.5707
125 2.9893426078076817 -1.481736339129834 1.1508318768784096 -1.6240339995798836 -1.6359719107907866 -1.5707
126 2.988960522563004 -1.481752163183453 1.1515241883449847 -1.6261773275874791 -1.6356862535897958 -1.5707
127 2.9885963838236655 -1.4817670436398411 1.152220617453394 -1.6283160203890157 -1.6353868725669989 -1.5707
128 2.988249049881934 -1.4817810624326928 1.1529195728323445 -1.630450308195549 -1.6350746683022355 -1.5707
129 2.9879174505115653 -1.4817942764360952 1.153619895052672 -1.6325803745452154 -1.634750480429144 -1.5707
130 2.987600582530151 -1.4818067242904203 1.1543207423614787 -1.63470636761824 -1.634415092580233 -1.5707
131 2.9872975056376454 -1.4818184314386482 1.1550215063715934 -1.6368284086446763 -1.6340692367288105 -1.5707
132 2.987007338515171 -1.4818294138373824 1.1557217498965258 -1.6389465981579843 -1.6337135970414174 -1.5707
133 2.986729255168027 -1.4818396806871346 1.1564211611466084 -1.641061020653421 -1.633348813327975 -1.5707
134 2.986462481497287 -1.4818492364373737 1.157119520005367 -1.643171748065664 -1.632975484156931 -1.5707
135 2.98620629208512 -1.4818580822556224 1.157816673219938 -1.6452788423726328 -1.6325941696876478 -1.5707
136 2.985960007179873 -1.4818662171007455 1.1585125161652947 -1.6473823575526907 -1.6322053942609263 -1.5707
137 2.985722989867907 -1.481873638504123 1.1592069794535516 -1.649482341063239 -1.6318096487799776 -1.5707
138 2.985494643420097 -1.4818803431353997 1.159900019112069 -1.6515788349648752 -1.6314073929076467 -1.5707
139 2.9852744088017893 -1.4818863272095055 1.1605916093886248 -1.653671876782837 -1.6309990571007444 -1.5707
140 2.9850617623358318 -1.4818915867768394 1.161281737489155 -1.6557615001734487 -1.6305850444985712 -1.5707
141 2.984856213509019 -1.4818961179275705 1.161970399736165 -1.6578477354455405 -1.6301657326798134 -1.5707
142 2.984657302913002 -1.4818999169329063 1.1626575987707046 -1.6599306099737112 -1.6297414752997528 -1.5707
143 2.9844646003113215 -1.4819029803402066 1.1633433415202568 -1.6620101485306298 -1.62931260361798 -1.5707
144 2.984277702824787 -1.48190530503439 1.164027637728218 -1.6640863735584397 -1.6288794279254342 -1.5707
145 2.9840962332279513 -1.4819068882748263 1.164710498894706 -1.6661593053940706 -1.6284422388784914 -1.5707
146 2.983919838349896 -1.4819077277144872 1.1653919375182449 -1.6682289624593862 -1.6280013087469447 -1.5707
147 2.9837481875729828 -1.4819078214063488 1.1660719665571977 -1.6702953614242506 -1.6275568925820014 -1.5707
148 2.983580971423624 -1.481907167800726 1.1667505990513911 -1.6723585173484927 -1.6271092293098257 -1.5707
149 2.9834179002495014 -1.4819057657362484 1.1674278478602471 -1.67441844380721 -1.6266585427556517 -1.5707
150 2.983258702977996 -1.4819036144264641 1.1681037254854019 -1.6764751530027135 -1.6262050426030699 -1.5707
151 2.983103125950929 -1.4819007134435338 1.1687782439543686 -1.6785286558655874 -1.625748925292716 -1.5707
152 2.9829509318309904 -1.4818970627000854 1.1694514147480914 -1.6805789621467224 -1.6252903748642733 -1.5707
153 2.982801898575529 -1.4818926624300073 1.170123248759865 -1.6826260805017308 -1.6248295637454104 -1.5707
154 2.982655818473629 -1.4818875131687468 1.1707937562764772 -1.6846700185688235 -1.6243666534910195 -1.5707
155 2.982512497242643 -1.4818816157335244 1.1714629469749218 -1.686710783040982 -1.6239017954758939 -1.5707
156 2.9823717531805793 -1.4818749712037536 1.1721308299298476 -1.6887483797330816 -1.6234351315437703 -1.5707
157 2.9822334163709656 -1.481867580901872 1.1727974136282415 -1.6907828136444882 -1.6229667946154689 -1.5707
158 2.982097327936997 -1.4818594463747277 1.1734627059888196 -1.692814089017555 -1.6224969092586883 -1.5707
159 2.981958631460449 -1.4810243023756668 1.17567730425111 -1.6945869639136666 -1.6220123984477242 -1.5707
160 2.981824472454894 -1.480205599031184 1.1772581486485338 -1.6964280870733757 -1.621528636995727 -1.5707
161 2.9816951620615924 -1.479398152886736 1.1783739759649947 -1.6983183977583016 -1.6210443396105922 -1.5707
162 2.9815708466059654 -1.478598196972164 1.1791482520203802 -1.7002440474315197 -1.6205586304221788 -1.5707
163 2.9814515500629457 -1.4778029940045636 1.179671397323733 -1.7021949410823443 -1.620070936130907 -1.5707
164 2.981337208271285 -1.4770105583528153 1.180009668026773 -1.704163701681035 -1.6195809043025389 -1.5707
165 2.981227695562616 -1.4762194546517036 1.18021162905023 -1.7061449281280745 -1.6190883418552051 -1.5707
166 2.9811228450006153 -1.4754286511441332 1.180312883610535 -1.7081346597892408 -1.6185931692625988 -1.5707
167 2.9810224634880464 -1.4746374124778348 1.1803395345646712 -1.710129988117771 -1.6180953867509282 -1.5707
168 2.9809263428712094 -1.4738452211421191 1.1803107203973189 -1.7121287739202453 -1.6175950495282139 -1.5707
169 2.980834267983406 -1.4730517197948787 1.1802404744658828 -1.7141294409974557 -1.6170922497518683 -1.5707
170 2.9807460223801527 -1.4722566688775658 1.180139088556988 -1.7161308252657859 -1.6165871034878685 -1.5707
171 2.9806613923524314 -1.4714599154431616 1.1800141130059134 -1.7181320643199314 -1.616079741347172 -1.5707
172 2.980580169666739 -1.4706613702202207 1.1798710901879015 -1.7201325165456653 -1.615570301818614 -1.5707
173 2.980502153371301 -1.4698609907317925 1.179714092347661 -1.7221317018597748 -1.6150589265709758 -1.5707
174 2.980427150922794 -1.469058768867874 1.1795461158367109 -1.7241292582951244 -1.6145457571874091 -1.5707
175 2.9803549788229042 -1.4682547217342552 1.179369369983218 -1.726124910201698 -1.614030932937515 -1.5707
176 2.9802854629048565 -1.4674488849117897 1.1791854886617645 -1.7281184449656453 -1.6135145892977683 -1.5707
177 2.9802184383731447 -1.4666413074887859 1.1789956851726215 -1.7301096959748081 -1.6129968570088185 -1.5707
178 2.9801537496721546 -1.4658320483974376 1.1788008655617142 -1.732098530164265 -1.6124778615154993 -1.5707
179 2.9800912502389254 -1.4650211737090615 1.1786017114874374 -1.7340848389190342 -1.611957722677426 -1.5707
180 2.98003080218017 -1.4642087546340996 1.1783987407833105 -1.7360685314365771 -1.611436554668864 -1.5707
181 2.9799722759025298 -1.463394866040022 1.1781923516932165 -1.7380495298906995 -1.6109144660090662 -1.5707
182 2.9799155497168237 -1.46257958534972 1.177982855160766 -1.7400277659139114 -1.610391559680697 -1.5707
183 2.9798605094310546 -1.461762991719397 1.1777704983832984 -1.7420031780441334 -1.6098679333059247 -1.5707
184 2.979807047942525 -1.460945165421766 1.1775554819817513 -1.7439757098762134 -1.6093436793584595 -1.5707
185 2.979755064836224 -1.4601261873800844 1.1773379725074213 -1.745945308728135 -1.6088188853961287 -1.5707
186 2.9797044659942986 -1.4593061388130524 1.1771181115446308 -1.747911924682715 -1.6082936343031473 -1.5707
187 2.9796551632197663 -1.4584851009612614 1.1768960223298404 -1.7498755099029302 -1.6077680045345462 -1.5707
188 2.9796070738763807 -1.4576631548737122 1.1766718145598674 -1.7518360181463855 -1.6072420703576042 -1.5707
189 2.979560120545728 -1.456840381238668 1.1764455878804732 -1.7537934044244858 -1.6067159020868327 -1.5707
190 2.98011108075774 -1.4568264041322625 1.1751131737306282 -1.755859578201775 -1.6059920495939934 -1.5707
191 2.980027457042814 -1.4574791992875253 1.1731591410102455 -1.758034808895963 -1.6055336576171215 -1.5707
192 2.979942049844583 -1.4580818228311774 1.172071719912642 -1.760120435445674 -1.6050702313742296 -1.5707
193 2.979854220765263 -1.4586473444079415 1.1716114464631808 -1.762139723224295 -1.6046041183708193 -1.5707
194 2.9797636161833183 -1.4591856059109725 1.171603269187793 -1.7641100138521122 -1.6041369072968839 -1.5707
195 2.9796700693595732 -1.4597039083919867 1.1719199920819814 -1.7660440846185903 -1.6036696617192856 -1.5707
196 2.979573535699747 -1.4602076114070186 1.172469604101084 -1.7679512707107488 -1.6032030817529621 -1.5707
197 2.979474049624781 -1.4607006203776074 1.1731857677936617 -1.769838350300664 -1.6027376161482694 -1.5707
198 2.979371695641221 -1.4611857664561665 1.1740207755994774 -1.7717102222306391 -1.6022735402101544 -1.5707
199 2.979266588844541 -1.461665094709244 1.1749403836656944 -1.773570414648482 -1.601811010093662 -1.5707
200 2.979158861756838 -1.462140078861663 1.1759200488718484 -1.7754214615433632 -1.6013501006988755 -1.5707
201 2.9790486554587825 -1.4626117793731837 1.1769422016619129 -1.7772651788073306 -1.600890832134871 -1.5707
202 2.978936113654673 -1.4630809588165938 1.17799427683144 -1.779102865241919 -1.6004331881901022 -1.5707
203 2.978821378751349 -1.4635481655859506 1.1790672955016936 -1.7809354481875093 -1.5999771291991776 -1.5707
204 2.978704589323735 -1.4640137943664162 1.1801548461124252 -1.7827635886462636 -1.5995226009751626 -1.5707
205 2.978585878535514 -1.4644781296798874 1.1812523533185935 -1.7845877569580781 -1.5990695409772944 -1.5707
206 2.978465373216254 -1.4649413771704494 1.1823565541055292 -1.7864082871645186 -1.5986178825362793 -1.5707
207 2.97834319338739 -1.4654036860424333 1.1834651227695694 -1.7882254159986877 -1.59816755771606 -1.5707
208 2.978219452092376 -1.4658651651318506 1.1845764026879086 -1.790039310811598 -1.5977184992201103 -1.5707
209 2.9780942554301038 -1.4663258944060034 1.1856892146055877 -1.7918500895518632 -1.5972706416300724 -1.5707
210 2.977967702721237 -1.4667859331853559 1.186802719697248 -1.7936578350457755 -1.5968239221797245 -1.5707
211 2.97783988675854 -1.4672453260183664 1.187916321808395 -1.795462605194256 -1.596378281207389 -1.5707
212 2.977710894107307 -1.4677041068773589 1.1890295977020406 -1.7972644402475726 -1.595933662387556 -1.5707
213 2.97758080543255 -1.468162302154306 1.1901422473114154 -1.7990633679904464 -1.5954900128125895 -1.5707
214 2.977449695837048 -1.4686199327993656 1.1912540582765174 -1.8008594074340778 -1.5950472829742282 -1.5707
215 2.9773176351995403 -1.469077015847408 1.1923648806738107 -1.8026525714420922 -1.5946054266796563 -1.5707
216 2.9771846885060245 -1.4695335655078068 1.1934746090164476 -1.8044428685958294 -1.594164400926366 -1.5707
217 2.9770509161696417 -1.4699895939426937 1.194583169438038 -1.8062303045172794 -1.593724165752587 -1.5707
218 2.976916374336423 -1.470445111823043 1.1956905105704494 -1.8080148828056066 -1.5932846840748147 -1.5707
219 2.9767811151753816 -1.4709001287263597 1.1967965970530374 -1.8097966056985864 -1.5928459215202893 -1.5707
220 2.9766451871522857 -1.471354653421443 1.1979014049156127 -1.81157547453838 -1.5924078462596718 -1.5707
221 2.976508635286994 -1.4718086940726545 1.1990049182950988 -1.8133514900982857 -1.591970428843374 -1.5707
222 2.9763715013946395 -1.4722622583867895 1.200107127101125 -1.8151246528108242 -1.5915336420437203 -1.5707
223 2.9762338243111555 -1.4727153537190183 1.201208025356559 -1.8168949629259041 -1.59109746070426 -1.5707
224 2.9760956401038188 -1.4731679871496206 1.202307610017926 -1.8186624206195199 -1.5906618615969341 -1.5707
225 2.9759569822675456 -1.4736201655398622 1.2034058801369254 -1.8204270260675328 -1.5902268232874044 -1.5707
226 2.975817881907727 -1.474071895572961 1.204502836264322 -1.8221887794948715 -1.5897923260085656 -1.5707
227 2.975678367910404 -1.4745231837843762 1.20559848002602 -1.8239476812074855 -1.58935835154209 -1.5707
228 2.9755384671005634 -1.4749740365844335 1.2066928138214283 -1.8257037316122597 -1.5889248831077316 -1.5707
229 2.9753982043893186 -1.4754244602754363 1.2077858406086712 -1.8274569312285698 -1.5884919052600526 -1.5707
230 2.975257602910715 -1.475874461064792 1.208877563751464 -1.8292072806940836 -1.5880594037921898 -1.5707
231 2.97511668414885 -1.4763240450752468 1.2099679869097795 -1.8309547807666458 -1.5876273656462687 -1.5707
232 2.9749754680559684 -1.4767732183530073 1.211057113961617 -1.8326994323235375 -1.587195778830062 -1.5707
233 2.9748339731621662 -1.4772219868743048 1.212144948946865 -1.8344412363590181 -1.5867646323395024 -1.5707
234 2.974692216677271 -1.4776703565508063 1.2132314960268709 -1.83618019398078 -1.5863339160866674 -1.5707
235 2.974550214585454 -1.478118333234154 1.2143167594551858 -1.837916306405758 -1.5859036208328723 -1.5707
236 2.97440798173309 -1.4785659227198449 1.215400743556268 -1.839649574955593 -1.585473738126523 -1.5707
237 2.9742655319103277 -1.4790131307505952 1.216483452709864 -1.8413800010519596 -1.585044260245406 -1.5707
238 2.9741228779268276 -1.4794599630193057 1.2175648913394506 -1.8431075862118924 -1.5846151801431028 -1.5707
239 2.9739800316820753 -1.4799064251717031 1.2186450639035897 -1.8448323320432038 -1.5841864913992425 -1.5707
240 2.9738370042306563 -1.4803525228087175 1.2197239748893791 -1.8465542402400517 -1.583758188173324 -1.5707
241 2.973693805842852 -1.4807982614886437 1.2208016288074195 -1.8482733125786903 -1.5833302651618528 -1.5707
242 2.9735504460608895 -1.4812436467291166 1.2218780301878887 -1.8499895509134239 -1.58290271755856 -1.5707
243 2.973406933751155 -1.4816886840089298 1.2229531835774234 -1.8517029571727714 -1.5824755410174831 -1.5707
244 2.973263277152657 -1.4821333787697164 1.224027093536606 -1.8534135333558437 -1.582048731618706 -1.5707
245 2.9731194839220128 -1.4825777364175068 1.2250997646378978 -1.855121281528928 -1.5816222858365674 -1.5707
246 2.9729755611751987 -1.4830217623241808 1.2261712014639183 -1.8568262038222734 -1.5811962005101616 -1.5707
247 2.9728315155263028 -1.4834654618288212 1.2272414086059853 -1.8585283024270691 -1.5807704728159686 -1.5707
248 2.97268735312349 -1.48390884023898 1.2283103906628652 -1.860227579592605 -1.5803451002424607 -1.5707
249 2.9725430796823815 -1.4843519028318652 1.2293781522396867 -1.8619240376236048 -1.5799200805665434 -1.5707
250 2.972398700517031 -1.4847946548554536 1.230444697946991 -1.8636176788777192 -1.5794954118317004 -1.5707
251 2.9722542205686744 -1.4852371015295371 1.231510032399891 -1.8653085057631738 -1.5790710923277194 -1.5707
252 2.9721096444324058 -1.4856792480467083 1.2325741602173268 -1.8669965207365555 -1.5786471205718864 -1.5707
253 2.971964976381937 -1.4861210995732872 1.2336370860214003 -1.8686817263007347 -1.5782234952915417 -1.5707
254 2.9718202203925697 -1.4865626612501979 1.2346988144367785 -1.870364125002907 -1.5778002154079018 -1.5707
255 2.971675380162514 -1.4870039381937954 1.2357593500901594 -1.872043719432754 -1.577377280021054 -1.5707
256 2.9715304591326706 -1.4874449354966475 1.2368186976097915 -1.8737205122207072 -1.5769546883960408 -1.5707
257 2.9713854605049836 -1.4878856582282756 1.237876861625041 -1.8753945060363153 -1.5765324399499565 -1.5707
258 2.9712403872594755 -1.4883261114358572 1.2389338467660036 -1.8770657035867004 -1.576110534239981 -1.5707
259 2.9710952421700467 -1.4887663001448919 1.2399896576631546 -1.8787341076151036 -1.5756889709522848 -1.5707
260 2.970950027819139 -1.4892062293598352 1.2410442989470352 -1.880399720899509 -1.5752677498917436 -1.5707
261 2.9708047466113396 -1.4896459040647008 1.2420977752479714 -1.8820625462513423 -1.574846870972401 -1.5707
262 2.9706594007860008 -1.4900853292236342 1.2431500911958238 -1.88372258651424 -1.57442633420863 -1.5707
263 2.970513992428951 -1.4905245097814621 1.2442012514197613 -1.885379844562882 -1.574006139706936 -1.5707
264 2.9703685234833586 -1.490963450664213 1.2452512605480641 -1.8870343233018843 -1.573586287658365 -1.5707
265 2.9702229957598094 -1.4914021567796192 1.2463001232079467 -1.888686025664748 -1.573166778331463 -1.5707
266 2.9700774109456574 -1.4918406330175948 1.2473478440254027 -1.8903349546128605 -1.5727476120657549 -1.5707
267 2.969931770613698 -1.492278884250696 1.2483944276250698 -1.8919811131345443 -1.5723287892657 -1.5707
268 2.969786076230216 -1.4927169153345612 1.2494398786301115 -1.8936245042441513 -1.5719103103950935 -1.5707
269 2.969640329162447 -1.4931547311083353 1.2504842016621156 -1.8952651309811994 -1.5714921759718787 -1.5707
270 2.969494530685504 -1.4935923363950783 1.251527401341008 -1.896902996409548 -1.5710743865633436 -1.5707
271 2.9693486819887998 -1.4940297360021588 1.2525694822849802 -1.89853810361661 -1.5706569427816703 -1.5707
272 2.969202784182003 -1.4944669347216337 1.2536104491104296 -1.900170455712597 -1.570239845279815 -1.5707
273 2.9690568383005673 -1.4949039373306163 1.2546503064319117 -1.901800055829797 -1.5698230947476928 -1.5707
274 2.9689108453108544 -1.4953407485916312 1.255689058862103 -1.9034269071218826 -1.5694066919086471 -1.5707
275 2.9687648061148906 -1.4957773732529596 1.2567267110117737 -1.9050510127632452 -1.56899063751618 -1.5707
276 2.9686187215547766 -1.4962138160489729 1.2577632674897705 -1.9066723759483553 -1.568574932350927 -1.5707
277 2.9684725924167754 -1.496650081700459 1.2587987329030061 -1.908290999891147 -1.5681595772178596 -1.5707
278 2.968326419435109 -1.497086174914939 1.259833111856459 -1.9099068878244265 -1.5677445729436958 -1.5707
279 2.968180203295474 -1.4975221003869734 1.2608664089531774 -1.9115200429992987 -1.5673299203745061 -1.5707
280 2.968033944638307 -1.4979578627984655 1.261898628794293 -1.9131304686846164 -1.566915620373499 -1.5707
281 2.967887644061808 -1.4983934668189534 1.262929775979038 -1.9147381681664462 -1.5665016738189765 -1.5707
282 2.967741302124751 -1.4988289171058968 1.2639598551047702 -1.9163431447475519 -1.5660880816024416 -1.5707
283 2.9675949193490836 -1.4992642183049605 1.2649888707670007 -1.9179454017468958 -1.5656748446268527 -1.5707
284 2.9674484962223406 -1.4996993750502874 1.2660168275594295 -1.919544942499152 -1.5652619638050094 -1.5707
285 2.967302033199885 -1.5001343919647703 1.2670437300739827 -1.9211417703542373 -1.5648494400580641 -1.5707
286 2.9671555307069823 -1.5005692736603171 1.2680695829008548 -1.922735888676853 -1.5644372743141468 -1.5707
287 2.9670089891407248 -1.5010040247381116 1.269094390628556 -1.9243273008460415 -1.5640254675070977 -1.5707
288 2.966862408871817 -1.5014386497888703 1.27011815784396 -1.925916010254752 -1.563614020575298 -1.5707
289 2.9667157902462327 -1.5018731533930958 1.2711408891323586 -1.9275020203094202 -1.563202934460593 -1.5707
290 2.9665691335867463 -1.502307540121326 1.2721625890775166 -1.9290853344295575 -1.5627922101073002 -1.5707
291 2.9664224391943583 -1.5027418145343798 1.2731832622617314 -1.930665956047349 -1.5623818484612935 -1.5707
292 2.9662757073496153 -1.5031759811836007 1.2742029132658927 -1.9322438886072622 -1.5619718504691653 -1.5707
293 2.966128938313831 -1.5036100446110967 1.2752215466695471 -1.9338191355656642 -1.5615622170774524 -1.5707
294 2.965982132330223 -1.5040440093499772 1.276239167050964 -1.9353917003904473 -1.5611529492319263 -1.5707
295 2.965835289624964 -1.5044778799245893 1.2772557789872026 -1.9369615865606626 -1.5607440478769414 -1.5707
296 2.965688410408155 -1.5049116608507498 1.278271387054182 -1.9385287975661611 -1.5603355139548383 -1.5707
297 2.9655414948747345 -1.505345356635976 1.2792859958267535 -1.9400933369072415 -1.5599273484053942 -1.5707
298 2.96539454320531 -1.5057789717797154 1.2802996098787727 -1.941655208094305 -1.5595195521653233 -1.5707
299 2.9652475555669398 -1.5062125107735715 1.2813122337831748 -1.9432144146475179 -1.5591121261678182 -1.5707
300 2.965100532113852 -1.5066459781015304 1.2823238721120513 -1.9447709600964778 -1.558705071342131 -1.5707
301 2.9649534729881126 -1.5070793782401843 1.2833345294367273 -1.9463248479798874 -1.558298388613193 -1.5707
302 2.9648063783202434 -1.5075127156589545 1.2843442103278404 -1.9478760818452339 -1.5578920789012656 -1.5707
303 2.964659248229797 -1.5079459948203122 1.2853529193554214 -1.949424665248473 -1.5574861431216274 -1.5707
304 2.9645120828258884 -1.5083792201799997 1.2863606610889755 -1.950970601753718 -1.5570805821842861 -1.5707
305 2.9643648822076885 -1.508812396187249 1.287367440097565 -1.952513894932935 -1.5566753969937208 -1.5707
306 2.96421764646488 -1.509245527285001 1.288373260949893 -1.9540545483656404 -1.5562705884486487 -1.5707
307 2.964070375678081 -1.509678617910122 1.2893781282143881 -1.9555925656386057 -1.5558661574418142 -1.5707
308 2.9639230699192396 -1.5101116724936214 1.2903820464592903 -1.9571279503455645 -1.555462104859801 -1.5707
309 2.963775729251994 -1.5105446954608677 1.291385020252738 -1.9586607060869248 -1.5550584315828646 -1.5707
310 2.9636283537320125 -1.510977691231804 1.2923870541628548 -1.9601908364694844 -1.5546551384847813 -1.5707
311 2.963480943407305 -1.5114106642211635 1.2933881527578395 -1.961718345106151 -1.5542522264327168 -1.5707
312 2.963333498318512 -1.5118436188386837 1.2943883206060545 -1.9632432356156653 -1.5538496962871093 -1.5707
313 2.9631860184991723 -1.5122765594893206 1.2953875622761164 -1.964765511622328 -1.5534475489015687 -1.5707
314 2.963038503975973 -1.5127094905734642 1.2963858823369878 -1.9662851767557303 -1.553045785122787 -1.5707
315 2.9628909547689775 -1.5131424164871508 1.297383285358069 -1.967802234650488 -1.5526444057904651 -1.5707
316 2.9627433708918396 -1.5135753416222775 1.2983797759092908 -1.9693166889459774 -1.5522434117372481 -1.5707
317 2.962595752352001 -1.5140082703668156 1.299375358561209 -1.9708285432860773 -1.5518428037886727 -1.5707
318 2.9624480991508735 -1.5144412071050242 1.3003700378850984 -1.9723378013189095 -1.5514425827631255 -1.5707
319 2.9623004112840077 -1.5148741562176635 1.3013638184530487 -1.9738444666965875 -1.5510427494718093 -1.5707
320 2.962152688741251 -1.515307122082209 1.3023567048380607 -1.975348543074964 -1.5506433047187185 -1.5707
321 2.9620049315068906 -1.5157401090730644 1.303348701614143 -1.9768500341133828 -1.5502442493006228 -1.5707
322 2.9618571395597892 -1.5161731215617764 1.3043398133564112 -1.9783489434744335 -1.5498455840070582 -1.5707
323 2.961709312873508 -1.5166061639172481 1.3053300446411857 -1.9798452748237083 -1.5494473096203238 -1.5707
324 2.9615614514164212 -1.5170392405059534 1.3063194000460918 -1.9813390318295625 -1.5490494269154875 -1.5707
325 2.9614135551518235 -1.5174723556921517 1.3073078841501604 -1.9828302181628754 -1.548651936660394 -1.5707
326 2.961265624038026 -1.517905513838103 1.308295501533929 -1.984318837496816 -1.548254839615681 -1.5707
327 2.961117658028449 -1.5183387193042828 1.3092822567795444 -1.9858048935066086 -1.5478581365348 -1.5707
328 2.960969657071703 -1.5187719764495982 1.3102681544708659 -1.9872883898693041 -1.5474618281640407 -1.5707
329 2.9608216211116676 -1.5192052896316037 1.3112531991935694 -1.9887693302635499 -1.5470659152425599 -1.5707
330 2.960673550087563 -1.5196386632067187 1.3122373955352522 -1.9902477183693645 -1.5466703985024153 -1.5707
331 2.960525443934014 -1.5200721015304433 1.3132207480855393 -1.9917235578679136 -1.5462752786686023 -1.5707
332 2.960377302581113 -1.520505608957577 1.31420326143619 -1.9931968524412875 -1.5458805564590934 -1.5707
333 2.960229125954472 -1.5209391898424371 1.3151849401812066 -1.9946676057722819 -1.5454862325848828 -1.5707
334 2.9600809139752777 -1.5213728485390774 1.3161657889169416 -1.99613582154418 -1.545092307750032 -1.5707
335 2.9599326665603365 -1.5218065894015083 1.317145812242209 -1.997601503440537 -1.5446987826517187 -1.5707
336 2.9597843836221176 -1.5222404167839163 1.3181250147583952 -1.9990646551449658 -1.5443056579802878 -1.5707
337 2.9596360650687936 -1.5226743350408867 1.31910340106957 -2.0005252803409252 -1.5439129344193063 -1.5707
338 2.9594877108042765 -1.523108348527624 1.3200809757825993 -2.0019833827115114 -1.5435206126456176 -1.5707
339 2.9593393207282506 -1.5235424616001756 1.321057743507261 -2.003438965939247 -1.5431286933294 -1.5707
340 2.959190894736203 -1.5239766786156552 1.3220337088563585 -2.004892033705877 -1.5427371771342262 -1.5707
341 2.9590424327194516 -1.5244110039324676 1.323008876445837 -2.006342589692164 -1.5423460647171239 -1.5707
342 2.95889393456517 -1.524845441910534 1.3239832508949012 -2.007790637577684 -1.5419553567286388 -1.5707
343 2.9587454001564097 -1.525279996911518 1.3249568368261337 -2.0092361810406265 -1.5415650538128989 -1.5707
344 2.958596829372121 -1.5257146732990543 1.3259296388656152 -2.010679223757595 -1.541175156607679 -1.5707
345 2.958448222087173 -1.5261494754389757 1.3269016616430445 -2.012119769403408 -1.5407856657444685 -1.5707
346 2.9582995781723658 -1.5265844076995438 1.327872909791861 -2.013557821650905 -1.5403965818485374 -1.5707
347 2.958150897494451 -1.5270194744516794 1.3288433879493675 -2.0149933841707512 -1.5400079055390068 -1.5707
348 2.9580021799161416 -1.527454680069194 1.329813100756856 -2.016426460631243 -1.5396196374289168 -1.5707
349 2.9578534252961233 -1.5278900289290234 1.330782052859733 -2.017857054698118 -1.539231778125298 -1.5707
350 2.957704633489066 -1.5283255254114614 1.3317502489076454 -2.019285170034364 -1.538844328229242 -1.5707
351 2.957555804345633 -1.5287611739003955 1.3327176935546112 -2.0207108103000317 -1.5384572883359748 -1.5707
352 2.9574069377124848 -1.5291969787835438 1.3336843914591476 -2.022133979152047 -1.5380706590349273 -1.5707
353 2.9572580334322898 -1.529632944452693 1.3346503472844031 -2.023554680244026 -1.5376844409098105 -1.5707
354 2.9571090913437263 -1.5300690753039383 1.33561556569829 -2.0249729172260875 -1.5372986345386879 -1.5707
355 2.9569601112814876 -1.5305053757379232 1.336580051373618 -2.026388693744676 -1.5369132404940509 -1.5707
356 2.9568110930762854 -1.5309418501600829 1.3375438089882308 -2.0278020134423747 -1.536528259342893 -1.5707
357 2.956662036554851 -1.531378502980888 1.3385068432251421 -2.0292128799577283 -1.5361436916467859 -1.5707
358 2.956512941539935 -1.5318153386160889 1.3394691587726748 -2.0306212969250623 -1.5357595379619542 -1.5707
359 2.9563638078503107 -1.5322523614869636 1.3404307603246004 -2.032027267974307 -1.5353757988393522 -1.5707
360 2.9562146353007708 -1.5326895760205657 1.3413916525802811 -2.03343079673082 -1.53499247482474 -1.5707
361 2.9560654237021264 -1.5331269866499744 1.3423518402448127 -2.034831886815211 -1.5346095664587611 -1.5707
362 2.955916172861206 -1.5335645978145465 1.3433113280291697 -2.036230541843168 -1.5342270742770185 -1.5707
363 2.9557668825808503 -1.5340024139601698 1.344270120650352 -2.0376267654252835 -1.533844998810153 -1.5707
364 2.955617552659911 -1.534440439539518 1.3452282228315318 -2.0390205611668852 -1.5334633405839195 -1.5707
365 2.955468182893244 -1.5348786790123077 1.3461856393022047 -2.0404119326678622 -1.533082100119267 -1.5707
366 2.9553187730717076 -1.5353171368455574 1.347142374798341 -2.041800883522498 -1.532701277932415 -1.5707
367 2.9551693229821545 -1.535755817513848 1.3480984340625386 -2.0431874173193 -1.5323208745349324 -1.5707
368 2.9550198324074257 -1.5361947254995851 1.3490538218441777 -2.0445715376408344 -1.5319408904338168 -1.5707
369 2.9548703011263453 -1.5366338652932643 1.350008542899579 -2.0459532480635576 -1.5315613261315721 -1.5707
370 2.9547207289137116 -1.5370732413937362 1.3509626019921606 -2.047332552157652 -1.5311821821262883 -1.5707
371 2.954571115540291 -1.5375128583084765 1.3519160038926001 -2.048709453486861 -1.5308034589117208 -1.5707
372 2.9544214607728083 -1.5379527205538555 1.3528687533789967 -2.0500839556083266 -1.5304251569773688 -1.5707
373 2.9542717643739382 -1.5383928326554106 1.3538208552370352 -2.0514560620724254 -1.5300472768085558 -1.5707
374 2.954122026102296 -1.538833199148122 1.3547723142601522 -2.0528257764226074 -1.529669818886509 -1.5707
375 2.9539722457124276 -1.5392738245766897 1.355723135249705 -2.0541931021952373 -1.5292927836884385 -1.5707
376 2.953822422954801 -1.5397147134958111 1.3566733230151415 -2.0555580429194307 -1.528916171687618 -1.5707
377 2.953672557575793 -1.540155870470465 1.3576228823741734 -2.056920602116898 -1.528539983353465 -1.5707
378 2.9535226493176796 -1.5405973000761932 1.3585718181529487 -2.0582807833017864 -1.52816421915162 -1.5707
379 2.9533726979186223 -1.5410390068993884 1.359520135186231 -2.0596385899805205 -1.5277888795440284 -1.5707
380 2.9532227031126594 -1.5414809955375819 1.360467838317576 -2.0609940256516466 -1.5274139649890202 -1.5707
381 2.953072664629691 -1.541923270599735 1.3614149323995128 -2.062347093805677 -1.5270394759413908 -1.5707
382 2.9529225821954657 -1.542365836706533 1.3623614222937284 -2.063697797924935 -1.526665412852482 -1.5707
383 2.952772455531568 -1.5428086984906806 1.3633073128712512 -2.0650461414834 -1.526291776170263 -1.5707
384 2.9526222843554057 -1.5432518605972017 1.3642526090126395 -2.066392127946554 -1.5259185663394117 -1.5707
385 2.9524720683801937 -1.5436953276837397 1.3651973156081716 -2.067735760771228 -1.5255457838013957 -1.5707
386 2.95232180731494 -1.544139104420863 1.3661414375580374 -2.069077043405451 -1.525173428994554 -1.5707
387 2.9521715008644303 -1.5445831954923708 1.3670849797725333 -2.0704159792882955 -1.5248015023541788 -1.5707
388 2.952021148729212 -1.5450276055956034 1.3680279471722594 -2.071752571849728 -1.524430004312597 -1.5707
389 2.95187075060558 -1.5454723394417549 1.3689703446883186 -2.07308682451046 -1.5240589352992524 -1.5707
390 2.951720306185559 -1.5459174017561883 1.369912177262519 -2.0744187406817933 -1.523688295740788 -1.5707
391 2.9515698151568857 -1.5463627972787544 1.3708534498475775 -2.0757483237654752 -1.523318086061128 -1.5707
392 2.9514192772029935 -1.5468085307641128 1.3717941674073284 -2.077075577153546 -1.5229483066815606 -1.5707
393 2.9512686920029934 -1.547254606982057 1.3727343349169312 -2.078400504228193 -1.5225789580208202 -1.5707
394 2.951118059231656 -1.5477010307178412 1.3736739573630843 -2.0797231083615992 -1.5222100404951713 -1.5707
395 2.9509673785593944 -1.5481478067725123 1.374613039744238 -2.0810433929157997 -1.5218415545184902 -1.5707
396 2.9508166496522428 -1.548594939963243 1.3755515870708146 -2.0823613612425307 -1.52147350050235 -1.5707
397 2.9506658721718386 -1.5490424351236698 1.3764896043654267 -2.0836770166830845 -1.5211058788561032 -1.5707
398 2.9505150457754024 -1.5494902971042335 1.3774270966631008 -2.084990362568163 -1.5207386899869646 -1.5707
399 2.950364170115717 -1.5499385307725229 1.378364069011504 -2.0863014022177304 -1.520371934300097 -1.5707
400 2.950213244841108 -1.5503871410136227 1.3793005264711713 -2.0876101389408683 -1.5200056121986947 -1.5707
401 2.9500622695954206 -1.550836132730465 1.380236474115739 -2.088916576035631 -1.5196397240840676 -1.5707
402 2.9499112440179993 -1.551285510844183 1.3811719170321775 -2.0902207167888984 -1.519274270355726 -1.5707
403 2.949760167743665 -1.5517352802944704 1.3821068603210303 -2.0915225644762327 -1.5189092514114668 -1.5707
404 2.949609040402694 -1.5521854460399425 1.3830413090966538 -2.092822122361732 -1.5185446676474568 -1.5707
405 2.949457861620792 -1.5526360130585022 1.3839752684874618 -2.0941193936978872 -1.5181805194583196 -1.5707
406 2.949306631019073 -1.55308698634771 1.3849087436361704 -2.095414381725438 -1.517816807237221 -1.5707
407 2.9491553482140347 -1.5535383709251565 1.3858417397000506 -2.0967070896732265 -1.517453531375955 -1.5707
408 2.9490040128175337 -1.553990171828841 1.3867742618511791 -2.097997520758056 -1.5170906922650307 -1.5707
409 2.9488526244367605 -1.5544423941175516 1.3877063152766955 -2.099285678184546 -1.5167282902937587 -1.5707
410 2.9487011826742138 -1.5548950428712522 1.388637905179062 -2.100571565144987 -1.5163663258503377 -1.5707
411 2.9485496871276746 -1.555348123191471 1.3895690367763263 -2.1018551848192004 -1.516004799321943 -1.5707
412 2.948398137390181 -1.5558016402016948 1.390499715302388 -2.103136540374391 -1.515643711094813 -1.5707
413 2.9482465330499994 -1.5562555990477673 1.3914299460072674 -2.104415634965006 -1.5152830615543387 -1.5707
414 2.948094873690597 -1.5567100048982911 1.3923597341573806 -2.10569247173259 -1.5149228510851511 -1.5707
415 2.9479431588906158 -1.5571648629450352 1.3932890850358144 -2.106967053805643 -1.5145630800712102 -1.5707
416 2.947791388223841 -1.557620178403346 1.394218003942607 -2.1082393842994755 -1.5142037488958946 -1.5707
417 2.9476395612591757 -1.5580759565125641 1.395146496195033 -2.1095094663160654 -1.513844857942091 -1.5707
418 2.947487677560607 -1.5585322025364439 1.3960745671278891 -2.1107773029439136 -1.5134864075922838 -1.5707
419 2.9473357366871786 -1.5589889217635795 1.397002222093787 -2.1120428972579015 -1.5131283982286468 -1.5707
420 2.94718373819296 -1.5594461195078353 1.3979294664634476 -2.113306252319146 -1.5127708302331326 -1.5707
421 2.947031681627014 -1.5599038011087802 1.3988563056260002 -2.114567371174856 -1.512413703987565 -1.5707
422 2.946879566533365 -1.560361971932128 1.3997827449892848 -2.115826256858188 -1.5120570198737304 -1.5707
423 2.9467273924509683 -1.560820637370183 1.400708789980159 -2.1170829123881005 -1.5117007782734704 -1.5707
424 2.9465751589136735 -1.561279802842289 1.4016344460448085 -2.118337340769212 -1.5113449795687737 -1.5707
425 2.946422865450195 -1.5617394737952854 1.4025597186490624 -2.1195895449916526 -1.510989624141871 -1.5707
426 2.946270511584075 -1.5621996557039681 1.403484613278711 -2.120839528030922 -1.510634712375327 -1.5707
427 2.9461180968336493 -1.5626603540715547 1.4044091354398291 -2.122087292847742 -1.510280244652136 -1.5707
428 2.945965620712013 -1.5631215744301565 1.405333290659103 -2.1233328423879114 -1.509926221355816 -1.5707
429 2.945813082726983 -1.5635833223412552 1.406257084484162 -2.1245761795821596 -1.509572642870505 -1.5707
430 2.9456604823810615 -1.5640456033961854 1.4071805224839142 -2.125817307346 -1.5092195095810557 -1.5707
431 2.9455078191713997 -1.5645084232166233 1.4081036102488862 -2.1270562285795833 -1.508866821873133 -1.5707
432 2.9453550925897587 -1.5649717874550806 1.4090263533915672 -2.1282929461675506 -1.508514580133311 -1.5707
433 2.945202302122471 -1.565435701795404 1.4099487575467593 -2.129527462978884 -1.5081627847491708 -1.5707
434 2.945049447250403 -1.565900171953282 1.4108708283719302 -2.1307597818667605 -1.5078114361093984 -1.5707
435 2.944896527448912 -1.5663652036767566 1.411792571547571 -2.1319899056684006 -1.5074605346038839 -1.5707
436 2.9447435421878083 -1.5668308027467415 1.4127139927775596 -2.1332178372049224 -1.5071100806238216 -1.5707
437 2.9445904909313114 -1.5672969749775467 1.413635097789529 -2.1344435792811884 -1.5067600745618104 -1.5707
438 2.9444373731380113 -1.5677637262174096 1.4145558923352382 -2.135667134685657 -1.506410516811954 -1.5707
439 2.944284188260822 -1.5682310623490314 1.415476382190951 -2.1368885061902305 -1.5060614077699634 -1.5707
440 2.944130935746942 -1.5686989892901226 1.4163965731578179 -2.138107696550104 -1.5057127478332597 -1.5707
441 2.9439776150378054 -1.5691675129939522 1.4173164710622628 -2.139324708503613 -1.5053645374010758 -1.5707
442 2.9438242255690423 -1.5696366394499062 1.4182360817563766 -2.1405395447720794 -1.505016776874562 -1.5707
443 2.9436707667704285 -1.5701063746840513 1.4191554111183133 -2.141752208059659 -1.5046694666568898 -1.5707
444 2.943517238065842 -1.5705767247597067 1.420074465052695 -2.1429627010531873 -1.504322607153358 -1.5707
445 2.943363638873215 -1.5710476957780217 1.4209932494910185 -2.1441710264220215 -1.5039761987714986 -1.5707
446 2.9432099686044855 -1.5715192938785623 1.4219117703920687 -2.1453771868178877 -1.503630241921184 -1.5707
447 2.94305622666555 -1.5719915252399042 1.422830033742339 -2.1465811848747216 -1.5032847370147355 -1.5707
448 2.942902412456212 -1.5724643960802325 1.423748045556455 -2.147783023208513 -1.5029396844670315 -1.5707
449 2.942748525370133 -1.5729379126579508 1.4246658118776052 -2.1489827044171435 -1.5025950846956175 -1.5707
450 2.9425945647947818 -1.5734120812722956 1.4255833387779764 -2.150180231080231 -1.5022509381208176 -1.5707
451 2.94244053011138 -1.5738869082639617 1.4265006323591962 -2.151375605758967 -1.5019072451658444 -1.5707
452 2.942286420694853 -1.5743624000157324 1.4274176987527802 -2.152568830995953 -1.501564006256913 -1.5707
453 2.9421322359137725 -1.5748385629531194 1.4283345441205855 -2.153759909315043 -1.5012212218233543 -1.5707
454 2.9419779751303055 -1.575315403545011 1.4292511746552705 -2.1549488432211743 -1.5008788922977288 -1.5707
455 2.941823637700156 -1.575792928304328 1.4301675965807605 -2.1561356352002075 -1.5005370181159425 -1.5707
456 2.941669222972511 -1.576271143788688 1.4310838161527204 -2.1573202877187567 -1.500195599717364 -1.5707
457 2.9415147302899816 -1.57675005660108 1.4319998396590319 -2.158502803224026 -1.4998546375449409 -1.5707
458 2.9413601589885454 -1.577229673390544 1.4329156734202788 -2.1596831841436375 -1.4995141320453198 -1.5707
459 2.9412055083974877 -1.5777100008528644 1.4338313237902383 -2.1608614328854654 -1.499174083668965 -1.5707
460 2.9410507778393424 -1.5781910457312682 1.4347467971563779 -2.162037551837464 -1.49883449287028 -1.5707
461 2.9408959666298293 -1.5786728148171347 1.4356620999403613 -2.163211543367495 -1.4984953601077293 -1.5707
462 2.9407410740777937 -1.579155314950714 1.4365772385985587 -2.1643834098231554 -1.4981566858439617 -1.5707
463 2.940586099485143 -1.5796385530218542 1.4374922196225643 -2.1655531535316017 -1.4978184705459345 -1.5707
464 2.9404310421467827 -1.5801225359707396 1.4384070495397228 -2.166720776799375 -1.4974807146850397 -1.5707
465 2.9402759013505517 -1.5806072707886372 1.4393217349136602 -2.167886281912222 -1.4971434187372303 -1.5707
466 2.9401206763771577 -1.5810927645186545 1.440236282344824 -2.1690496711349194 -1.4968065831831487 -1.5707
467 2.9399653665001075 -1.5815790242565069 1.44115069847103 -2.1702109467110886 -1.4964702085082562 -1.5707
468 2.939809970985642 -1.582066057151294 1.4420649899680156 -2.1713701108630183 -1.4961342952029637 -1.5707
469 2.939654489092666 -1.5825538704062885 1.4429791635500009 -2.172527165791478 -1.4957988437627638 -1.5707
470 2.939498920072677 -1.5830424712797349 1.4438932259702595 -2.173682113675533 -1.4954638546883643 -1.5707
471 2.9393432631696976 -1.583531867085658 1.4448071840216936 -2.17483495667236 -1.4951293284858234 -1.5707
472 2.9391875176201983 -1.5840220651946837 1.44572104453742 -2.1759856969170563 -1.4947952656666859 -1.5707
473 2.939031682653029 -1.58451307303487 1.4466348143913619 -2.1771343365224487 -1.4944616667481214 -1.5707
474 2.938875757489341 -1.58500489809255 1.44754850049885 -2.1782808775789047 -1.4941285322530629 -1.5707
475 2.938719741342513 -1.5854975479131854 1.4484621098172312 -2.179425322154136 -1.493795862710348 -1.5707
476 2.9385636334180743 -1.5859910301022326 1.4493756493464862 -2.180567672293003 -1.4934636586548624 -1.5707
477 2.9384074329136256 -1.586485352326021 1.4502891261298547 -2.181707930017318 -1.493131920627682 -1.5707
478 2.938251139018762 -1.586980522312641 1.4512025472544707 -2.182846097325645 -1.4928006491762207 -1.5707
479 2.93809475091499 -1.587476547852848 1.4521159198520033 -2.1839821761930978 -1.4924698448543756 -1.5707
480 2.9379382677756483 -1.5879734368009752 1.4530292510993115 -2.1851161685711378 -1.4921395082226785 -1.5707
481 2.937781688765823 -1.5884711970758616 1.4539425482191022 -2.1862480763873657 -1.4918096398484442 -1.5707
482 2.937625013042264 -1.5889698366617913 1.4548558184806015 -2.187377901545316 -1.4914802403059249 -1.5707
483 2.9374682397533 -1.5894693636094468 1.455769069200234 -2.188505645924244 -1.4911513101764637 -1.5707
484 2.9373113680387517 -1.5899697860368758 1.45668230774231 -2.1896313113789176 -1.4908228500486516 -1.5707
485 2.9371543970298437 -1.59047111213047 1.4575955415197244 -2.190754899739399 -1.490494860518484 -1.5707
486 2.936997325849114 -1.5909733501459595 1.4585087779946644 -2.1918764128108292 -1.4901673421895225 -1.5707
487 2.936840153610326 -1.5914765084094205 1.459422024679327 -2.1929958523732087 -1.4898402956730559 -1.5707
488 2.9366828794183713 -1.5919805953182962 1.460335289136646 -2.1941132201811753 -1.4895137215882643 -1.5707
489 2.936525502369182 -1.592485619342434 1.4612485789810297 -2.195228517963779 -1.4891876205623853 -1.5707
490 2.9363680215496313 -1.5929915890251358 1.462161901879109 -2.196341747424258 -1.488861993230882 -1.5707
491 2.9362104360374395 -1.5934985129842243 1.4630752655504957 -2.197452910239805 -1.488536840237613 -1.5707
492 2.936052744901075 -1.594006399913124 1.463988677768551 -2.1985620080613395 -1.4882121622350046 -1.5707
493 2.9358949471996563 -1.5945152585819569 1.4649021463611653 -2.199669042513269 -1.4878879598842267 -1.5707
494 2.935737041982848 -1.5950250978386564 1.4658156792115495 -2.200774015193255 -1.487564233855368 -1.5707
495 2.9355790282907614 -1.5955359266100937 1.4667292842590351 -2.20187692767197 -1.4872409848276162 -1.5707
496 2.93542090515385 -1.5960477539032238 1.4676429694998887 -2.202977781492855 -1.4869182134894383 -1.5707
497 2.935262671592802 -1.5965605888062455 1.4685567429881357 -2.2040765781718736 -1.486595920538766 -1.5707
498 2.9351043266184367 -1.5970744404897794 1.4694706128363961 -2.2051733191972622 -1.4862741066831813 -1.5707
499 2.934945869231592 -1.5975893182080632 1.4703845872167332 -2.2062680060292776 -1.4859527726401047 -1.5707
500 2.9347872984230152 -1.5981052313001631 1.4712986743615124 -2.2073606400999424 -1.485631919136988 -1.5707
501 2.934628613173253 -1.598622189191205 1.4722128825642744 -2.2084512228127853 -1.485311546911507 -1.5707
502 2.934469812452535 -1.5991402013936213 1.4731272201806183 -2.209539755542581 -1.4849916567117585 -1.5707
503 2.9343108952206594 -1.5996592775084184 1.4740416956290996 -2.210626239635081 -1.4846722492964597 -1.5707
504 2.934151860426875 -1.6001794272264602 1.47495631739214 -2.2117106764067502 -1.4843533254351504 -1.5707
505 2.933992707009764 -1.600700660329773 1.47587109401695 -2.212793067144491 -1.4840348859083976 -1.5707
506 2.933833433897119 -1.6012229866928682 1.4767860341164645 -2.2138734131053677 -1.4837169315080032 -1.5707
507 2.9336740400058217 -1.6017464162840847 1.4777011463702927 -2.21495171551633 -1.4833994630372151 -1.5707
508 2.9335145242417173 -1.6022709591669524 1.4786164395256807 -2.2160279755739274 -1.4830824813109404 -1.5707
509 2.9333548854994906 -1.6027966255015742 1.4795319223984889 -2.2171021944440237 -1.4827659871559626 -1.5707
510 2.933195122662534 -1.6033234255460305 1.4804476038741823 -2.2181743732615056 -1.482449981411161 -1.5707
511 2.933035234602821 -1.603851369657803 1.4813634929088366 -2.21924451312999 -1.4821344649277335 -1.5707
512 2.9328752201807715 -1.6043804682952214 1.482279598530157 -2.2203126151215224 -1.481819438569424 -1.5707
513 2.932715078245119 -1.604910732018931 1.483195929838513 -2.2213786802762785 -1.481504903212751 -1.5707
514 2.9325548076327728 -1.6054421714933822 1.4841124960079886 -2.2224427096022543 -1.4811908597472403 -1.5707
515 2.9323944071686827 -1.6059747974883432 1.4850293062874467 -2.2235047040749563 -1.4808773090756622 -1.5707
516 2.9322338756656956 -1.6065086208804358 1.4859463700016082 -2.224564664637087 -1.4805642521142708 -1.5707
517 2.932073211924415 -1.607043652654694 1.4868636965521504 -2.225622592198224 -1.4802516897930478 -1.5707
518 2.931912414733054 -1.6075799039061458 1.4877812954188172 -2.2266784876344956 -1.4799396230559494 -1.5707
519 2.931751482867294 -1.6081173858414208 1.488699176160548 -2.2277323517882546 -1.4796280528611576 -1.5707
520 2.932218879688157 -1.6079983547055905 1.490919497766923 -2.2285470781661734 -1.4790899639677237 -1.5707
521 2.9326433434854846 -1.607901308602475 1.4925113244026151 -2.229439340083561 -1.4785765893931273 -1.5707
522 2.9330300999268664 -1.6078179394244887 1.4936844641871017 -2.230383109327092 -1.4780863022586843 -1.5707
523 2.93338326959083 -1.6077428284515543 1.4945781938218419 -2.231361123695052 -1.4776175514206096 -1.5707
524 2.933706198272532 -1.6076724363232167 1.4952851642894984 -2.232361881927202 -1.47716887060748 -1.5707
525 2.934001676706633 -1.6076044560485139 1.4958670912142893 -2.233377692285664 -1.4767388804397075 -1.5707
526 2.934272088037727 -1.6075373926280996 1.4963651171056422 -2.23440339281543 -1.4763262873003589 -1.5707
527 2.9345195078279604 -1.607470287258097 1.496806682681248 -2.235435506529427 -1.4759298806956431 -1.5707
528 2.934745772718557 -1.607402535250472 1.4972100952501912 -2.2364716812474263 -1.4755485298366344 -1.5707
529 2.934952528279342 -1.6073337653681345 1.4975875709670647 -2.23751031708734 -1.4751811798090966 -1.5707
530 2.9351412629633518 -1.6072637597014898 1.497947262772896 -2.2385503182569733 -1.4748268475418078 -1.5707
531 2.935313332726156 -1.607192400433015 1.498294612945954 -2.239590927441188 -1.4744846177083606 -1.5707
532 2.9354699793255596 -1.6071196344851693 1.4986332554342503 -2.2406316151840366 -1.4741536386547691 -1.5707
533 2.935612344302402 -1.607045450080722 1.4989656178801105 -2.2416720059363975 -1.473833118417187 -1.5707
534 2.935741479974011 -1.6069698612427443 1.4992933232684231 -2.24271182856934 -1.473522320873806 -1.5707
535 2.935858358329738 -1.6068928975856291 1.4996174578627584 -2.243750883221904 -1.4732205620597874 -1.5707
536 2.935963878425289 -1.6068145976294055 1.4999387499175907 -2.244789019059051 -1.472927206662613 -1.5707
537 2.936058872678459 -1.6067350044570559 1.5002576888598753 -2.2458261193196076 -1.4726416647066942 -1.5707
538 2.9361441123399357 -1.606654162926857 1.500574604758177 -2.246862091237369 -1.4723633884298546 -1.5707
539 2.9362203123270123 -1.606572117913911 1.5008897213051269 -2.2478968592216706 -1.4720918693498792 -1.5707
540 2.9362881355507815 -1.6064889132302655 1.5012031911379722 -2.2489303602198594 -1.4718266355162952 -1.5707
541 2.9363481968290492 -1.6064045909901197 1.5015151193842022 -2.2499625405420267 -1.4715672489405547 -1.5707
542 2.936401066451443 -1.6063191912648462 1.5018255793585538 -2.2509933536673454 -1.4713133031965588 -1.5707
543 2.9364472734457587 -1.6062327519247883 1.5021346230294041 -2.2520227587108623 -1.4710644211827886 -1.5707
544 2.93648730858273 -1.6061453085996353 1.502442287999791 -2.2530507193361107 -1.4708202530370167 -1.5707
545 2.936521627148223 -1.606056894712398 1.5027486021662197 -2.2540772029699703 -1.470580474194561 -1.5707
546 2.9365506515061592 -1.6059675415574717 1.5030535868303088 -2.2551021802236733 -1.470344783581206 -1.5707
547 2.936574773471418 -1.6058772784035342 1.5033572587796062 -2.256125624455508 -1.4701129019322006 -1.5707
548 2.9365943565090338 -1.6057861326088534 1.5036596316815083 -2.2571475114319375 -1.4698845702290997 -1.5707
549 2.9366097377738236 -1.6056941297410743 1.5039607170193223 -2.258167819057971 -1.4696595482466224 -1.5707
550 2.9366212300028987 -1.6056012936965338 1.5042605247230059 -2.2591865271570626 -1.4694376132021145 -1.5707
551 2.9366291232722124 -1.605507646816101 1.504559063596149 -2.260203617287131 -1.4692185585006328 -1.5707
552 2.936633686627222 -1.6054132099958098 1.5048563416068375 -2.2612190725835215 -1.4690021925690884 -1.5707
553 2.9366351695968502 -1.6053180027913787 1.5051523660874384 -2.2622328776225697 -1.4687883377732993 -1.5707
554 2.936633803599179 -1.6052220435162317 1.50544714387332 -2.263245018301333 -1.4685768294121924 -1.5707
555 2.9366298032466274 -1.6051253493329696 1.505740681400501 -2.2642554817303453 -1.4683675147837711 -1.5707
556 2.936623367557801 -1.6050279363384397 1.5060329847755718 -2.2652642561371255 -1.46816025231783 -1.5707
557 2.936614681082639 -1.604929819642668 1.5063240598267837 -2.2662713307787583 -1.4679549107707217 -1.5707
558 2.9366039149470273 -1.6048310134419868 1.5066139121422644 -2.2672766958622925 -1.4677513684778092 -1.5707
559 2.9365912278225905 -1.604731531086714 1.5069025470993425 -2.268280342471967 -1.467549512659532 -1.5707
560 2.9365767668269736 -1.604631385143749 1.5071899698876592 -2.2692822625024895 -1.4673492387772902 -1.5707
561 2.936560668359548 -1.6045305874544464 1.5074761855278713 -2.270282448597733 -1.4671504499356192 -1.5707
562 2.93654305887713 -1.604429149188113 1.5077611988871666 -2.2712808940943177 -1.4669530563273643 -1.5707
563 2.9365240556139756 -1.6043270808914532 1.5080450146924285 -2.2722775929696266 -1.466756974718801 -1.5707
564 2.936503767250015 -1.6042243925342707 1.5083276375416172 -2.273272539793867 -1.4665621279718548 -1.5707
565 2.9364822945310145 -1.6041210935517145 1.5086090719137706 -2.2742657296858284 -1.4663684446007743 -1.5707
566 2.936459730844091 -1.6040171928833307 1.5088893221779012 -2.275257158272032 -1.4661758583607984 -1.5707
567 2.9364361627517663 -1.6039126990091679 1.5091683926009953 -2.276246821648999 -1.4659843078665318 -1.5707
568 2.9364116704875167 -1.6038076199831637 1.5094462873552563 -2.2772347163483873 -1.4657937362378994 -1.5707
569 2.9363863284155785 -1.603701963464018 1.5097230105247037 -2.2782208393047703 -1.4656040907717076 -1.5707
570 2.936360205457558 -1.6035957367437488 1.5099985661112136 -2.279205187825851 -1.4654153226369746 -1.5707
571 2.9363333654882324 -1.603488946774108 1.510272958040065 -2.2801877595649267 -1.4652273865923233 -1.5707
572 2.936305867702736 -1.6033816001910175 1.5105461901650452 -2.281168552495427 -1.4650402407238536 -1.5707
573 2.9362777669571987 -1.6032737033371796 1.51081826627316 -2.2821475648873677 -1.4648538462020184 -1.5707
574 2.9362491140847347 -1.603165262283 1.5110891900889836 -2.2831247952855755 -1.4646681670561403 -1.5707
575 2.936219956188551 -1.6030562828459498 1.511358965278681 -2.2841002424895485 -1.464483169965294 -1.5707
576 2.9361903369138243 -1.6029467706084868 1.5116275954537317 -2.285073905534825 -1.4642988240643788 -1.5707
577 2.9361602966998706 -1.6028367309346407 1.5118950841743775 -2.2860457836757533 -1.4641151007642828 -1.5707
578 2.9361298730140293 -1.6027261689853696 1.512161434952818 -2.287015876369549 -1.4639319735851228 -1.5707
579 2.9360991005685775 -1.6026150897327718 1.512426651256173 -2.2879841832615484 -1.4637494180016166 -1.5707
580 2.936068011521898 -1.6025034979732469 1.512690736509228 -2.288950704171563 -1.4635674112997088 -1.5707
581 2.936036635665032 -1.6023913983396783 1.5129536940969828 -2.289915439081259 -1.463385932443639 -1.5707
582 2.936005000594684 -1.6022787953127136 1.5132155273670151 -2.290878388122474 -1.4632049619526923 -1.5707
583 2.9359731318736424 -1.6021656932312103 1.5134762396316734 -2.2918395515664143 -1.4630244817869371 -1.5707
584 2.9359410531795334 -1.6020520963019071 1.5137358341701117 -2.2927989298136526 -1.4628444752412944 -1.5707
585 2.9359087864427527 -1.6019380086083805 1.5139943142301786 -2.293756523384877 -1.4626649268473357 -1.5707
586 2.935876351974353 -1.6018234341193374 1.514251683030171 -2.294712332912327 -1.462485822282251 -1.5707
587 2.935843768584618 -1.6017083766962958 1.514507943760461 -2.2956663591318716 -1.4623071482844634 -1.5707
588 2.935811053692994 -1.6015928401006976 1.5147630995850054 -2.2966186028756757 -1.4621288925754108 -1.5707
589 2.935778223430012 -1.601476828000494 1.5150171536427492 -2.2975690650654155 -1.4619510437870442 -1.5707
590 2.935745292731769 -1.601360343976247 1.5152701090489258 -2.298517746705997 -1.461773591394629 -1.5707
591 2.935712275427525 -1.6012433915267767 1.5155219688962653 -2.299464648879743 -1.461596525654462 -1.5707
592 2.9356791843208967 -1.6011259740743944 1.5157727362561162 -2.3004097727410135 -1.461419837546149 -1.5707
593 2.935646031265129 -1.601008094969746 1.516022414179484 -2.3013531195112273 -1.4612435187191064 -1.5707
594 2.935612827232862 -1.6008897574963006 1.5162710056979987 -2.3022946904742514 -1.4610675614429856 -1.5707
595 2.9355795823808037 -1.6007709648745048 1.5165185138248094 -2.3032344869721335 -1.4608919585617282 -1.5707
596 2.934961887580548 -1.6013208994120605 1.5155650668377878 -2.304383529526446 -1.4609266129978464 -1.5707
597 2.9343784522412144 -1.6018406490421917 1.515211669688545 -2.3054573983191706 -1.460941196390881 -1.5707
598 2.9338267770120665 -1.6023408759266373 1.5152542324192775 -2.306480604689826 -1.4609361152366402 -1.5707
599 2.933304525458164 -1.602828737666189 1.51555754304737 -2.3074694907341597 -1.4609121157638378 -1.5707
600 2.932809522252439 -1.6033089930701452 1.5160323578897847 -2.308434900731039 -1.4608701387338383 -1.5707
601 2.9323397476022377 -1.6037847849349947 1.5166199185331568 -2.3093840121431763 -1.4608112215842497 -1.5707
602 2.9318933292694473 -1.6042581783808492 1.5172816003865395 -2.310321570894227 -1.4607364347305511 -1.5707
603 2.9314685334012305 -1.604730524590601 1.5179920403283254 -2.3112507163322724 -1.4606468414280716 -1.5707
604 2.9310637550148915 -1.6052027038772263 1.5187345948140238 -2.3121735285873903 -1.460543473421667 -1.5707
605 2.9306775086466064 -1.6056752869783248 1.519498347009786 -2.313091390221105 -1.4604273169601623 -1.5707
606 2.930308419437495 -1.60614864160885 1.5202761384229149 -2.3140052245389793 -1.460299305503038 -1.5707
607 2.929955214781527 -1.606623002647304 1.5210632759363056 -2.3149156523697347 -1.4601603166787498 -1.5707
608 2.9296167165731912 -1.6070985182797148 1.5218566831787592 -2.3158230951066376 -1.4600111718932731 -1.5707
609 2.9292918340463308 -1.6075752802980445 1.5226543438221618 -2.3167278423988877 -1.4598526375479821 -1.5707
610 2.9289795571729877 -1.6080533439754963 1.5234549365067471 -2.317630096617194 -1.4596854271957251 -1.5707
611 2.9286789505820865 -1.6085327410938095 1.5242575954854178 -2.318530002070827 -1.4595102042059085 -1.5707
612 2.9283891479558672 -1.6090134884746305 1.5250617537173021 -2.319427664217784 -1.4593275846668354 -1.5707
613 2.928109346863588 -1.609495593560359 1.5258670400206868 -2.320323162309187 -1.459138140355562 -1.5707
614 2.9278388039950625 -1.6099790580590687 1.526673211665563 -2.3212165577257347 -1.4589424016713706 -1.5707
615 2.9275768307600583 -1.6104638803193319 1.5274801101967956 -2.3221078994871496 -1.4587408604712881 -1.5707
616 2.9273227892229667 -1.610950056871824 1.5282876324837287 -2.322997227905793 -1.4585339727731421 -1.5707
617 2.9270760883452285 -1.6114375834243733 1.5290957117492103 -2.323884577021273 -1.4583221613088224 -1.5707
618 2.9268361805107186 -1.611926455498577 1.5299043051386778 -2.3247699762336307 -1.4581058179212059 -1.5707
619 2.9266025583116866 -1.612416668831484 1.5307133855749597 -2.325653451408939 -1.4578853058048666 -1.5707
620 2.926374751574907 -1.6129082196234394 1.5315229364212417 -2.326535025636925 -1.4576609615946976 -1.5707
621 2.9261523246095065 -1.6134011046853738 1.5323329479838317 -2.3274147197584423 -1.4574330973088794 -1.5707
622 2.925934873659541 -1.6138953215205607 1.5331434152201049 -2.3282925527401397 -1.4572020021538534 -1.5707
623 2.9257220245457822 -1.6143908683638775 1.533954336235778 -2.3291685419471073 -1.456967944199493 -1.5707
624 2.925513430482462 -1.6148877441937244 1.5347657112990392 -2.330042703346901 -1.4567311719327767 -1.5707
625 2.9253087700558345 -1.6153859487265831 1.535577542193033 -2.330915051666923 -1.456491915698123 -1.5707
626 2.9251077453524537 -1.6158854824007811 1.5363898317897924 -2.3317856005196598 -1.4562503890322338 -1.5707
627 2.924910080225996 -1.616386346353786 1.5372025837690573 -2.3326543625053704 -1.4560067899009208 -1.5707
628 2.9247155186923077 -1.616888542395869 1.5380158024318757 -2.3335213492986027 -1.4557613018449518 -1.5707
629 2.92452382344314 -1.6173920729820053 1.5388294925761918 -2.3343865717227983 -1.4555140950415166 -1.5707
630 2.9243347744697603 -1.61789694118322 1.5396436594129848 -2.3352500398158598 -1.4552653272874787 -1.5707
631 2.9241481677882746 -1.6184031506581693 1.5404583085089438 -2.3361117628886405 -1.4550151449101483 -1.5707
632 2.9239638142591247 -1.6189107056254541 1.5412734457465278 -2.3369717495777116 -1.4547636836109148 -1.5707
633 2.9237815384937687 -1.6194196108369796 1.5420890772954419 -2.3378300078933654 -1.454511069246689 -1.5707
634 2.9236011778420896 -1.6199298715525388 1.542905209591641 -2.3386865452635517 -1.4542574185537496 -1.5707
635 2.92342258145455 -1.6204414935157256 1.5437218493213287 -2.339541368574262 -1.4540028398182507 -1.5707
636 2.9232456094135513 -1.620954482931215 1.5445390034083073 -2.3403944842067546 -1.453747433497335 -1.5707
637 2.92307013192888 -1.621468846443417 1.5453566790036095 -2.341245898071947 -1.4534912927945063 -1.5707
638 2.922896028592489 -1.6219845911164879 1.5461748834767235 -2.34209561564222 -1.453234504192646 -1.5707
639 2.9227231876882316 -1.6225017244156572 1.546993624407961 -2.3429436419808667 -1.4529771479478044 -1.5707
640 2.9225515055524696 -1.6230202541898326 1.5478129095816802 -2.343789981769364 -1.4527192985466693 -1.5707
641 2.9223808859818043 -1.6235401886554226 1.5486327469801733 -2.34463463933264 -1.4524610251303955 -1.5707
642 2.9222112396844353 -1.6240615363813278 1.5494531447780993 -2.3454776186624846 -1.452202391887285 -1.5707
643 2.9220424837719263 -1.6245843062750398 1.5502741113373775 -2.346318923439243 -1.451943458416616 -1.5707
644 2.9218745412883886 -1.625108507569794 1.551095655202491 -2.3471585570519076 -1.4516842800657535 -1.5707
645 2.921707340774316 -1.625634149812717 1.5519177850961596 -2.347996522616734 -1.4514249082425146 -1.5707
646 2.921540815862511 -1.6261612428539132 1.5527405099153573 -2.348832822994477 -1.4511653907046163 -1.5707
647 2.9213749049037334 -1.6266897968364409 1.5535638387276511 -2.349667460806351 -1.4509057718278937 -1.5707
648 2.9212095506198694 -1.6272198221871212 1.5543877807678488 -2.3505004384488033 -1.4506460928548588 -1.5707
649 2.9210446997825983 -1.6277513296081356 1.5552123454349351 -2.351331758107184 -1.4503863921250477 -1.5707
650 2.920880302915666 -1.6282843300693606 1.5560375422892891 -2.3521614217683915 -1.4501267052884979 -1.5707
651 2.920716314019027 -1.6288188348013988 1.5568633810501686 -2.3529894312325683 -1.449867065503602 -1.5707
652 2.920552690313242 -1.6293548552892616 1.557689871593448 -2.3538157881239115 -1.4496075036204854 -1.5707
653 2.920389392002631 -1.6298924032666644 1.5585170239496018 -2.3546404939006655 -1.449348048350978 -1.5707
654 2.920226382055806 -1.630431490710898 1.5593448483019228 -2.355463549864353 -1.4490887264261636 -1.5707
655 2.920063626002298 -1.630972129838238 1.5601733549849615 -2.3562849571682962 -1.4488295627424228 -1.5707
656 2.920527883044038 -1.6308618316879129 1.5623207499111604 -2.3568594930537365 -1.448348498363296 -1.5707
657 2.920949883996808 -1.630773998476004 1.563822383928716 -2.3575149252342547 -1.4478904007636475 -1.5707
658 2.921334880979665 -1.6307000107902003 1.564899585858087 -2.358223407918702 -1.4474541242878671 -1.5707
659 2.9216869782618557 -1.6306343231021896 1.5656973121947269 -2.358966719126351 -1.4470384390878956 -1.5707
660 2.922009485660646 -1.6305733622151113 1.5663107106457952 -2.359732884086462 -1.4466420949176821 -1.5707
661 2.9223051506557134 -1.6305148310206588 1.5668023229690735 -2.3605140068331623 -1.4462638591331147 -1.5707
662 2.9225763121948303 -1.6304572620125104 1.567213295481679 -2.361304864816807 -1.4459025392409321 -1.5707
663 2.9228250036829864 -1.63039972816822 1.5675707142761814 -2.3621019924897584 -1.4455569958200623 -1.5707
664 2.9230530228259606 -1.6303416545694198 1.5678924172313093 -2.3629030813495158 -1.4452261493119773 -1.5707
665 2.9232619797425983 -1.630282695207502 1.5681901558840057 -2.363706586129256 -1.44490898287613 -1.5707
666 2.9234533307502373 -1.630222652268965 1.5684716750709722 -2.364511465851782 -1.4446045427298473 -1.5707
667 2.923628402643949 -1.6301614232277066 1.5687420815341573 -2.365317013356074 -1.44431193690519 -1.5707
668 2.92378841061803 -1.630098966188053 1.5690047448637556 -2.3661227429658926 -1.4440303330400068 -1.5707
669 2.923934471892244 -1.6300352772230746 1.5692618906589924 -2.366928316410861 -1.4437589556121533 -1.5707
670 2.924067616398272 -1.629970375600521 1.5695149910628812 -2.36773349393256 -1.4434970828867102 -1.5707
671 2.924188795420492 -1.6299042941940793 1.5697650218819692 -2.3685381019802 -1.4432440437526224 -1.5707
672 2.9242988887837025 -1.6298370733005438 1.5700126318605243 -2.3693420118380453 -1.442999214562367 -1.5707
673 2.9243987109829765 -1.6297687566908003 1.5702582541172805 -2.3701451254588743 -1.4427620160461005 -1.5707
674 2.92448901652136 -1.6296993891226834 1.5705021795058534 -2.370947366049493 -1.442531910343548 -1.5707
675 2.9245705046360246 -1.6296290148075696 1.5707446049111597 -2.371748671791744 -1.442308398178146 -1.5707
676 2.924643823537388 -1.6295576764965052 1.5709856650492373 -2.372548991634 -1.4420910161856102 -1.5707
677 2.9247095742486344 -1.6294854149663387 1.5712254534104626 -2.37334828245141 -1.4418793344010445 -1.5707
678 2.9247683141083924 -1.6294122687618915 1.5714640360584642 -2.37414650711246 -1.4416729539035609 -1.5707
679 2.9248205599828556 -1.6293382740999678 1.5717014607278057 -2.374943633147008 -1.4414715046141686 -1.5707
680 2.9248667912224704 -1.6292634648737552 1.5719377628279991 -2.375739631814762 -1.4412746432407673 -1.5707
681 2.9249074523907255 -1.629187872717696 1.5721729694114897 -2.3765344774415302 -1.4410820513630151 -1.5707
682 2.924942955787286 -1.6291115271070413 1.5724071018013763 -2.3773281469356116 -1.4408934336493344 -1.5707
683 2.924973683783977 -1.6290344554755685 1.57264017733654 -2.378120619426347 -1.4407085161981745 -1.5707
684 2.924999990989411 -1.6289566833409967 1.5728722105352195 -2.3789118759864034 -1.4405270449957404 -1.5707
685 2.925022206256018 -1.6288782344315837 1.5731032138750607 -2.3797018994122383 -1.440348784482624 -1.5707
686 2.925040634541693 -1.628799130809955 1.573333198319904 -2.3804906740456993 -1.4401735162220928 -1.5707
687 2.925055558637027 -1.6287193929918709 1.5735621736790333 -2.381278185625312 -1.4400010376631511 -1.5707
688 2.9250672407680685 -1.6286390400586988 1.5737901488553034 -2.38206442115952 -1.4398311609918706 -1.5707
689 2.925075924083721 -1.6285580897630294 1.5740171320193102 -2.3828493688166006 -1.439663712064875 -1.5707
690 2.92508183403613 -1.6284765586272958 1.5742431307340892 -2.3836330178276084 -1.4394985294192473 -1.5707
691 2.9250851796617643 -1.6283944620355113 1.5744681520465145 -2.384415358399779 -1.439335463353494 -1.5707
692 2.9250861547703306 -1.6283118143183868 1.5746922025560774 -2.385196381638565 -1.4391743750745571 -1.5707
693 2.9250849390481077 -1.6282286288321741 1.574915288468123 -2.385976079476959 -1.4390151359062027 -1.5707
694 2.925081699081831 -1.628144918031617 1.5751374156362556 -2.3867544446110904 -1.4388576265544284 -1.5707
695 2.9250765893088047 -1.6280606935374042 1.5753585895970528 -2.387531470441321 -1.4387017364258368 -1.5707
696 2.925069752898518 -1.6279759661985151 1.5755788155991957 -2.3883071510182146 -1.4385473629951961 -1.5707
697 2.9250613225706643 -1.627890746149831 1.5757980986284508 -2.389081480992882 -1.4383944112186793 -1.5707
698 2.9250514213541146 -1.62780504286537 1.5760164434294759 -2.3898544555712706 -1.438242792989512 -1.5707
699 2.925040163291075 -1.6277188652074774 1.5762338545251309 -2.390626070472045 -1.438092426632994 -1.5707
700 2.925027654090356 -1.6276322214722816 1.5764503362337718 -2.391396321887737 -1.4379432364380675 -1.5707
701 2.925013991733407 -1.627545119431707 1.576665892684869 -2.3921652064488996 -1.4377951522228156 -1.5707
702 2.924999267036498 -1.6274575663723068 1.5768805278332083 -2.392932721191003 -1.4376481089314426 -1.5707
703 2.924983564172212 -1.6273695691311627 1.5770942454718628 -2.3936988635238654 -1.43750204626048 -1.5707
704 2.924966961153164 -1.6272811341290787 1.5773070492440853 -2.3944636312034087 -1.4373569083121087 -1.5707
705 2.9249495302806676 -1.6271922674012766 1.5775189426542406 -2.395227022305557 -1.4372126432726462 -1.5707
706 2.9249313385608735 -1.6271029746257868 1.5777299290778757 -2.395989035202117 -1.4370692031143821 -1.5707
707 2.9249124480907236 -1.6270132611497088 1.5779400117710094 -2.3967496685384773 -1.4369265433190779 -1.5707
708 2.9248929164158977 -1.6269231320135076 1.5781491938787122 -2.397508921212995 -1.436784622621565 -1.5707
709 2.9248727968627724 -1.6268325919734932 1.5783574784430354 -2.3982667923579366 -1.4366434027719908 -1.5707
710 2.9248521388462705 -1.6267416455226231 1.5785648684103466 -2.3990232813218557 -1.436502848315361 -1.5707
711 2.924830988155339 -1.626650296909753 1.5787713666381171 -2.3997783876532948 -1.4363629263871291 -1.5707
712 2.924809387217678 -1.6265585501574569 1.5789769759012071 -2.400532111085716 -1.4362236065236706 -1.5707
713 2.9247873753452183 -1.6264664090785208 1.5791816988976852 -2.401284451523564 -1.4360848604865617 -1.5707
714 2.924764988961737 -1.6263738772912113 1.5793855382542206 -2.402035409029375 -1.4359466620996653 -1.5707
715 2.924742261813914 -1.626280958233413 1.5795884965310787 -2.4027849838118547 -1.4358089870980912 -1.5707
716 2.9247192251670175 -1.6261876551757162 1.5797905762267523 -2.40353317621485 -1.4356718129881738 -1.5707
717 2.924695907986343 -1.6260939712335365 1.5799917797822516 -2.4042799867071523 -1.435535118917663 -1.5707
718 2.924672337105429 -1.6259999093783375 1.5801921095850855 -2.405025415873056 -1.4353988855553896 -1.5707
719 2.924648537382018 -1.6259054724480229 1.5803915679729486 -2.405769464403638 -1.4352630949797143 -1.5707
720 2.924624531842643 -1.625810663156561 1.5805901572371435 -2.406512133088679 -1.4351277305751253 -1.5707
721 2.9246003418166713 -1.625715484102899 1.5807878796257528 -2.4072534228091973 -1.4349927769363884 -1.5707
722 2.924575987060572 -1.6256199377792173 1.5809847373465817 -2.4079933345305387 -1.4348582197797013 -1.5707
723 2.924551485873111 -1.6255240265785775 1.5811807325698863 -2.4087318692959845 -1.434724045860344 -1.5707
724 2.92452685520214 -1.6254277528020036 1.5813758674309062 -2.40946902822084 -1.4345902428963502 -1.5707
725 2.924502110743585 -1.625331118665043 1.5815701440322112 -2.410204812486962 -1.4344567994977608 -1.5707
726 2.924477267033208 -1.6252341263038432 1.5817635644458816 -2.410939223337699 -1.4343237051010571 -1.5707
727 2.9244523375316622 -1.6251367777807812 1.5819561307155274 -2.411672262073209 -1.4341909499083887 -1.5707
728 2.9244273347033287 -1.6250390750896775 1.5821478448581647 -2.4124039300461275 -1.434058524831255 -1.5707
729 2.924402270089394 -1.6249410201606265 1.5823387088659544 -2.413134228657558 -1.4339264214383078 -1.5707
730 2.924377154375581 -1.6248426148644721 1.5825287247078161 -2.413863159353367 -1.433794631906981 -1.5707
731 2.924351997454924 -1.624743861016953 1.5827178943309264 -2.4145907236207504 -1.4336631489786615 -1.5707
732 2.9243268084859544 -1.6246447603825418 1.5829062196621069 -2.41531692298506 -1.433531965917149 -1.5707
733 2.9243015959466225 -1.6245453146780047 1.5830937026091148 -2.416041759006868 -1.4334010764701604 -1.5707
734 2.9242763676842785 -1.6244455255756958 1.5832803450618382 -2.416765233279248 -1.4332704748336567 -1.5707
735 2.9242511309619856 -1.6243453947066118 1.5834661488934063 -2.417487347425262 -1.4331401556187888 -1.5707
736 2.9242258925014464 -1.6242449236632204 1.5836511159612192 -2.418208103095631 -1.4330101138212685 -1.5707
737 2.9242006585227807 -1.6241441140020805 1.5838352481079028 -2.4189275019665875 -1.4328803447929863 -1.5707
738 2.924175434781391 -1.6240429672462717 1.5840185471621955 -2.4196455457378785 -1.4327508442157157 -1.5707
739 2.9241502266021207 -1.6239414848876426 1.5842010149397714 -2.4203622361309254 -1.432621608076747 -1.5707
740 2.9241250389109124 -1.6238396683888947 1.5843826532440024 -2.4210775748871174 -1.432492632646312 -1.5707
741 2.924099876264142 -1.6237375191855148 1.5845634638666668 -2.421791563766234 -1.4323639144566673 -1.5707
742 2.9240747428757996 -1.6236350386875615 1.5847434485886065 -2.422504204544984 -1.4322354502827155 -1.5707
743 2.924049642642677 -1.6235322282813245 1.584922609180336 -2.423215499015654 -1.4321072371240515 -1.5707
744 2.9240245791677064 -1.6234290893308587 1.5851009474026072 -2.423925448984858 -1.431979272188329 -1.5707
745 2.923999555781584 -1.6233256231794075 1.585278465006935 -2.424634056272379 -1.4318515528758509 -1.5707
746 2.9239745755628075 -1.6232218311507205 1.5854551637360828 -2.425341322710099 -1.4317240767652926 -1.5707
747 2.92394964135624 -1.6231177145502744 1.5856310453245142 -2.4260472501410075 -1.4315968416004783 -1.5707
748 2.9239247557903107 -1.6230132746664045 1.5858061114988118 -2.4267518404182815 -1.4314698452781298 -1.5707
749 2.9238999212929513 -1.622908512771353 1.5859803639780654 -2.4274550954044396 -1.431343085836517 -1.5707
750 2.9238751401063587 -1.6228034301222396 1.586153804474232 -2.428157016970552 -1.4312165614449461 -1.5707
751 2.923850414300677 -1.622698027961962 1.586326434692469 -2.428857606995517 -1.4310902703940211 -1.5707
752 2.9238257457866688 -1.6225923075200284 1.586498256331445 -2.429556867365382 -1.4309642110866243 -1.5707
753 2.9238011363274548 -1.6224862700133313 1.5866692710836265 -2.4302547999727246 -1.4308383820295607 -1.5707
754 2.923776587549391 -1.6223799166468618 1.5868394806355448 -2.4309514067160727 -1.4307127818258194 -1.5707
755 2.9237521009521457 -1.6222732486143732 1.587008886668041 -2.431646689499369 -1.4305874091674062 -1.5707
756 2.9237276779180323 -1.6221662670989954 1.587177490856497 -2.4323406502314766 -1.430462262828705 -1.5707
757 2.923703319720657 -1.6220589732738044 1.5873452948710471 -2.4330332908257213 -1.4303373416603276 -1.5707
758 2.923679027532926 -1.621951368302349 1.587512300376774 -2.433724613199466 -1.4302126445834211 -1.5707
759 2.923654802434471 -1.6218434533391402 1.5876785090338907 -2.434414619273717 -1.4300881705843929 -1.5707
760 2.9236306454185153 -1.6217352295301033 1.5878439224979115 -2.43510331097276 -1.4299639187100255 -1.5707
761 2.923606557398246 -1.6216266980129985 1.5880085424198063 -2.4357906902238216 -1.429839888062955 -1.5707
762 2.923582539212708 -1.621517859917809 1.5881723704461466 -2.4364767589567577 -1.4297160777974809 -1.5707
763 2.9235585916322657 -1.6214087163671016 1.5883354082192394 -2.4371615191037637 -1.4295924871156873 -1.5707
764 2.923534715363665 -1.6212992684763607 1.5884976573772527 -2.437844972599103 -1.4294691152638512 -1.5707
765 2.9235109110547177 -1.6211895173542976 1.5886591195543291 -2.4385271213788626 -1.429345961529116 -1.5707
766 2.922903680169671 -1.6217431628774646 1.5876056822055518 -2.4394291944547932 -1.429428331994178 -1.5707
767 2.9223303883944176 -1.6222666818866167 1.5871669423538883 -2.4402533982391925 -1.4294918932847767 -1.5707
768 2.921788557525601 -1.6227710558478428 1.5871293522802623 -2.4410260063723244 -1.4295365902271318 -1.5707
769 2.9212758694126757 -1.6232635689368125 1.5873530960166593 -2.441764303046651 -1.429562879924405 -1.5707
770 2.9207901645941114 -1.6237490059589763 1.5877469686254453 -2.442479607880256 -1.4295715218900158 -1.5707
771 2.920329437295881 -1.6242304888698755 1.588251614746882 -2.4431793158485946 -1.4295634395122918 -1.5707
772 2.919891827906883 -1.6247100443992686 1.5888284632045246 -2.4438682531547533 -1.4295396309340151 -1.5707
773 2.9194756141285767 -1.6251889825808883 1.5894524714731806 -2.4445495701625353 -1.429501113088329 -1.5707
774 2.919079201675329 -1.6256681464855522 1.590107388837279 -2.4452253260252053 -1.429448887519324 -1.5707
775 2.9187011150693727 -1.6261480758779296 1.590782672405352 -2.4458968700479633 -1.429383920301531 -1.5707
776 2.9183399888284143 -1.6266291140117108 1.5914714827256975 -2.4465650898854627 -1.429307130971834 -1.5707
777 2.9179945591861283 -1.6271114771321857 1.5921693824821368 -2.447230572849647 -1.429219387152619 -1.5707
778 2.9176636563931826 -1.6275952996303757 1.5928734922099128 -2.4478937106658747 -1.429121502717387 -1.5707
779 2.9173461975962915 -1.6280806633444023 1.593581942740585 -2.448554767480718 -1.4290142381180633 -1.5707
780 2.917041180268095 -1.6285676165571235 1.5942935201663104 -2.449213924012979 -1.428898301992017 -1.5707
781 2.9167476761503597 -1.6290561863035062 1.595007435658605 -2.449871306225579 -1.428774353488885 -1.5707
782 2.916464825670322 -1.629546386336434 1.5957231762393809 -2.4505270039568523 -1.4286430049645082 -1.5707
783 2.916191832791048 -1.6300382222758991 1.596440408032696 -2.4511810830394576 -1.4285048248221672 -1.5707
784 2.9159279602593884 -1.6305316949311006 1.597158913537545 -2.4518335931950106 -1.4283603403663065 -1.5707
785 2.9156725252182727 -1.6310268024373609 1.5978785509548594 -2.452484573187998 -1.428210040588118 -1.5707
786 2.9154248951532744 -1.6315235416242737 1.5985992278114092 -2.4531340542008144 -1.4280543788367641 -1.5707
787 2.915184484146295 -1.6320219088852523 1.5993208838520923 -2.4537820620535453 -1.427893775351737 -1.5707
788 2.9149507494118123 -1.632521900723805 1.6000434799409216 -2.454428618672837 -1.4277286196454348 -1.5707
789 2.9147231880934426 -1.6330235140903713 1.6007669908575697 -2.4550737430720844 -1.42755927273342 -1.5707
790 2.9145013343005606 -1.6335267465836543 1.6014914006195609 -2.4557174520130136 -1.427386069214889 -1.5707
791 2.9142847563665 -1.634031596564503 1.6022166994419913 -2.4563597604590335 -1.4272093192088364 -1.5707
792 2.9140730543114057 -1.634538063213589 1.602942881759005 -2.4570006818919845 -1.4270293101530098 -1.5707
793 2.9138658574942116 -1.6350461465532118 1.6036699449337426 -2.4576402285388284 -1.4268463084735221 -1.5707
794 2.913662822439456 -1.6355558474464647 1.604397888414771 -2.4582784115385348 -1.426660561133252 -1.5707
795 2.9134636308257855 -1.6360671675823826 1.6051267131821192 -2.458915241068858 -1.4264722970670836 -1.5707
796 2.913267987624012 -1.636580109452682 1.6058564213812387 -2.45955072644586 -1.4262817285117981 -1.5707
797 2.9130756193735245 -1.6370946763237433 1.6065870160789824 -2.4601848762045853 -1.4260890522380594 -1.5707
798 2.9128862725867104 -1.6376108722062042 1.6073185010988984 -2.4608176981664047 -1.4258944506915332 -1.5707
799 2.9126997122718343 -1.6381287018236963 1.6080508809081735 -2.4614491994966823 -1.4256980930497425 -1.5707
800 2.9125157205655277 -1.6386481705817049 1.6087841605383015 -2.4620793867551907 -1.425500136200827 -1.5707
801 2.9123340954667225 -1.6391692845371726 1.6095183455278708 -2.4627082659409174 -1.425300725649957 -1.5707
802 2.9121546496644704 -1.6396920503692316 1.6102534418799619 -2.4633358425323753 -1.42509999635874 -1.5707
803 2.91197720945265 -1.6402164753512884 1.6109894560292828 -2.4639621215242014 -1.4248980735225834 -1.5707
804 2.911801613725104 -1.6407425673245868 1.6117263948158966 -2.4645871074606065 -1.4246950732906063 -1.5707
805 2.911627713045205 -1.6412703346732989 1.612464265463496 -2.46521080446608 -1.4244911034323682 -1.5707
806 2.911455368784323 -1.6417997863011609 1.6132030755609001 -2.4658332162736682 -1.424286263955354 -1.5707
807 2.9112844523240735 -1.6423309316096275 1.6139428330459114 -2.4664543462510724 -1.4240806476768773 -1.5707
808 2.9111148443175874 -1.6428637804775101 1.6146835461909652 -2.467074197424765 -1.4238743407537815 -1.5707
809 2.9109464340054334 -1.6433983432420465 1.6154252235902014 -2.467692772502299 -1.4236674231730713 -1.5707
810 2.9107791185821186 -1.6439346306813447 1.616167874147705 -2.468310073892946 -1.423459969206374 -1.5707
811 2.910612802609415 -1.644472653998139 1.6169115070667515 -2.4689261037268073 -1.4232520478309163 -1.5707
812 2.9104473974730345 -1.6450124248047935 1.6176561318399287 -2.4695408638724943 -1.4230437231194935 -1.5707
813 2.9102828208794294 -1.6455539551094922 1.618401758240056 -2.4701543559534986 -1.4228350546017383 -1.5707
814 2.9101189963897447 -1.646097257303548 1.6191483963118312 -2.4707665813633377 -1.422626097598808 -1.5707
815 2.9105812916129254 -1.6459943840993505 1.6212239731987768 -2.4711268516357174 -1.4221982201346934 -1.5707
816 2.91100206512851 -1.6459142379205116 1.6226434838891595 -2.4715701866254003 -1.421791974103781 -1.5707
817 2.9113865573885636 -1.6458480234681767 1.6236354622537355 -2.472067555741397 -1.4214065435366836 -1.5707
818 2.911738838184805 -1.6457901305898228 1.6243483136371124 -2.472600121656072 -1.4210409186493973 -1.5707
819 2.9120621736776195 -1.6457369754248785 1.6248786282540997 -2.473155614383465 -1.4206939977647113 -1.5707
820 2.9123592656153297 -1.6456862740400335 1.6252893640892685 -2.473726017873697 -1.4203646502996232 -1.5707
821 2.9126324085993778 -1.6456365804561834 1.6256215968375718 -2.4743060813354507 -1.42005175557723 -1.5707
822 2.912883594556345 -1.6455869899697777 1.6259021434052046 -2.4748923558982563 -1.4197542262776224 -1.5707
823 2.913114583036919 -1.6455369474556092 1.6261485208131103 -2.475482568956856 -1.4194710220192952 -1.5707
824 2.9133269492841483 -1.6454861230567106 1.6263721770209318 -2.4760752168674145 -1.4192011565825973 -1.5707
825 2.913522117760598 -1.6454343314296496 1.6265805979376289 -2.4766692993789543 -1.4189437010547052 -1.5707
826 2.9137013861023866 -1.645381479263793 1.626778682323296 -2.477264146294385 -1.4186977843873472 -1.5707
827 2.91386594271941 -1.6453275312014537 1.6269696392547306 -2.477859304241052 -1.4184625923456042 -1.5707
828 2.9140168801340334 -1.6452724877491531 1.6271555740440453 -2.478454462655684 -1.418237365489135 -1.5707
829 2.9141552054224236 -1.6452163710062502 1.6273378707914476 -2.4790494053682766 -1.4180213966046937 -1.5707
830 2.9142818486513833 -1.6451592154884742 1.6275174421675118 -2.479643978903848 -1.4178140278616256 -1.5707
831 2.9143976698979572 -1.6451010622689886 1.627694892509851 -2.4802380717056276 -1.4176146478646814 -1.5707
832 2.9145034652405912 -1.6450419552763003 1.627870624323709 -2.480831600495113 -1.4174226887142105 -1.5707
833 2.9145999719814766 -1.644981938991165 1.6280449078332757 -2.481424501297536 -1.4172376231414672 -1.5707
834 2.914687873275511 -1.6449210570479276 1.6282179264116576 -2.4820167235185675 -1.4170589617590241 -1.5707
835 2.914767802286207 -1.6448593514178425 1.6283898062645998 -2.482608226017924 -1.4168862504482176 -1.5707
836 2.9148403459527423 -1.6447968619643962 1.6285606358353895 -2.48319897449112 -1.4167190678938764 -1.5707
837 2.9149060484284655 -1.6447336262341348 1.6287304784998236 -2.4837889397093846 -1.4165570232691467 -1.5707
838 2.9149654142353194 -1.6446696793944813 1.6288993808806216 -2.484378096323647 -1.4163997540685713 -1.5707
839 2.9150189111679867 -1.644605054261329 1.6290673783015173 -2.4849664220403445 -1.4162469240847577 -1.5707
840 2.915066972974313 -1.6445397813795921 1.6292344983731426 -2.4855538970432773 -1.4160982215223312 -1.5707
841 2.9151100018335585 -1.644473889133175 1.6294007633581253 -2.486140503579163 -1.4159533572420175 -1.5707
842 2.915148370650469 -1.6444074038694494 1.629566191737913 -2.4867262256529123 -1.415812063127334 -1.5707
843 2.915182425180588 -1.6443403500289118 1.6297307992570693 -2.487311048797166 -1.4156740905663254 -1.5707
844 2.915212486000305 -1.6442727502743102 1.6298945996250438 -2.4878949598927504 -1.415539209040929 -1.5707
845 2.9152388503336284 -1.644204625615848 1.6300576049929365 -2.488477947024622 -1.4154072048168214 -1.5707
846 2.9152617937465006 -1.644135995530561 1.630219826282035 -2.4890599993630547 -1.415277879726932 -1.5707
847 2.9152815717184706 -1.6440668780748995 1.6303812734143053 -2.4896411070632247 -1.4151510500421725 -1.5707
848 2.9152984211007187 -1.6439972899901372 1.630541955477671 -2.490221261178564 -1.415026545423314 -1.5707
849 2.9153125614686943 -1.6439272468005908 1.630701880847598 -2.4908004535847326 -1.4149042079483172 -1.5707
850 2.915324196376997 -1.6438567629048437 1.6308610572790996 -2.4913786769120185 -1.414783891209786 -1.5707
851 2.9153335145235477 -1.643785851660297 1.631019491978467 -2.4919559244846234 -1.4146654594775767 -1.5707
852 2.915340690829585 -1.6437145254614203 1.6311771916608602 -2.4925321902657127 -1.4145487869219184 -1.5707
853 2.9153458874415374 -1.6436427958121151 1.6313341625978408 -2.4931074688074064 -1.41443375689273 -1.5707
854 2.9153492546603914 -1.6435706733925957 1.6314904106575767 -2.4936817552050696 -1.41432026125111 -1.5707
855 2.9153509318037694 -1.6434981681211842 1.6316459413395534 -2.4942550450554175 -1.4142081997492588 -1.5707
856 2.9153510480055562 -1.6434252892114019 1.6318007598050566 -2.494827334418018 -1.4140974794553556 -1.5707
857 2.91534972295757 -1.6433520452247128 1.63195487090429 -2.4953986197798725 -1.4139880142201582 -1.5707
858 2.915347067597452 -1.6432784441192547 1.6321082792007535 -2.4959688980227797 -1.4138797241823198 -1.5707
859 2.9153431847466518 -1.6432044932948655 1.632260988993321 -2.496538166393244 -1.413772535309632 -1.5707
860 2.915338169702099 -1.6431301996346945 1.632413004336352 -2.497106422474709 -1.4136663789736033 -1.5707
861 2.9153321107849157 -1.6430555695436626 1.6325643290580898 -2.497673664161924 -1.4135611915549635 -1.5707
862 2.9153250898492655 -1.6429806089840144 1.6327149667775425 -2.4982398896372744 -1.4134569140778612 -1.5707
863 2.915317182754216 -1.6429053235081899 1.6328649209200103 -2.4988050973489147 -1.4133534918706767 -1.5707
864 2.9153084598012957 -1.6428297182892189 1.6330141947313916 -2.4993692859905634 -1.4132508742515248 -1.5707
865 2.9152989861402254 -1.6427537981488338 1.6331627912913766 -2.499932454482835 -1.413149014236659 -1.5707
866 2.9152888221451247 -1.6426775675834715 1.6333107135256342 -2.5004946019559817 -1.4130478682701177 -1.5707
867 2.9152780237633373 -1.6426010307883274 1.6334579642170688 -2.5010557277339442 -1.4129473959730716 -1.5707
868 2.915266642838856 -1.6425241916796127 1.633604546016231 -2.5016158313196035 -1.4128475599114425 -1.5707
869 2.9152547274121896 -1.6424470539151483 1.633750461450945 -2.50217491238115 -1.4127483253804676 -1.5707
870 2.9152423219983814 -1.642369620913423 1.6338957129352187 -2.502732970739477 -1.4126496602049792 -1.5707
871 2.915229467844765 -1.6422918958712345 1.6340403027774875 -2.503290006356529 -1.412551534554256 -1.5707
872 2.91521620316993 -1.6422138817800158 1.6341842331882492 -2.503846019324519 -1.4124539207703894 -1.5707
873 2.915202563385255 -1.6421355814409502 1.6343275062871334 -2.5044010098559673 -1.412356793209179 -1.5707
874 2.9151885813002907 -1.6420569974789645 1.6344701241094468 -2.5049549782744807 -1.4122601280926474 -1.5707
875 2.9151742873131448 -1.6419781323556848 1.6346120886122373 -2.5055079250062318 -1.4121639033723308 -1.5707
876 2.915159709586983 -1.641898988381431 1.6347534016799126 -2.5060598505720746 -1.4120680986025542 -1.5707
877 2.915144874213637 -1.6418195677263263 1.6348940651294435 -2.506610755580254 -1.4119726948229732 -1.5707
878 2.9151298053652694 -1.6417398724305827 1.6350340807151886 -2.5071606407196634 -1.4118776744496984 -1.5707
879 2.91511452543496 -1.6416599044140272 1.6351734501333623 -2.5077095067536055 -1.411783021174383 -1.5707
880 2.915099055167019 -1.6415796654849244 1.6353121750261777 -2.5082573545140265 -1.4116887198706911 -1.5707
881 2.9150834137777832 -1.6414991573481486 1.6354502569856848 -2.5088041848961793 -1.4115947565076068 -1.5707
882 2.915067619067578 -1.6414183816127508 1.635587697557331 -2.5093499988536876 -1.4115011180690882 -1.5707
883 2.915051687524497 -1.6413373397989706 1.635724498243258 -2.509894797393981 -1.411407792479601 -1.5707
884 2.91503563442059 -1.6412560333447292 1.6358606605053614 -2.5104385815740735 -1.411314768535103 -1.5707
885 2.9150194739010207 -1.641174463611645 1.6359961857681258 -2.510981352496656 -1.4112220358390837 -1.5707
886 2.9150032190666986 -1.6410926318906058 1.6361310754212532 -2.5115231113064858 -1.411129584743285 -1.5707
887 2.9149868820508646 -1.6410105394069312 1.6362653308221007 -2.5120638591870414 -1.4110374062927673 -1.5707
888 2.914970474090074 -1.6409281873251544 1.6363989532979402 -2.5126035973574354 -1.4109454921749975 -1.5707
889 2.9149540055899825 -1.6408455767534538 1.636531944148055 -2.5131423270695508 -1.4108538346726711 -1.5707
890 2.9149374861863158 -1.6407627087477565 1.6366643046456828 -2.513680049605399 -1.410762426619988 -1.5707
891 2.914920924801373 -1.6406795843155422 1.6367960360398177 -2.5142167662746715 -1.4106712613621386 -1.5707
892 2.9149043296963963 -1.6405962044193656 1.6369271395568825 -2.5147524784124777 -1.4105803327177557 -1.5707
893 2.914887708520097 -1.6405125699801222 1.637057616402278 -2.515287187377251 -1.410489634944124 -1.5707
894 2.914871068353635 -1.6404286818800715 1.6371874677618217 -2.515820894548812 -1.410399162704939 -1.5707
895 2.914854415752292 -1.6403445409656408 1.6373166948030804 -2.516353601326579 -1.4103089110404323 -1.5707
896 2.9148377567841 -1.640260148050021 1.6374452986766075 -2.516885309127907 -1.410218875339689 -1.5707
897 2.9148210970656305 -1.6401755039155732 1.6375732805170906 -2.517416019386561 -1.410129051314997 -1.5707
898 2.9148044417951624 -1.6400906093160583 1.637700641444415 -2.517945733551294 -1.4100394349780796 -1.5707
899 2.9147877957834187 -1.6400054649787026 1.6378273825646519 -2.518474453084536 -1.4099500226180715 -1.5707
900 2.9147711634820457 -1.6399200716061122 1.6379535049709728 -2.5190021794611845 -1.409860810781113 -1.5707
901 2.9147545490100053 -1.6398344298780467 1.6380790097445004 -2.519528914167479 -1.4097717962514449 -1.5707
902 2.9147379561780293 -1.6397485404530638 1.6382038979550961 -2.5200546586999644 -1.4096829760338885 -1.5707
903 2.91472138851128 -1.6396624039700418 1.6383281706620914 -2.5205794145645326 -1.409594347337616 -1.5707
904 2.914704849270347 -1.6395760210495913 1.6384518289149654 -2.5211031832755335 -1.4095059075611118 -1.5707
905 2.914688341470701 -1.639489392295364 1.6385748737539763 -2.5216259663549545 -1.4094176542782395 -1.5707
906 2.9146718679007226 -1.6394025182952645 1.638697306210743 -2.52214776533166 -1.4093295852253338 -1.5707
907 2.9146554311384043 -1.6393153996225747 1.6388191273087889 -2.522668581740691 -1.4092416982892413 -1.5707
908 2.914639033566826 -1.6392280368369936 1.638940338064044 -2.523188417122614 -1.4091539914962397 -1.5707
909 2.9146226773884933 -1.639140430485604 1.6390609394853108 -2.5237072730229206 -1.4090664630017737 -1.5707
910 2.9146063646386247 -1.6390525811037662 1.6391809325746989 -2.524225150991472 -1.4089791110809449 -1.5707
911 2.9145900971974594 -1.638964489215947 1.639300318328026 -2.5247420525819866 -1.4088919341197008 -1.5707
912 2.9145738768016622 -1.6388761553364881 1.6394190977351908 -2.525257979351562 -1.408804930606675 -1.5707
913 2.9145577050548876 -1.638787579970319 1.6395372717805197 -2.525772932860237 -1.408718099125624 -1.5707
914 2.9145415834375714 -1.638698763613617 1.639654841443088 -2.5262869146705866 -1.4086314383484249 -1.5707
915 2.9145255133159975 -1.6386097067544183 1.6397718076970185 -2.526799926347344 -1.4085449470285842 -1.5707
