lar-deeufba/potential_fields_with_aruco/src/custom_codes/csv_files/csv_to_eps/csv_files/joint_smoothed_APF_OriON.csv
Index Joint1 Joint2 Joint3 Joint4 Joint5 Joint6
0 3.139318617769042 -1.5696891801148605 0.018497592588071234 -1.5718189439270047 -1.5738378559823738 -1.5734920863090822
1 3.1379420651459546 -1.5685063883930517 0.03655587755160321 -1.5730446203717525 -1.5736500545685834 -1.5726937510344228
2 3.1366622208952144 -1.5673479741601763 0.0548019074879853 -1.5742746479935952 -1.5737381643988382 -1.5718335552984646
3 3.1354738240231814 -1.5662126525618976 0.0732252770666845 -1.5755116607871489 -1.5740938699447584 -1.5709060547450986
4 3.134371613536212 -1.5650991387438786 0.0918155809571678 -1.5767582927470296 -1.5747088556779645 -1.5699058050182146
5 3.133350328440666 -1.5640061478517826 0.11056241382890221 -1.5780171778678547 -1.5755748060700765 -1.5688273617617037
6 3.1324047077429005 -1.562932395031273 0.1294553703513547 -1.5792909501442405 -1.5766834055927148 -1.5676652806194564
7 3.1315294904492736 -1.5618765954280118 0.14848404519399222 -1.5805822435708012 -1.5780263387174982 -1.5664141172353625
8 3.1307194155661455 -1.5608374641876634 0.16763803302628189 -1.5818936921421556 -1.5795952899160488 -1.5650684272533129
9 3.1299692220998727 -1.5598137164558896 0.18690692851769045 -1.5832279298529186 -1.5813819436599852 -1.5636227663171975
10 3.1292736490568145 -1.5588040673783548 0.2062803263376852 -1.5845875906977074 -1.5833779844209286 -1.5620716900709077
11 3.128627435443328 -1.557807232100721 0.2257478211557329 -1.5859753086711375 -1.5855750966704982 -1.5604097541583333
12 3.128025320265773 -1.5568219257686526 0.24529900764130064 -1.5873937177678261 -1.5879649648803158 -1.558631514223365
13 3.127462042530507 -1.5558468635278113 0.26492348046385533 -1.588845451982389 -1.5905392735219996 -1.5567315259098928
14 3.126932341243887 -1.5548807605238602 0.28461083429286393 -1.5903331453094414 -1.59328970706717 -1.5547043448618068
15 3.1264309554122742 -1.5539223319024635 0.3043506637977937 -1.5918594317436021 -1.5962079499874486 -1.5525445267229991
16 3.1259526240420255 -1.5529702928092843 0.3241325636481114 -1.593426945279486 -1.5992856867544547 -1.5502466271373592
17 3.125492086139499 -1.5520233583899847 0.34394612851328404 -1.5950383199117093 -1.6025146018398082 -1.5478052017487771
18 3.125044080711051 -1.5510802437902278 0.36378095306277836 -1.5966961896348881 -1.6058863797151288 -1.545214806201143
19 3.124603346763043 -1.5501396641556777 0.3836266319660619 -1.5984031884436398 -1.6093927048520378 -1.5424699961383486
20 3.124164623301832 -1.5492003346319967 0.40347275989260123 -1.60016195033258 -1.6130252617221543 -1.5395653272042835
21 3.123722649333777 -1.5482609703648484 0.4233089315118636 -1.6019751092963248 -1.6167757347971 -1.5364953550428386
22 3.1232721638652343 -1.5473202864998954 0.44312474149331565 -1.6038452993294912 -1.6206358085484929 -1.5332546352979037
23 3.1228079059025653 -1.5463769981828015 0.46290978450642467 -1.6057751544266952 -1.6245971674479551 -1.5298377236133702
24 3.1223246144521255 -1.545429820559229 0.4826536552206577 -1.607767308582553 -1.6286514959671057 -1.5262391756331277
25 3.1218170285202733 -1.544477468774841 0.5023459483054814 -1.6098243957916807 -1.6327904785775647 -1.5224535470010667
26 3.12127988711337 -1.5435186579753013 0.5219762584303631 -1.6119490500486955 -1.6370057997509533 -1.5184753933610782
27 3.12070792923777 -1.5425521033062726 0.5415341802647695 -1.614143905348213 -1.6412891439588904 -1.5142992703570521
28 3.120095893899834 -1.5415765199134182 0.5610093084781678 -1.6164115956848493 -1.6456321956729967 -1.509919733632879
29 3.1194385201059203 -1.540590622942401 0.5803912377400249 -1.6187547550532217 -1.6500266393648926 -1.5053313388324499
30 3.118730546862386 -1.5395931275388837 0.5996695627198076 -1.6211760174479455 -1.6544641595061977 -1.5005286415996544
31 3.1179667131755893 -1.5385827488485297 0.6188338780869833 -1.6236780168636373 -1.6589364405685323 -1.495506197578383
32 3.1171417580518908 -1.5375582020170029 0.6378737785110189 -1.6262633872949144 -1.6634351670235175 -1.490258562412527
33 3.1162504204976464 -1.5365182021899657 0.6567788586613812 -1.628934762736392 -1.6679520233427723 -1.4847802917459763
34 3.115287439519215 -1.535461464513081 0.6755387132075371 -1.6316947771826864 -1.6724786939979166 -1.479065941222621
35 3.1142475541229553 -1.5343867041320118 0.6941429368189538 -1.6345460646284145 -1.6770068634605715 -1.473110066486352
36 3.1131255033152256 -1.5332926361924224 0.7125811241650983 -1.6374912590681927 -1.681528216202357 -1.4669072231810598
37 3.111916026102383 -1.532177975839974 0.7308428699154375 -1.6405329944966363 -1.6860344366948927 -1.4604519669506342
38 3.1106138614907866 -1.531041438220331 0.7489177687394382 -1.6436739049083626 -1.690517209409799 -1.4537388534389664
39 3.1092137484867957 -1.5298817384791565 0.7667954153065677 -1.6469166242979876 -1.6949682188186963 -1.4467624382899462
40 3.107710426096767 -1.5286975917621133 0.7844654042862931 -1.650263786660128 -1.6993791493932044 -1.439517277147465
41 3.1061013667553365 -1.5274887730918874 0.8019162664894863 -1.653717921902433 -1.7037446186227725 -1.432001915896969
42 3.104394976610247 -1.5262592969992594 0.819132277292642 -1.657281143584686 -1.7080709760681632 -1.4242308613901324
43 3.1026023952375157 -1.525014237892032 0.8360966482136596 -1.6609554611797028 -1.7123675043079682 -1.4162226107201858
44 3.100734762213162 -1.523758670178008 0.8527925907704383 -1.6647428841603 -1.7166434859207786 -1.4079956609803594
45 3.0988032171132067 -1.522497668264991 0.8692033164808785 -1.6686454219992948 -1.7209082034851875 -1.3995685092638848
46 3.0968188995136674 -1.5212363065607843 0.885312036862879 -1.6726650841695028 -1.7251709395797852 -1.3909596526639916
47 3.0947929489905626 -1.5199796594731898 0.9011019634343397 -1.67680388014374 -1.7294409767831636 -1.38218758827391
48 3.092736505119913 -1.5187328014100125 0.9165563077131604 -1.6810638193948237 -1.7337275976739148 -1.3732708131868718
49 3.0906607074777357 -1.5175008067790539 0.9316582812172404 -1.68544691139557 -1.7380400848306303 -1.3642278244961066
50 3.08857669564005 -1.516288749988118 0.9463910954644796 -1.6899551656187948 -1.7423877208319012 -1.3550771192948454
51 3.086495609182876 -1.515101705445007 0.960737961972777 -1.6945905915373154 -1.7467797882563194 -1.3458371946763186
52 3.0844285876822335 -1.5139447475575258 0.9746820922600332 -1.699355198623948 -1.7512255696824774 -1.336526547733757
53 3.0823867707141384 -1.5128229507334752 0.9882066978441465 -1.7042509963515073 -1.7557343476889649 -1.3271636755603904
54 3.0803812978546112 -1.51174138938066 1.0012949902430177 -1.709279994192812 -1.7603154048543752 -1.3177670752494501
55 3.0784233086796715 -1.510705137906882 1.0139301809745453 -1.7144442016206773 -1.7649780237572992 -1.3083552438941666
56 3.0765239427653386 -1.5097192707199458 1.0260954815566299 -1.71974562810792 -1.7697314869763288 -1.2989466785877701
57 3.07469433968763 -1.5087888622276537 1.0377741035071706 -1.7251862831273563 -1.7745850770900558 -1.2895598764234915
58 3.072945639022565 -1.5079189868378085 1.0489492583440665 -1.730768176151802 -1.7795480766770706 -1.2802133344945608
59 3.0712889803461643 -1.507114718958214 1.0596041575852182 -1.7364933166540748 -1.7846297683159666 -1.2709255498942094
60 3.069735503234445 -1.5063811329966725 1.0697220127485247 -1.74236371410699 -1.7898394345853341 -1.261715019715667
61 3.0682945575357694 -1.505721801462268 1.0792935052396326 -1.7483804992024305 -1.7951851753174592 -1.252598192095047
62 3.0669683341878686 -1.5051342892692017 1.0883391960151743 -1.754541287508544 -1.8006703593594 -1.2435833193399908
63 3.0657572344008175 -1.5046146594329555 1.0968871159195301 -1.7608428158125442 -1.8062971728119095 -1.2346766048010218
64 3.0646616593846887 -1.5041589749690107 1.104965295797079 -1.7672818209016432 -1.8120678017757388 -1.225884251828663
65 3.0636820103495577 -1.5037632988928493 1.1126017664922006 -1.7738550395630566 -1.8179844323516412 -1.2172124637734394
66 3.0628186885054984 -1.5034236942199541 1.1198245588492752 -1.7805592085839972 -1.8240492506403694 -1.2086674439858738
67 3.062072095062583 -1.503136223965805 1.1266617037126812 -1.7873910647516775 -1.8302644427426737 -1.2002553958164892
68 3.061442631230888 -1.5028969511458852 1.1331412319267993 -1.7943473448533125 -1.8366321947593085 -1.1919825226158103
69 3.060930698220485 -1.5027019387756753 1.1392911743360086 -1.801424785676115 -1.843154692791025 -1.1838550277343598
70 3.06053669724145 -1.5025472498706578 1.145139561784689 -1.8086201240072988 -1.8498341229385757 -1.1758791145226621
71 3.0602610295038564 -1.502428947446314 1.1507144251172197 -1.815930096634078 -1.856672671302713 -1.1680609863312406
72 3.0601040962177786 -1.5023430945181264 1.1560437951779807 -1.8233514403436653 -1.8636725239841896 -1.1604068465106188
73 3.06006629859329 -1.5022857541015755 1.161155702811351 -1.8308808919232746 -1.870835867083757 -1.15292289841132
74 3.060148037840465 -1.5022529892121441 1.1660781788617112 -1.8385151881601196 -1.8781648867021683 -1.1456153453838682
75 3.060349715169376 -1.502240862865313 1.1708392541734394 -1.8462510658414135 -1.8856617689401745 -1.1384903907787867
76 3.0606717317900998 -1.5022454380765646 1.1754669595909168 -1.8540852617543706 -1.8933286998985293 -1.1315542379465995
77 3.0611144889127093 -1.502262777861381 1.1799893259585221 -1.8620145126862044 -1.901167865677985 -1.1248130902378302
78 3.0616783877472775 -1.5022889452352426 1.184434384120635 -1.870035555424127 -1.909181452379292 -1.118273151003002
79 3.0623638295038793 -1.5023200032136323 1.1888301649216353 -1.8781451267553537 -1.9173716461032047 -1.1119406235926388
80 3.0631712153925896 -1.5023520148120313 1.1932046992059024 -1.8863399634670974 -1.9257406329504745 -1.1058217113572641
81 3.0641001796609135 -1.5023816891197135 1.1975814016201822 -1.8946170396441573 -1.9342885920515318 -1.0999200717690878
82 3.0651472887060884 -1.5024083195211209 1.2019652220206865 -1.9029742785616734 -1.9430076746555174 -1.0942291787870644
83 3.0663083419627832 -1.5024318454744867 1.2063564940659923 -1.9114098407923719 -1.9518880250412498 -1.0887399604918342
84 3.0675791388656655 -1.5024522064380443 1.2107555514146766 -1.9199218869089771 -1.9609197874875477 -1.0834433449640377
85 3.0689554788494062 -1.5024693418700283 1.2151627277253179 -1.928508577484216 -1.97009310627323 -1.0783302602843157
86 3.070433161348675 -1.5024831912286722 1.2195783566564937 -1.9371680730908138 -1.9793981256771163 -1.0733916345333088
87 3.0720079857981375 -1.5024936939722089 1.2240027718667812 -1.9458985343014958 -1.9888249899780233 -1.0686183957916573
88 3.0736757516324653 -1.5025007895588727 1.228436307014758 -1.9546981216889885 -1.9983638434547715 -1.0640014721400022
89 3.0754322582863267 -1.502504417446897 1.2328792957590013 -1.9635649958260164 -2.0080048303861786 -1.059531791658983
90 3.0772733051943915 -1.502504517094516 1.2373320717580896 -1.972497317285306 -2.017738095051064 -1.0552002824292415
91 3.0791946917913275 -1.5025010279599629 1.2417949686705996 -1.9814932466395827 -2.0275537817282463 -1.0509978725314177
92 3.081192217511805 -1.502493889501472 1.2462683201551092 -1.9905509444615723 -2.0374420346965443 -1.0469154900461524
93 3.0832616817904914 -1.5024830411772763 1.2507524598701958 -1.9996685713239999 -2.0473929982347756 -1.0429440630540858
94 3.085398884062058 -1.5024684224456095 1.2552477214744373 -2.0088442877995925 -2.057396816621761 -1.0390745196358588
95 3.0875996237611707 -1.5024499727647054 1.2597544386264106 -2.0180762544610733 -2.067443634136317 -1.0352977878721115
96 3.089859700322501 -1.502427631592798 1.264272944984694 -2.0273626318811706 -2.077523595057264 -1.031604795843485
97 3.092174913180718 -1.5024013383881216 1.2688035742078647 -2.0367015806326085 -2.08762684366342 -1.0279864716306197
98 3.0945410617704887 -1.5023710326089084 1.2733466599544998 -2.046091261288113 -2.097743524233604 -1.024433743314156
99 3.096953945526484 -1.5023366537133926 1.2779025358831775 -2.05552983442041 -2.107863781046634 -1.0209375389747346
100 3.099409363883372 -1.5022981411598084 1.2824715356524752 -2.0650154606022246 -2.11797775838133 -1.0174887866929958
101 3.101903573819745 -1.5022554351919215 1.2870538598509134 -2.074546189689585 -2.128077579073939 -1.0140800916144521
102 3.1044346624898895 -1.502208479195625 1.291649176786785 -2.084119628671729 -2.1381632801904247 -1.0107107671441011
103 3.107001174592015 -1.5021572173423459 1.296257021698326 -2.0937332738211962 -2.1482368773541807 -1.0073818037518114
104 3.1096016548243273 -1.502101593803509 1.3008769298237717 -2.103384621410525 -2.1583003861886 -1.0040941919074524
105 3.112234647885039 -1.5020415527505409 1.3055084364013583 -2.113071167712256 -2.1683558223170754 -1.0008489220808936
106 3.1148986984723575 -1.5019770383548672 1.3101510766693223 -2.1227904089989296 -2.178405201363 -0.9976469847420041
107 3.1175923512844923 -1.501907994787914 1.3148043858658984 -2.132539841543083 -2.1884505389497666 -0.9944893703606524
108 3.1203141510196524 -1.5018343662211067 1.3194678992293232 -2.1423169616172584 -2.19849385070077 -0.9913770694067084
109 3.1230626423760453 -1.5017560968258716 1.3241411519978323 -2.152119265493994 -2.2085371522394013 -0.9883110723500407
110 3.1258363700518825 -1.5016731307736348 1.3288236794096617 -2.1619442494458294 -2.218582459189054 -0.9852923696605188
111 3.128633878745372 -1.5015854122358216 1.3335150167030474 -2.171789409745305 -2.2286317871731214 -0.9823219518080116
112 3.1314537131547224 -1.501492885383859 1.338214699116225 -2.1816522426649607 -2.238687151814997 -0.9794008092623886
113 3.134294417978143 -1.5013954943891714 1.3429222618874301 -2.191530244477334 -2.2487505687380733 -0.9765299324935186
114 3.137154537913843 -1.501293183423186 1.3476372402548993 -2.201420911454967 -2.2588240535657436 -0.9737103119712709
115 3.1400326176600304 -1.5011858966573273 1.3523591694568677 -2.2113217398703977 -2.2689096219214004 -0.9709429381655144
116 3.1429272019149157 -1.5010735782630225 1.3570875847315718 -2.2212302259961665 -2.2790092894284375 -0.9682288015461183
117 3.1458368353767083 -1.5009561724116973 1.3618220213172474 -2.2311438661048135 -2.289125071710248 -0.9655688925829524
118 3.1487600627436145 -1.5008336232747768 1.3665620144521298 -2.241060156468877 -2.2992589843902245 -0.9629642017458849
119 3.151695428713846 -1.5007058750236877 1.3713070993744552 -2.250976593360897 -2.30941304309176 -0.9604157195047855
120 3.154641477985611 -1.5005728718298554 1.3760568113224594 -2.2608906730534137 -2.319589263438248 -0.9579244363295232
121 3.157596544226505 -1.5004345987391505 1.380810506942924 -2.270800201781967 -2.3297864101454278 -0.9554898492272097
122 3.1605581169816728 -1.5002912042952208 1.3855668285168097 -2.2807042256341004 -2.3399902442984235 -0.9531054813539247
123 3.1635234747656447 -1.500142877916158 1.390324239733625 -2.2906021006603585 -2.3501832760747066 -0.9507633624029914
124 3.16648989609295 -1.499989809020054 1.3950812042828753 -2.300493182911284 -2.360348015651746 -0.9484555220677319
125 3.169454659478122 -1.4998321870250018 1.3998361858540687 -2.310376828437421 -2.3704669732070136 -0.9461739900414693
126 3.1724150434356906 -1.499670201349093 1.404587648136712 -2.3202523932893158 -2.3805226589179806 -0.9439107960175259
127 3.175368326480186 -1.499504041410419 1.4093340548203122 -2.330119233517509 -2.390497582962116 -0.9416579696892239
128 3.17831178712614 -1.499333896627073 1.414073869594376 -2.3399767051725475 -2.400374255516892 -0.9394075407498869
129 3.1812427038880817 -1.4991599564171463 1.4188055561484105 -2.349824164304973 -2.410135186759778 -0.9371515388928364
130 3.184158355280544 -1.4989824101987315 1.4235275781719232 -2.359660966965331 -2.4197628868682446 -0.9348819938113958
131 3.187056019818056 -1.4988014473899203 1.4282383993544208 -2.3694864692041655 -2.429239866019764 -0.9325909351988872
132 3.1899329760151502 -1.4986172574088052 1.4329364833854104 -2.3793000270720204 -2.438548634391806 -0.9302703927486339
133 3.1927865023863555 -1.4984300296734778 1.4376202939543985 -2.3891009966194385 -2.4476717021618404 -0.9279123961539576
134 3.195613877446205 -1.4982399536020305 1.4422882947508926 -2.3988887338969658 -2.4565915795073394 -0.9255089751081815
135 3.198412379709226 -1.498047218612555 1.4469389494643994 -2.4086625949551443 -2.465290776605772 -0.9230521593046275
136 3.2011792876899525 -1.4978520141231444 1.4515707217844267 -2.4184219358445196 -2.47375180363461 -0.920533978436619
137 3.2039118799029147 -1.49765452955189 1.456182075400481 -2.4281661126156355 -2.481957170771324 -0.9179464621974787
138 3.2066074348626423 -1.4974549543168836 1.4607714740020687 -2.437894481319035 -2.489889388193384 -0.9152816402805282
139 3.209263231083667 -1.4972534778362179 1.4653373812786978 -2.447606398005263 -2.497530966078261 -0.9125315423790908
140 3.2118765470805197 -1.4970502895279845 1.4698782609198746 -2.457301218724863 -2.5048644146034262 -0.909688198186489
141 3.2144449533861774 -1.4968456426829384 1.4743919071633493 -2.466978322925444 -2.5118751716092267 -0.9067457558841561
142 3.21696718860741 -1.4966400460824827 1.4788734364398404 -2.4766371836428727 -2.51856038558752 -0.9037068376059674
143 3.219442283369432 -1.4964340723806848 1.4833172957283092 -2.486277297310081 -2.524920132693042 -0.9005761839739095
144 3.2218692682974575 -1.4962282942316092 1.487717932007717 -2.4958981603599995 -2.5309544890805262 -0.8973585356099683
145 3.224247174016705 -1.496023284289323 1.4920697922570259 -2.5054992692255604 -2.536663530904708 -0.8940586331361304
146 3.226575031152388 -1.495819615207893 1.496367323455197 -2.515080120339696 -2.542047334320323 -0.890681217174382
147 3.228851870329722 -1.495617859641384 1.5006049725811912 -2.5246402101353356 -2.5471059754821046 -0.8872310283467089
148 3.231076722173923 -1.495418590243863 1.5047771866139705 -2.5341790350454123 -2.5518395305447887 -0.8837128072750979
149 3.233248617310206 -1.4952223796693955 1.5088784125324959 -2.5436960915028575 -2.556248075663109 -0.8801312945815346
150 3.2353665863637877 -1.4950298005720486 1.5129030973157296 -2.553190875940602 -2.560331686991802 -0.8764912308880058
151 3.237429659959882 -1.494841425605888 1.516845687942632 -2.5626628847915787 -2.564090440685601 -0.8727973568164977
152 3.239436868723706 -1.4946578274249795 1.5207006313921656 -2.5721116144887177 -2.5675244128992425 -0.8690544129889965
153 3.2413872432804736 -1.4944795786833898 1.5244623746432904 -2.581536561464951 -2.5706336797874587 -0.8652671400274881
154 3.2432798142554016 -1.4943072520351848 1.5281253646749695 -2.59093722215321 -2.5734183175049874 -0.8614402785539592
155 3.245113612273703 -1.4941414201344303 1.5316840484661627 -2.600313092986425 -2.575878402206561 -0.8575785691903957
156 3.246887667960597 -1.4939826556351932 1.5351328729958325 -2.6096636703975298 -2.5780140100469153 -0.8536867525587839
157 3.2486010119412976 -1.4938315311915398 1.5384662852429403 -2.6189884508194554 -2.5798252171807867 -0.8497695692811105
158 3.2502526748410188 -1.4936886194575352 1.5416787321864465 -2.628286930685132 -2.581312099762907 -0.8458317599793609
159 3.2518416872849776 -1.4935544930872462 1.5447646608053136 -2.6375586064274916 -2.5824747339480134 -0.8418780652755221
160 3.253367079898389 -1.493429724734739 1.5477185180785025 -2.646802974479466 -2.5833131958908395 -0.8379132257915798
161 3.2548281831113677 -1.4933145582663871 1.5505391217410147 -2.6560194064388827 -2.5838299295244855 -0.8339415973517819
162 3.2562255265736244 -1.4932079223977957 1.55324277255201 -2.6652067745631483 -2.584036849895509 -0.8299659965894202
163 3.2575599397397688 -1.493108417056876 1.5558501420266888 -2.674363826274567 -2.5839482398288327 -0.8259888553400482
164 3.2588322520644084 -1.4930146421715402 1.5583819016802496 -2.6834893089954415 -2.5835783821493785 -0.8220126054392185
165 3.2600432930021555 -1.4929251976697009 1.5608587230278936 -2.6925819701480753 -2.58294155968207 -0.818039678722485
166 3.2611938920076193 -1.4928386834792704 1.563301277584821 -2.7016405571547732 -2.58205205525183 -0.8140725070254011
167 3.2622848785354064 -1.4927536995281592 1.56573023686623 -2.7106638174378364 -2.5809241516835795 -0.8101135221835194
168 3.2633170820401305 -1.4926688457442812 1.568166272387322 -2.719650498419569 -2.5795721318022427 -0.8061651560323939
169 3.264291331976397 -1.492582722055547 1.5706300556632955 -2.728599347522274 -2.5780102784327408 -0.802229840407577
170 3.2652084577988183 -1.4924939283898697 1.5731422582093517 -2.7375091121682558 -2.5762528743999975 -0.7983100071446229
171 3.2660692889620027 -1.492401064675161 1.5757235515406895 -2.746378539779817 -2.5743142025289347 -0.7944080880790841
172 3.266874654920561 -1.4923027308393333 1.57839460717251 -2.7552063777792606 -2.5722085456444765 -0.7905265150465146
173 3.267625385129101 -1.4921975268102983 1.5811760966200115 -2.7639913735888904 -2.569950186571543 -0.786667719882467
174 3.268322309042233 -1.492084052515968 1.5840886913983945 -2.7727322746310104 -2.567553408135059 -0.7828341344224948
175 3.268966256114566 -1.4919609078842544 1.5871530630228587 -2.7814278283279212 -2.565032493159945 -0.7790281905021511
176 3.2695580558007107 -1.4918266928430701 1.5903898830086045 -2.790076782101929 -2.5624017244711252 -0.7752523199569895
177 3.2700985375552767 -1.4916800073203271 1.5938198228708318 -2.798677883375337 -2.5596753848935228 -0.7715089546225633
178 3.270588530832871 -1.4915194512439371 1.5974635541247397 -2.807229879570447 -2.5568677572520575 -0.7678005263344253
179 3.271028865088106 -1.4913436245418124 1.6013417482855283 -2.8157315181095623 -2.5539931243716545 -0.7641294669281292
180 3.27142036977559 -1.491151127141865 1.6054750768683976 -2.8241815464149878 -2.551065769077236 -0.760498208239228
181 3.2717638630485086 -1.4909411023936203 1.6098756776650884 -2.832579179039516 -2.5480971732029265 -0.756908680543357
182 3.2720601178543545 -1.4907148673330586 1.6145215535735018 -2.840925499057901 -2.545087614619663 -0.7533608078764795
183 3.272309895839196 -1.4904742824177724 1.6193821737680807 -2.849222056675389 -2.5420345702075835 -0.7498540127146407
184 3.2725139586490988 -1.4902212081053545 1.6244270074232656 -2.857470402097221 -2.5389355168468275 -0.7463877175338852
185 3.2726730679301337 -1.4899575048533988 1.6296255237135004 -2.8656720855286446 -2.5357879314175347 -0.7429613448102589
186 3.2727879853283692 -1.4896850331194982 1.6349471918132272 -2.873828657174904 -2.532589290799843 -0.7395743170198068
187 3.2728594724898707 -1.4894056533612448 1.6403614808968872 -2.8819416672412417 -2.5293370718738912 -0.7362260566385735
188 3.272888291060709 -1.4891212260362332 1.6458378601389232 -2.890012665932904 -2.526028751519819 -0.7329159861426048
189 3.27287520268695 -1.4888336116020553 1.651345798713777 -2.8980432034551344 -2.5226618066177653 -0.7296435280079453
190 3.272820969014663 -1.4885446705163048 1.6568547657958912 -2.9060348300131777 -2.5192337140478687 -0.7264081047106407
191 3.2727263516899163 -1.4882562632365748 1.6623342305597082 -2.913989095812279 -2.5157419506902676 -0.7232091387267358
192 3.2725921123587782 -1.4879702502204584 1.6677536621796698 -2.9219075510576817 -2.512183993425103 -0.7200460525322758
193 3.2724190126673163 -1.487688491925548 1.6730825298302177 -2.9297917459546308 -2.508557319132511 -0.7169182686033059
194 3.272207814261599 -1.4874128488094378 1.6782903026857952 -2.9376432307083715 -2.504859404692633 -0.7138252094158712
195 3.2719592787876937 -1.48714518132972 1.6833464499208433 -2.9454635555241464 -2.5010877269856056 -0.7107662974460168
196 3.27167416789167 -1.4868873499439883 1.688220440709805 -2.953254270607202 -2.4972397628915703 -0.7077409551697882
197 3.2713532432195955 -1.4866412151098356 1.6928817442271227 -2.961016926162782 -2.493312989290665 -0.7047486050632302
198 3.2709972664175373 -1.4864086372848546 1.697299829647238 -2.96875307239613 -2.489304883063028 -0.7017886696023881
199 3.270606999131565 -1.486191476926639 1.701444166144593 -2.976464259512491 -2.4852129210887988 -0.6988605712633069
200 3.270183203007746 -1.4859915944927815 1.70528422289363 -2.984152037717111 -2.4810345802481164 -0.6959637325220319
201 3.2697265939894455 -1.4858103374358311 1.7087981645553596 -2.991817409157914 -2.4767682685902215 -0.6930976235555398
202 3.2692377052092128 -1.4856470011881606 1.711998937737063 -2.999459183753552 -2.472416118840766 -0.6902619053445322
203 3.2687170240968957 -1.4855003681770986 1.7149081845325893 -3.0070756233653575 -2.467981194894502 -0.6874562865706431
204 3.2681650380823406 -1.4853692208299725 1.717547547035788 -3.014664989854662 -2.463466560646182 -0.6846804759155051
205 3.2675822345953955 -1.4852523415741115 1.7199386673405088 -3.0222255450828004 -2.4588752799905604 -0.6819341820607523
206 3.266969101065907 -1.485148512836844 1.7221031875406012 -3.0297555509111045 -2.4542104168223893 -0.6792171136880181
207 3.2663261249237214 -1.485056517045498 1.724062749729914 -3.037253269200905 -2.4494750350364214 -0.6765289794789358
208 3.265653793598686 -1.4849751366274018 1.7258389960022968 -3.044716961813537 -2.444672198527411 -0.6738694881151386
209 3.264952594520647 -1.484903154009884 1.727453568451599 -3.052144890610332 -2.4398049711901093 -0.67123834827826
210 3.2642230151194522 -1.4848393516202731 1.7289281091716704 -3.0595353174526227 -2.434876416919271 -0.6686352686499337
211 3.2634655428249495 -1.4847825118858977 1.73028426025636 -3.066886504201741 -2.4298895996096475 -0.6660599579117931
212 3.262680665066984 -1.4847314172340857 1.7315436637995176 -3.0741967127190217 -2.424847583155994 -0.6635121247454714
213 3.261868869275403 -1.4846848500921659 1.732727961894992 -3.0814642048657945 -2.419753431453061 -0.6609914778326018
214 3.2610306428800544 -1.4846415928874663 1.7338587966366332 -3.0886872425033944 -2.4146102083956036 -0.6584977258548185
215 3.260166473310784 -1.484600428047315 1.7349578101182894 -3.0958640874931525 -2.4094209778783724 -0.6560305774937539
216 3.259276847997439 -1.4845601379990416 1.7360466444338118 -3.1029930016964022 -2.4041888037961225 -0.6535897414310424
217 3.2583622543698683 -1.4845195051699738 1.737146941677049 -3.110072246974476 -2.398916750043607 -0.6511749263483171
218 3.2574231798579154 -1.484477311987439 1.7382803439418497 -3.1171000851887065 -2.3936078805155776 -0.648785840927211
219 3.25646011189143 -1.4844323408787672 1.739468493322064 -3.124074778200426 -2.3882652591067877 -0.6464221938493581
220 3.2554735379002575 -1.4843833742712862 1.7407330319115417 -3.1309945878709673 -2.3828919497119907 -0.6440836937963914
221 3.2544639244270064 -1.4843293979778243 1.7420907634829583 -3.1378582492796827 -2.3774907570428576 -0.6417699431716414
222 3.2534316544653215 -1.4842702113532122 1.743539138524301 -3.144666390378002 -2.3720634490787345 -0.6394801192652252
223 3.2523770901216116 -1.4842058171377805 1.745070769202382 -3.151420112335373 -2.3666115346158847 -0.637213293088957
224 3.251300593502282 -1.484136218071859 1.7466782676840136 -3.1581205163212447 -2.361136522450572 -0.6349685356546506
225 3.2502025267137418 -1.4840614168957786 1.7483542461360098 -3.164768703505067 -2.3556399213790598 -0.6327449179741202
226 3.2490832518623978 -1.4839814163498704 1.7500913167251841 -3.171365775056289 -2.350123240197614 -0.6305415110591801
227 3.247943131054654 -1.4838962191744636 1.7518820916183482 -3.177912832144358 -2.344587987702496 -0.6283573859216438
228 3.2467825263969203 -1.4838058281098898 1.7537191829823162 -3.1844109759387242 -2.3390356726899717 -0.6261916135733259
229 3.2456017999956024 -1.4837102458964786 1.7555952029839004 -3.190861307608836 -2.3334678039563026 -0.6240432650260399
230 3.244401313957108 -1.4836094752745617 1.7575027637899139 -3.1972649283241426 -2.327885890297755 -0.6219114112916003
231 3.243181430387844 -1.4835035189844683 1.7594344775671702 -3.203622939254093 -2.3222914405105914 -0.619795123381821
232 3.241942511394217 -1.48339237976653 1.7613829564824826 -3.209936441568136 -2.3166859633910764 -0.6176934723085161
233 3.2406849190826335 -1.4832760603610768 1.7633408127026629 -3.21620653643572 -2.311070967735473 -0.6156055290834994
234 3.2394090155595023 -1.483154563508439 1.7653006583945254 -3.2224343250262955 -2.305447962340046 -0.6135303647185855
235 3.2381151629312277 -1.4830278919489472 1.7672551057248818 -3.228620908509308 -2.2998184560010575 -0.6114670502255876
236 3.236803723304219 -1.482896048422932 1.7691967668605462 -3.2347673880542103 -2.294183957514774 -0.6094146566163204
237 3.2354750587848824 -1.4827590356707243 1.771118253968332 -3.2408748648304497 -2.2885459756774584 -0.607372254902598
238 3.234129531479624 -1.482616856432654 1.7730121792150504 -3.246944440007474 -2.2829060192853734 -0.6053389160962341
239 3.232767503494852 -1.482469513449052 1.7748711547675158 -3.2529772147547344 -2.2772655971347837 -0.6033137112090429
240 3.231389336936973 -1.4823170094602485 1.7766877927925413 -3.258974290241678 -2.2716262180219533 -0.6012957112528383
241 3.2299953954665495 -1.4821594257267652 1.7784564925714494 -3.2649365267342767 -2.265989242634078 -0.5992840749757254
242 3.2285860489607656 -1.4819971575898865 1.7801788018436022 -3.2708638208845886 -2.260355439222082 -0.5972783120709722
243 3.2271616688509623 -1.4818306789110889 1.7818580554628711 -3.2767558284411926 -2.2547254279278213 -0.5952780199681373
244 3.2257226265684786 -1.481660463551848 1.7834975882831274 -3.2826122051526685 -2.2490998288931516 -0.5932827960967797
245 3.2242692935446557 -1.4814869853736397 1.7851007351582442 -3.2884326067675977 -2.243479262259929 -0.5912922378864585
246 3.222802041210835 -1.4813107182379401 1.786670830942093 -3.29421668903456 -2.2378643481700107 -0.5893059427667321
247 3.2213212409983525 -1.4811321360062244 1.788211210488544 -3.2999641077021336 -2.2322557067652515 -0.5873235081671596
248 3.219827264338552 -1.4809517125399692 1.7897252086514706 -3.3056745185189005 -2.2266539581875087 -0.5853445315172998
249 3.218320482662772 -1.4807699217006494 1.7912161602847432 -3.311347577233439 -2.2210597225786364 -0.5833686102467115
250 3.216801267402354 -1.4805872373497424 1.7926874002422346 -3.3169829395943307 -2.215473620080493 -0.5813953417849533
251 3.215269989988636 -1.4804041333487228 1.7941422633778161 -3.3225802613501543 -2.2098962708349332 -0.5794243235615847
252 3.2137270218529608 -1.4802210835590668 1.7955840845453597 -3.328139198249491 -2.204328294983814 -0.577455153006164
253 3.2121727344266655 -1.48003856184225 1.7970161985987367 -3.333659406040919 -2.198770312668991 -0.5754874275482501
254 3.2106074991410933 -1.4798570420597492 1.7984419403918195 -3.3391405404730197 -2.1932229440323203 -0.5735207446174021
255 3.2090316874275815 -1.479676998073039 1.7998646447784785 -3.344582257294371 -2.187686809215657 -0.5715547016431786
256 3.2074456707174726 -1.479498903743596 1.8012876466125871 -3.3499842122535557 -2.182162528360859 -0.5695888960551385
257 3.205849820442106 -1.4793232329328965 1.8027142807480165 -3.3553460610991532 -2.176650721609782 -0.5676229252828408
258 3.2042445080328203 -1.479150459502415 1.8041478820386379 -3.3606674595797417 -2.171152009104281 -0.565656386755844
259 3.2026301049209582 -1.4789810573136286 1.8055917853383232 -3.3659480634439025 -2.1656670109862133 -0.5636888779037073
260 3.2010069825378578 -1.478815500228013 1.8070493255009445 -3.371187528440215 -2.1601963473974344 -0.5617199961559892
261 3.1993755207725325 -1.4786541421771977 1.8085230303265243 -3.3763856006573403 -2.1547406053776865 -0.5597493784352296
262 3.1977361333446788 -1.4784968573734318 1.8100121993996896 -3.381542387544263 -2.149300239558255 -0.5577768196358914
263 3.1960892424316696 -1.4783434000991176 1.8115153252512186 -3.3866580868900455 -2.143875671468313 -0.5558021541454186
264 3.1944352702108727 -1.4781935246366567 1.8130309004118879 -3.391732896483753 -2.1384673226370294 -0.553825216351254
265 3.19277463885966 -1.4780469852684524 1.8145574174124763 -3.396767014114451 -2.1330756145935794 -0.5518458406408421
266 3.191107770555401 -1.4779035362769073 1.8160933687837626 -3.401760637571204 -2.127700968867133 -0.5498638614016266
267 3.1894350874754656 -1.4777629319444232 1.8176372470565232 -3.406713964643075 -2.122343806986861 -0.5478791130210506
268 3.1877570117972254 -1.4776249265534038 1.8191875447615367 -3.4116271931191307 -2.117004550481937 -0.5458914298865585
269 3.1860739656980486 -1.4774892743862502 1.82074275442958 -3.4165005207884334 -2.1116836208815317 -0.5439006463855935
270 3.184386371355307 -1.477355729725366 1.8223013685914327 -3.4213341454400483 -2.1063814397148164 -0.5419065969055998
271 3.1826946509463707 -1.4772240468531534 1.8238618797778714 -3.4261282648630407 -2.1010984285109644 -0.5399091158340207
272 3.1809992266486096 -1.4770939800520149 1.8254227805196745 -3.4308830768464746 -2.095835008799146 -0.5379080375583001
273 3.1793005206393934 -1.4769652836043525 1.8269825633476193 -3.4355987791794136 -2.090591602108533 -0.5359031964658816
274 3.1775989550960944 -1.4768377117925697 1.8285397207924843 -3.4402755696509244 -2.0853686299682987 -0.5338944269442092
275 3.1758949521960798 -1.4767110188990678 1.8300927453850468 -3.4449136460500673 -2.0801665139076126 -0.5318815633807259
276 3.1741889341167218 -1.4765849592062505 1.8316401296560856 -3.4495132061659124 -2.074985675455648 -0.5298644401628761
277 3.1724813230353917 -1.47645928699652 1.833180366136378 -3.454074447787521 -2.0698265361415764 -0.5278428916781036
278 3.1707725411294567 -1.476333756552278 1.8347119473567017 -3.458597568703958 -2.064689517494569 -0.5258167523138516
279 3.169063010576289 -1.4762081221559282 1.8362333658478347 -3.4630827667042876 -2.059575041043798 -0.523785856457564
280 3.167353153553259 -1.4760821380898723 1.837743114140555 -3.4675302395775747 -2.0544835283184346 -0.5217500384966846
281 3.1656433513769846 -1.4759556073432858 1.8392399700683446 -3.4719401605403526 -2.049415355126314 -0.51970915671636
282 3.1639338219210797 -1.475828527732434 1.8407238526755028 -3.4763126045190265 -2.044370714389921 -0.5176631649925485
283 3.1622247421984064 -1.475700945780355 1.842194966309032 -3.4806476218674702 -2.0393497533104026 -0.5156120410989116
284 3.1605162892218246 -1.475572908010086 1.8436535153159346 -3.4849452629395574 -2.0343526190889065 -0.5135557628091101
285 3.1588086400041973 -1.4754444609446666 1.8450997040432144 -3.489205578089163 -2.029379458926581 -0.5114943078968059
286 3.1571019715583866 -1.4753156511071344 1.8465337368378756 -3.493428617670162 -2.024430420024574 -0.5094276541356602
287 3.1553964608972525 -1.4751865250205265 1.8479558180469182 -3.4976144320364244 -2.019505649584031 -0.5073557792993338
288 3.153692285033659 -1.475057129207882 1.8493661520173479 -3.5017630715418284 -2.014605294806103 -0.5052786611614887
289 3.151989620980465 -1.4749275101922383 1.850764943096166 -3.5058745865402465 -2.009729502891935 -0.5031962774957855
290 3.150288645750535 -1.4747977144966338 1.852152395630376 -3.509949027385552 -2.004878421042675 -0.5011086060758861
291 3.1485895363567287 -1.4746677886441064 1.8535287139669814 -3.5139864444316196 -2.0000521964594715 -0.49901562467545163
292 3.1468924698119096 -1.4745377791576944 1.8548941024529848 -3.5179868880323237 -1.995250976343472 -0.49691731106814324
293 3.145197623128937 -1.4744077325604354 1.8562487654353885 -3.5219504085415374 -1.990474907895824 -0.4948136430276223
294 3.1435051733206754 -1.474277695375368 1.8575929072611967 -3.525877056313136 -1.985724138317675 -0.4927045983275502
295 3.1418152973999836 -1.4741477141255293 1.8589267322774112 -3.529766881700991 -1.9809988148101718 -0.49059015474158796
296 3.140128172379725 -1.4740178353339584 1.860250444831036 -3.5336199350589785 -1.9762990845744635 -0.4884702900433972
297 3.1384439752727626 -1.4738881055236932 1.861564249269074 -3.5374362667409733 -1.9716250948116978 -0.4863449820066392
298 3.136762883091955 -1.473758571217771 1.862868349938527 -3.541215927100847 -1.966976992723021 -0.48421420840497503
299 3.1350850728501656 -1.4736292789392305 1.864162951186399 -3.544958966492475 -1.9623549255095816 -0.48207794701206624
300 3.1334107215602565 -1.4735002752111095 1.8654482573596929 -3.5486654352697307 -1.9577590403725271 -0.4799361756015739
301 3.131739996907982 -1.4733715955253073 1.8667244136464185 -3.5523353979254053 -1.953189459247387 -0.47778888801127517
302 3.1300730292706693 -1.473243231249166 1.8679913285986107 -3.555968975507949 -1.9486462030072194 -0.47563614233540935
303 3.12840993969854 -1.473115162718889 1.869248851609312 -3.5595663032047318 -1.944129267259463 -0.4734780127323315
304 3.126750849241812 -1.4729873702706795 1.8704968320715638 -3.5631275162031186 -1.9396386476115572 -0.4713145733603965
305 3.125095878950709 -1.4728598342407417 1.8717351193784089 -3.5666527496904807 -1.9351743396709422 -0.46914589837795967
306 3.1234451498754514 -1.4727325349652787 1.8729635629228893 -3.570142138854185 -1.9307363390450574 -0.466972061943376
307 3.1217987830662577 -1.4726054527804933 1.8741820120980468 -3.5735958188815977 -1.9263246413413413 -0.46479313821500023
308 3.1201568995733497 -1.4724785680225891 1.8753903162969237 -3.577013924960089 -1.9219392421672348 -0.46260920135118777
309 3.118519620446948 -1.4723518610277695 1.8765883249125614 -3.5803965922770256 -1.9175801371301755 -0.4604203255102934
310 3.1168870667372732 -1.4722253121322384 1.877775887338003 -3.583743956019776 -1.9132473218376047 -0.45822658485067236
311 3.115259359494546 -1.4720989016721984 1.8789528529662898 -3.587056151375708 -1.9089407918969608 -0.45602805353067954
312 3.113636619768987 -1.471972609983854 1.8801190711904647 -3.5903333135321898 -1.9046605429156844 -0.4538248057086702
313 3.1120189686108164 -1.4718464174034067 1.8812743914035688 -3.593575577676588 -1.9004065705012132 -0.45161691554299904
314 3.1104065270702557 -1.4717203042670621 1.882418662998645 -3.5967830789962725 -1.8961788702609883 -0.44940445719202143
315 3.108799416197523 -1.4715942509110218 1.883551735368734 -3.5999559526786093 -1.8919774378024476 -0.44718750481409214
316 3.107197757042842 -1.47146823767149 1.8846734579068796 -3.6030943339109687 -1.8878022687330323 -0.4449661325675663
317 3.1056016706564327 -1.4713422448846707 1.8857836800061234 -3.606198357880718 -1.8836533586601811 -0.4427404146107992
318 3.1040112780885134 -1.4712162528867658 1.8868822510595065 -3.609268159775223 -1.8795307031913333 -0.4405104251021455
319 3.102426700389308 -1.4710902420139798 1.8879690204600719 -3.6123038747818534 -1.8754342979339282 -0.4382762381999604
320 3.100848058609034 -1.4709641926025159 1.8890438376008616 -3.6153056380879764 -1.8713641384954056 -0.43603792806259906
321 3.0992754624989773 -1.4708380891146944 1.8901065816329745 -3.618273586307206 -1.8673202057822869 -0.4337955751308712
322 3.097708976614671 -1.470711932517307 1.8911572507397383 -3.621207861758129 -1.8633024218974161 -0.43154928497540573
323 3.0961486542127146 -1.4705857279032626 1.8921958728625377 -3.6241086081855793 -1.8593106942427216 -0.4292991694492864
324 3.0945945485497024 -1.4704594803654685 1.893222475942757 -3.6269759693343886 -1.855344930220129 -0.42704534040559683
325 3.0930467128822356 -1.4703331949968341 1.8942370879217805 -3.62981008894939 -1.851405037231566 -0.424787909697421
326 3.0915052004669112 -1.4702068768902685 1.8952397367409943 -3.632611110775419 -1.8474909226789598 -0.42252698917784254
327 3.0899700645603243 -1.4700805311386786 1.8962304503417813 -3.635379178557305 -1.8436024939642357 -0.42026269069994493
328 3.0884413584190757 -1.4699541628349744 1.8972092566655272 -3.6381144360398814 -1.8397396584893222 -0.41799512611681217
329 3.086919135299761 -1.4698277770720636 1.8981761836536157 -3.6408170269679823 -1.8359023236561445 -0.4157244072815278
330 3.0854034484589796 -1.4697013789428555 1.8991312592474323 -3.643487095086441 -1.8320903968666313 -0.41345064604717574
331 3.083894351153327 -1.4695749735402577 1.9000745113883613 -3.646124784140089 -1.8283037855227082 -0.41117395426683956
332 3.082391896639403 -1.4694485659571799 1.9010059680177878 -3.6487302378737603 -1.8245423970263026 -0.4088944437936031
333 3.0808961381738036 -1.4693221612865297 1.9019256570770953 -3.651303600032286 -1.8208061387793406 -0.40661222648054995
334 3.079407129013128 -1.4691957646212164 1.9028336065076694 -3.6538450143605017 -1.8170949181837506 -0.40432741418076396
335 3.0779249224139713 -1.469069381054147 1.9037298442508936 -3.6563546246032375 -1.8134086426414575 -0.40204011874732865
336 3.076449571632934 -1.4689430156782324 1.9046143982481536 -3.658832574505328 -1.8097472195543893 -0.39975045203332804
337 3.0749811299266128 -1.46881667358638 1.905487296440835 -3.661279007811606 -1.8061105563244733 -0.3974585258918457
338 3.073519650551604 -1.4686903598714973 1.9063485667703197 -3.663694068266903 -1.8024985603536348 -0.3951644521759653
339 3.072065186764507 -1.4685640796264947 1.9071982371779939 -3.6660778996160537 -1.798911139043802 -0.39286834273877064
340 3.0706177918219186 -1.4684378379442797 1.908036335605242 -3.6684306456038898 -1.7953481997969012 -0.3905703094333454
341 3.0691775125615686 -1.4683116396523455 1.9088628900578202 -3.6707524540019305 -1.791809641311163 -0.38827046458832865
342 3.0677443701457174 -1.4681854885165257 1.909677928798966 -3.6730434886884367 -1.7882953274700313 -0.38596892243457975
343 3.066318379317756 -1.468059388037238 1.9104814801562895 -3.6753039175683555 -1.7848051134532543 -0.38366579767851383
344 3.064899554821076 -1.4679333417148992 1.9112735724573986 -3.677533908546632 -1.7813388544405788 -0.38136120502654536
345 3.0634879113990685 -1.4678073530499278 1.9120542340299047 -3.6797336295282146 -1.7778964056117534 -0.37905525918508953
346 3.0620834637951266 -1.467681425542742 1.9128234932014165 -3.6819032484180525 -1.7744776221465255 -0.37674807486056117
347 3.060686226752641 -1.4675555626937578 1.9135813782995421 -3.684042933121087 -1.7710823592246423 -0.37443976675937485
348 3.059296215015004 -1.4674297680033943 1.914327917651893 -3.6861528515422686 -1.7677104720258523 -0.3721304495879456
349 3.057913443325605 -1.4673040449720685 1.9150631395860767 -3.688233171586542 -1.7643618157299021 -0.36982023805268815
350 3.056537926427839 -1.4671783971001988 1.9157870724297037 -3.6902840611588568 -1.7610362455165405 -0.3675092468600174
351 3.0551696790650955 -1.4670528278882025 1.916499744510383 -3.6923056881641574 -1.7577336165655146 -0.3651975907163482
352 3.053808715980767 -1.4669273408364973 1.9172011841557244 -3.694298220507392 -1.7544537840565726 -0.3628853843280955
353 3.0524550519182445 -1.466801939445501 1.9178914196933365 -3.6962618260935063 -1.7511966031694612 -0.3605727424016738
354 3.051108701620921 -1.4666766272156313 1.9185704794508294 -3.6981966728274482 -1.7479619290839294 -0.3582597796434982
355 3.0497696798321856 -1.4665514076473054 1.9192383917558113 -3.7001029286141627 -1.7447496169797234 -0.3559466107599834
356 3.048438001295433 -1.4664262842409421 1.9198951849358932 -3.701980761358598 -1.7415595220365923 -0.3536333504575444
357 3.047113680754054 -1.4663012604969585 1.9205408873186842 -3.703830338965703 -1.738391499434283 -0.351320113442596
358 3.0457967329514384 -1.466176339915772 1.9211755272317925 -3.7056518293404195 -1.7352454043525432 -0.34900701442155285
359 3.04448717263098 -1.4660515259978004 1.9217991330028283 -3.707445400387698 -1.7321210919711207 -0.34669416810083
360 3.043185014536069 -1.465926822243462 1.9224117329594008 -3.7092112200124845 -1.7290184174697636 -0.3443816891868422
361 3.041890270497032 -1.4658022319760404 1.9230133624010513 -3.7109494477302594 -1.7259372429221902 -0.34206969311333657
362 3.0406029406919206 -1.465677757810284 1.9236040845150464 -3.712660209498639 -1.722877457978005 -0.33975829822338927
363 3.039323022385727 -1.4655534021838088 1.9241839694605845 -3.714343622885774 -1.7198389591807832 -0.33744762358740904
364 3.0380505128434363 -1.4654291675342286 1.9247530873968641 -3.7159998054598122 -1.7168216430741001 -0.3351377882758041
365 3.0367854093300375 -1.4653050562991596 1.9253115084830839 -3.7176288747889075 -1.713825406201531 -0.3328289113589831
366 3.0355277091105193 -1.4651810709162167 1.9258593028784432 -3.7192309484412087 -1.7108501451066522 -0.3305211119073547
367 3.034277409449868 -1.4650572138230145 1.9263965407421388 -3.720806143984863 -1.707895756333037 -0.3282145089913272
368 3.0330345076130736 -1.464933487457168 1.926923292233371 -3.722354578988025 -1.7049621364242629 -0.32590922168130926
369 3.0317990008651226 -1.4648098942562926 1.9274396275113368 -3.723876371018841 -1.7020491819239036 -0.3236053690477092
370 3.0305708864710037 -1.464686436658003 1.9279456167352358 -3.7253716376454644 -1.6991567893755353 -0.3213030701609357
371 3.0293501616957057 -1.464563117099915 1.928441330064266 -3.726840496436043 -1.6962848553227334 -0.3190024440913972
372 3.0281368238042154 -1.4644399380196431 1.9289268376576265 -3.7282830649587293 -1.6934332763090731 -0.31670360990950236
373 3.0269308700615207 -1.4643169018548021 1.9294022096745145 -3.7296994607816703 -1.6906019488781294 -0.3144066866856595
374 3.025732297732611 -1.464194011043008 1.9298675162741303 -3.7310898014730203 -1.6877907695734782 -0.3121117934902773
375 3.024541104082472 -1.4640712680218744 1.9303228276156705 -3.7324542046009235 -1.6849996349386944 -0.30981904939376403
376 3.0233572863760947 -1.4639486752290176 1.930768213858335 -3.733792787733536 -1.6822284415173534 -0.3075285734665285
377 3.0221808418784657 -1.4638262351020526 1.9312037451613229 -3.7351056684390045 -1.6794770858530312 -0.30524048477897914
378 3.0210117678545725 -1.463703950078594 1.9316294916838306 -3.7363929642854807 -1.676745464489302 -0.30295490240152423
379 3.0198500615694037 -1.4635818225962565 1.9320455235850584 -3.737654792841114 -1.6740334739697422 -0.30067194540457265
380 3.018695720287947 -1.4634598550926563 1.932451911024204 -3.7388912716740546 -1.6713410108379265 -0.29839173285853265
381 3.0175487346332326 -1.4633380522839283 1.9328487144285713 -3.740102544893544 -1.6686679418084398 -0.29611437257770723
382 3.0164090686604554 -1.4632164280002917 1.9332359552978826 -3.7412888627731835 -1.666014014279902 -0.29383992735197667
383 3.015276679782852 -1.4630949983504862 1.9336136453999662 -3.7424505021276677 -1.6633789458219437 -0.2915684487151158
384 3.0141515254136566 -1.462973779443251 1.933981796502649 -3.7435877397716877 -1.660762454004193 -0.289299988200899
385 3.0130335629661094 -1.4628527873873263 1.9343404203737595 -3.7447008525199386 -1.6581642563962808 -0.28703459734310127
386 3.0119227498534453 -1.4627320382914515 1.934689528781126 -3.7457901171871133 -1.6555840705678364 -0.28477232767549726
387 3.0108190434889 -1.4626115482643658 1.9350291334925744 -3.7468558105879035 -1.6530216140884892 -0.2825132307318615
388 3.009722401285712 -1.4624913334148093 1.9353592462759341 -3.7478982095370044 -1.650476604527869 -0.28025735804596896
389 3.008632780657115 -1.4623714098515217 1.9356798788990321 -3.7489175908491075 -1.6479487594556044 -0.2780047611515941
390 3.007550139016348 -1.4622517936832422 1.9359910431296963 -3.749914231338907 -1.645437796441327 -0.27575549158251167
391 3.0064744337766465 -1.462132501018711 1.9362927507357546 -3.7508884078210953 -1.6429434330546644 -0.27350960087249643
392 3.0054056223512475 -1.4620135479666676 1.9365850134850346 -3.7518403971103664 -1.6404653868652477 -0.2712671405553231
393 3.0043436621533868 -1.4618949506358507 1.9368678431453639 -3.752770476021412 -1.638003375442705 -0.2690281621647662
394 3.003288510596302 -1.4617767251350013 1.9371412514845705 -3.7536789213689272 -1.6355571163566678 -0.26679271723460063
395 3.002240125093228 -1.461658887572858 1.9374052502704815 -3.7545660099676033 -1.6331263271767635 -0.26456085729860096
396 3.0011984630574027 -1.4615414540581608 1.9376598512709255 -3.755432018632134 -1.6307107254726232 -0.26233263389054196
397 3.000163481902063 -1.46142444069965 1.9379050662537305 -3.7562772241772144 -1.628310028813877 -0.26010809854419836
398 2.9991351390404435 -1.4613078636060641 1.9381409069867226 -3.7571019034175346 -1.6259239547701525 -0.2578873027933447
399 2.9981133918857825 -1.461191738886143 1.938367385237731 -3.7579063331677887 -1.623552220911081 -0.2556702981717558
400 2.9970981978513156 -1.4610760826486269 1.9385845127745829 -3.758690790242671 -1.6211945448062917 -0.25345713621320637
401 2.996089529598807 -1.460960902279369 1.9387923390306707 -3.7594554434049265 -1.6188507628023698 -0.2512478981400726
402 2.9950874207841274 -1.460846170272679 1.938991064101643 -3.760200029209508 -1.616521186353724 -0.24904278392913679
403 2.9940919203116763 -1.4607318503999809 1.9391809257487138 -3.7609241761594214 -1.6142062456917203 -0.24684202324578283
404 2.99310307708585 -1.4606179064326978 1.939362161733095 -3.7616275127576713 -1.611906371047723 -0.24464584575539441
405 2.9921209400110493 -1.4605043021422541 1.9395350098160018 -3.7623096675072647 -1.609621992653097 -0.24245448112335552
406 2.9911455579916724 -1.4603910013000734 1.9396997077586466 -3.7629702689112077 -1.607353540739208 -0.24026815901505005
407 2.990176979932116 -1.4602779676775788 1.9398564933222424 -3.7636089454725035 -1.6051014455374197 -0.2380871090958616
408 2.98921525473678 -1.460165165046195 1.940005604268003 -3.76422532569416 -1.6028661372790984 -0.2359115610311742
409 2.988260431310062 -1.4600525571773446 1.9401472783571412 -3.7648190380791804 -1.6006480461956079 -0.23374174448637158
410 2.987312558556361 -1.459940107842452 1.9402817533508714 -3.7653897111305725 -1.5984476025183139 -0.2315778891268377
411 2.986371685380075 -1.4598277808129407 1.9404092670104058 -3.7659369733513413 -1.596265236478581 -0.22942022461795628
412 2.9854378606856034 -1.4597155398602353 1.940530057096959 -3.7664604532444925 -1.5941013783077747 -0.22726898062511125
413 2.9845111333773433 -1.459603348755758 1.9406443613717432 -3.7669597793130305 -1.591956458237259 -0.22512438681368638
414 2.983591552359694 -1.4594911712709333 1.9407524175959723 -3.767434580059963 -1.5898309064983998 -0.22298667284906554
415 2.982679166537053 -1.4593789711771847 1.9408544635308584 -3.7678844839882926 -1.5877251533225611 -0.2208560683966325
416 2.9817740248138205 -1.4592667122459362 1.9409507369376167 -3.7683091196010277 -1.585639628941109 -0.21873280312177118
417 2.980876176094394 -1.459154358248612 1.94104147557746 -3.7687081154011737 -1.583574763585408 -0.21661710668986547
418 2.9799856692831708 -1.4590418729566343 1.9411269172116012 -3.7690810998917335 -1.5815309874868229 -0.214509208766299
419 2.9791025532845508 -1.4589292201414281 1.9412072996012533 -3.769427701575715 -1.5795087308767186 -0.2124093390164558
420 2.978226877002932 -1.458816363574417 1.9412828605076307 -3.7697475489561234 -1.57750842398646 -0.21031772710571964
421 2.9773586568162345 -1.4587033032328962 1.9413536462973977 -3.770040398018615 -1.5755303579060969 -0.20823458101984516
422 2.976497778996467 -1.458590183917652 1.941418937759026 -3.770306514679445 -1.5735742671604163 -0.20616002202607006
423 2.975644097289161 -1.458477186635342 1.94147782428644 -3.7705462923375204 -1.5716397471328902 -0.2040941497120029
424 2.9747974654398446 -1.4583644923926233 1.941529395273562 -3.770760124391745 -1.5697263932069896 -0.20203706366525218
425 2.97395773719405 -1.4582522821961548 1.941572740114316 -3.770948404241028 -1.5678338007661865 -0.19998886347342643
426 2.9731247662973086 -1.4581407370525938 1.9416069482026261 -3.7711115252842764 -1.5659615651939531 -0.19794964872413418
427 2.972298406495148 -1.4580300379685973 1.9416311089324148 -3.771249880920393 -1.5641092818737596 -0.1959195190049839
428 2.971478511533101 -1.4579203659508242 1.9416443116976059 -3.7713638645482868 -1.5622765461890795 -0.19389857390358417
429 2.9706649351566967 -1.4578119020059312 1.9416456458921227 -3.7714538695668622 -1.5604629535233827 -0.19188691300754346
430 2.9698575311114666 -1.4577048271405773 1.9416342009098895 -3.7715202893750273 -1.5586680992601423 -0.18988463590447036
431 2.96905615314294 -1.457599322361419 1.941609066144829 -3.771563517371687 -1.5568915787828292 -0.18789184218197333
432 2.968260654996649 -1.4574955686751152 1.941569330990865 -3.771583946955749 -1.5551329874749156 -0.18590863142766098
433 2.967470890418122 -1.4573937470883227 1.941514084841921 -3.7715819715261176 -1.5533919207198723 -0.18393510322914172
434 2.966686713152892 -1.4572940386077 1.941442417091921 -3.771557984481701 -1.551667973901172 -0.18197135717402416
435 2.9659079769464856 -1.457196624239904 1.9413534171347864 -3.771512379221404 -1.5499607424022852 -0.18001749284991667
436 2.965134535544438 -1.4571016849915934 1.9412461743644434 -3.771445549144134 -1.5482698216066848 -0.17807360984442797
437 2.9643662426922766 -1.457009401869426 1.9411197781748144 -3.7713578876487968 -1.546594806897842 -0.17613980774516652
438 2.963602952135532 -1.4569199558800583 1.9409733179598223 -3.771249788134298 -1.5449352936592278 -0.17421618613974077
439 2.962844517619736 -1.4568335280301494 1.9408058831133912 -3.771121643999545 -1.5432908772743148 -0.1723028446157593
440 2.962090792890418 -1.4567502993263568 1.9406165630294447 -3.7709738486434436 -1.541661153126574 -0.17039988276083057
441 2.9613415887413193 -1.4566705979617727 1.940405094372543 -3.7708067965512444 -1.5400457111078572 -0.16850733202990567
442 2.9605965441590243 -1.456595340875231 1.9401738028897948 -3.7706208865535737 -1.5384441191435336 -0.16662495134730534
443 2.9598552551783275 -1.456525592192 1.9399256615989462 -3.7704165185674032 -1.5368559396673531 -0.1647524315046929
444 2.959117317834022 -1.456462416037347 1.9396636435177417 -3.770194092509701 -1.5352807351130644 -0.16288946329373155
445 2.958382328160905 -1.4564068765365417 1.9393907216639286 -3.7699540082974408 -1.533718067914417 -0.16103573750608466
446 2.9576498821937705 -1.4563600378148518 1.9391098690552522 -3.769696665847593 -1.5321675005051607 -0.15919094493341554
447 2.956919575967411 -1.4563229639975452 1.9388240587094572 -3.769422465077127 -1.5306285953190437 -0.15735477636738732
448 2.956191005516624 -1.4562967192098908 1.9385362636442907 -3.7691318059030148 -1.5291009147898165 -0.15552692259966341
449 2.955463766876202 -1.4562823675771563 1.9382494568774968 -3.7688250882422256 -1.5275840213512273 -0.153707074421907
450 2.9547374560809416 -1.4562809732246107 1.9379666114268228 -3.7685027120117325 -1.526077477437026 -0.15189492262578144
451 2.9540116691656353 -1.4562936002775217 1.9376907003100134 -3.768165077128504 -1.524580845480962 -0.15009015800295
452 2.9532860021650795 -1.4563213128611578 1.937424696544815 -3.767812583509512 -1.5230936879167847 -0.1482924713450759
453 2.9525600511140673 -1.4563651751007878 1.9371715731489727 -3.7674456310717273 -1.5216155671782425 -0.14650155344382249
454 2.951833412047395 -1.4564262511216794 1.9369343031402326 -3.7670646197321207 -1.520146045699086 -0.144717095090853
455 2.9511056809998553 -1.4565056050491005 1.9367158595363394 -3.7666699494076608 -1.5186846859130627 -0.1429387870778307
456 2.9503764540062445 -1.4566043010083203 1.9365192153550406 -3.766262020015322 -1.5172310502539241 -0.14116632019641892
457 2.9496453271013574 -1.4567234031246072 1.9363473436140812 -3.7658412314720744 -1.515784701155418 -0.13939938523828097
458 2.9489118963199865 -1.4568639755232284 1.9362032173312058 -3.7654079836948857 -1.5143452010512943 -0.13763767299508003
459 2.9481757576969287 -1.457027082329453 1.9360898095241614 -3.7649626766007294 -1.5129121123753018 -0.1358808742584794
460 2.9474365072669775 -1.4572137876685494 1.9360100932106934 -3.764505710106575 -1.5114849975611901 -0.1341286798201424
461 2.9466939300537227 -1.4574247188322567 1.935966129163853 -3.764037410301657 -1.5100634758203257 -0.13238088386169408
462 2.9459485670359316 -1.457658755778196 1.9359563291779165 -3.7635578079642587 -1.508647393474543 -0.13063769412460666
463 2.945201148181166 -1.4579143416304616 1.9359781928024657 -3.763066860044925 -1.507236653623293 -0.12889942174031413
464 2.944452403456987 -1.4581899195131456 1.9360292195870814 -3.7625645234942002 -1.5058311593660274 -0.12716637784025042
465 2.943703062830959 -1.4584839325503414 1.936106909081346 -3.7620507552626328 -1.5044308138021973 -0.12543887355584965
466 2.9429538562706434 -1.4587948238661421 1.936208760834842 -3.76152551230077 -1.5030355200312555 -0.12371722001854572
467 2.9422055137436005 -1.4591210365846399 1.9363322743971492 -3.760988751559153 -1.5016451811526514 -0.12200172835977263
468 2.9414587652173947 -1.4594610138299282 1.9364749493178506 -3.760440429988331 -1.5002597002658378 -0.1202927097109644
469 2.940714340659586 -1.4598131987260996 1.9366342851465272 -3.7598805045388475 -1.4988789804702654 -0.11859047520355499
470 2.9399729700377386 -1.4601760343972476 1.9368077814327613 -3.759308932161251 -1.4975029248653857 -0.11689533596897844
471 2.939235383319413 -1.4605479639674652 1.9369929377261346 -3.758725669806086 -1.4961314365506508 -0.11520760313866871
472 2.9385023104721726 -1.460927430560845 1.9371872535762287 -3.7581306744238985 -1.4947644186255118 -0.11352758784405984
473 2.937774481463577 -1.4613128773014794 1.9373882285326247 -3.7575239029652336 -1.4934017741894197 -0.11185560121658575
474 2.9370526262611913 -1.4617027473134625 1.937593362144905 -3.7569053123806384 -1.4920434063418264 -0.11019195438768051
475 2.9363374748325755 -1.4620954837208862 1.9378001539626506 -3.7562748596206568 -1.4906892181821825 -0.10853695848877801
476 2.9356297571452923 -1.4624895296478442 1.9380061035354441 -3.755632501635836 -1.4893391128099407 -0.10689092465131238
477 2.934930203166905 -1.4628833282184295 1.9382087104128671 -3.7549781953767236 -1.487992993324552 -0.10525416400671754
478 2.9342395428649737 -1.463275322556734 1.9384054741445007 -3.754311897793862 -1.486650762825467 -0.10362698768642746
479 2.9335585062070613 -1.4636639557868518 1.9385938942799266 -3.7536335658377986 -1.485312324412138 -0.10200970682187618
480 2.9328878231607303 -1.4640476710328751 1.9387714703687269 -3.7529431564590796 -1.4839775811840163 -0.10040263254449766
481 2.932228030357855 -1.4644252416640573 1.9389362188000945 -3.7522406580214573 -1.4826464784162572 -0.09880601732714846
482 2.9315788910875598 -1.4647967620302909 1.939088223321666 -3.751526184541509 -1.4813191300868316 -0.09721987900837512
483 2.930939975303283 -1.4651626567266283 1.9392280845206897 -3.750799881449019 -1.4799956923494144 -0.09564417676814677
484 2.9303108529584607 -1.4655233503481215 1.9393564029844135 -3.75006189417377 -1.4786763213576803 -0.09407886978643244
485 2.9296910940065315 -1.4658792674898242 1.9394737793000858 -3.7493123681455494 -1.4773611732653047 -0.09252391724320133
486 2.929080268400932 -1.4662308327467892 1.9395808140549553 -3.7485514487941396 -1.4760504042259626 -0.09097927831842251
487 2.928477946095099 -1.4665784707140677 1.9396781078362686 -3.7477792815493243 -1.4747441703933284 -0.08944491219206505
488 2.927883697042471 -1.4669226059867129 1.9397662612312747 -3.7469960118408885 -1.4734426279210775 -0.08792077804409806
489 2.927297091196485 -1.4672636631597775 1.9398458748272216 -3.746201785098615 -1.472145932962884 -0.08640683505449065
490 2.9267176985105774 -1.4676020668283143 1.9399175492113574 -3.7453967467522906 -1.4708542416724237 -0.08490304240321193
491 2.926145088938186 -1.4679382415873754 1.9399818849709305 -3.744581042231698 -1.4695677102033715 -0.08340935927023099
492 2.92557883243275 -1.4682726120320138 1.9400394826931888 -3.743754816966621 -1.4682864947094016 -0.08192574483551696
493 2.9250184989477037 -1.4686056027572814 1.94009094296538 -3.7429182163868444 -1.4670107513441897 -0.08045215827903886
494 2.924463658436487 -1.4689376383582315 1.940136866374753 -3.7420713859221535 -1.4657406362614107 -0.07898855878076588
495 2.9239138808525347 -1.469269143429916 1.9401778535085548 -3.7412144710023294 -1.4644763056147383 -0.07753490552066708
496 2.9233687361492864 -1.4696005425673884 1.9402145049540345 -3.740347617057159 -1.463217915557849 -0.07609115767871157
497 2.9228277942801792 -1.4699322603657006 1.9402474212984404 -3.7394709695164265 -1.4619656222444173 -0.07465727443486844
498 2.922290625198649 -1.4702647214199054 1.9402772031290192 -3.7385846738099144 -1.4607195818281173 -0.0732332149691068
499 2.921756798858134 -1.470598350325055 1.9403044510330205 -3.7376888753674082 -1.4594799504626248 -0.07181893846139575
500 2.921225885212072 -1.4709335716762024 1.9403297655976912 -3.736783719618692 -1.4582468843016145 -0.07041440409170438
501 2.920697532749354 -1.4712707206254898 1.940353629023427 -3.7358693412223216 -1.4570205038025894 -0.06901958229739973
502 2.920171704100688 -1.4716097745534193 1.940376049963204 -3.734945831751942 -1.455800786638363 -0.06763448854544035
503 2.9196484404322383 -1.4719506213975817 1.9403969186831467 -3.7340132720099706 -1.4545876747855795 -0.06625914956018278
504 2.919127782910165 -1.4722931490955682 1.9404161254493786 -3.7330717427988223 -1.4533811102208791 -0.06489359206598348
505 2.9186097727006346 -1.4726372455849708 1.9404335605280238 -3.7321213249209158 -1.4521810349209054 -0.06353784278719898
506 2.918094450969808 -1.4729827988033812 1.9404491141852067 -3.7311620991786674 -1.4509873908623008 -0.06219192844818579
507 2.917581858883847 -1.4733296966883895 1.9404626766870494 -3.730194146374493 -1.4498001200217066 -0.06085587577330037
508 2.9170720376089156 -1.4736778271775888 1.9404741382996769 -3.7292175473108102 -1.4486191643757664 -0.059529711486899256
509 2.9165650283111755 -1.4740270782085687 1.9404833892892124 -3.728232382790036 -1.4474444659011216 -0.05821346231333891
510 2.9160608721567916 -1.474377337718922 1.9404903199217802 -3.7272387336145854 -1.446275966574415 -0.05690715497697587
511 2.9155596103119246 -1.4747284936462395 1.940494820463504 -3.7262366805868776 -1.4451136083722886 -0.05561081620216661
512 2.9150612839427383 -1.4750804339281132 1.9404967811805074 -3.7252263045093286 -1.4439573332713853 -0.05432447271326766
513 2.914565934215395 -1.4754330465021335 1.9404960923389138 -3.7242076861843536 -1.4428070832483468 -0.05304815123463548
514 2.9140736022960585 -1.4757862193058928 1.9404926442048476 -3.723180906414373 -1.441662800279816 -0.05178187849062661
515 2.9135843293508894 -1.4761398402769816 1.9404863270444315 -3.7221460460017983 -1.4405244263424342 -0.05052568120559749
516 2.9130981565460523 -1.4764937973529921 1.9404770311237909 -3.7211031857490506 -1.4393919034128453 -0.04927958610390469
517 2.9126151250477106 -1.4768479784715156 1.9404646467090483 -3.7200524064585467 -1.4382651734676908 -0.04804361990990469
518 2.9121352760220254 -1.477202271570143 1.9404490640663279 -3.7189937889327 -1.4371441784836125 -0.04681780934795395
519 2.91165865063516 -1.4775565645864661 1.9404301734617537 -3.7179274139739293 -1.4360288604372535 -0.045602181142409014
520 2.911185290053277 -1.4779107454580762 1.940407865161449 -3.7168533623846516 -1.4349191613052559 -0.04439676201762637
521 2.910715220742887 -1.478264725874927 1.9403820605437894 -3.7157717174185207 -1.4338150288732998 -0.043201573908985894
522 2.9102484103718878 -1.4786185125364215 1.9403528054361558 -3.714682572134137 -1.4327164341632161 -0.042016619595961015
523 2.9097848119085237 -1.4789721358943242 1.9403201767781812 -3.713586022041338 -1.4316233540058734 -0.04084189706904854
524 2.9093243783210387 -1.4793256264003993 1.9402842515094976 -3.71248216264996 -1.4305357652321395 -0.03967740431874526
525 2.9088670625776802 -1.479679014506413 1.940245106569738 -3.7113710894698424 -1.429453644672884 -0.038523139335548004
526 2.9084128176466923 -1.4800323306641296 1.9402028188985356 -3.7102528980108227 -1.4283769691589752 -0.03737910010995357
527 2.907961596496319 -1.480385605325314 1.9401574654355211 -3.709127683782736 -1.427305715521281 -0.036245284632458755
528 2.9075133520948055 -1.480738868941731 1.9401091231203293 -3.7079955422954227 -1.42623986059067 -0.03512169089356038
529 2.907068037410397 -1.4810921519651452 1.9400578688925916 -3.7068565690587176 -1.4251793811980116 -0.03400831688375523
530 2.906625605411339 -1.4814454848473226 1.940003779691941 -3.705710859582461 -1.4241242541741732 -0.03290516059354014
531 2.9061860090658755 -1.4817988980400267 1.9399469324580096 -3.704558509376489 -1.4230744563500244 -0.0318122200134119
532 2.905749201342253 -1.4821524219950237 1.9398874041304313 -3.703399613950639 -1.4220299645564332 -0.030729493133867324
533 2.905315135208714 -1.4825060871640776 1.939825271648837 -3.702234268814749 -1.420990755624268 -0.029656977945403198
534 2.9048837636335048 -1.4828599239989535 1.9397606119528605 -3.701062569478657 -1.4199568063843977 -0.02859467243851636
535 2.90445503958487 -1.4832139629514158 1.9396935019821333 -3.6998846114521977 -1.4189280936676907 -0.027542574603703577
536 2.9040289160310557 -1.4835682344732308 1.9396240186762896 -3.6987004902452116 -1.4179045943050155 -0.026500682431461694
537 2.903605345940306 -1.4839227690161625 1.9395522389749615 -3.6975103013675366 -1.4168862851272408 -0.025468993912287505
538 2.9031842822808653 -1.4842775970319753 1.9394782398177803 -3.696314140329008 -1.4158731429652347 -0.0244475070366778
539 2.9027656780209794 -1.4846327489724347 1.9394020981443802 -3.6951121026394644 -1.4148651446498661 -0.0234362197951294
540 2.9023494861288928 -1.4849882552893057 1.9393238908943933 -3.6939042838087426 -1.4138622670120036 -0.022435130178139116
541 2.901935665397046 -1.4853441397983655 1.9392436860363367 -3.692690778026981 -1.4128644858819268 -0.02144423611064375
542 2.9015241979146595 -1.4857003997714417 1.9391615156542676 -3.6914716742055136 -1.4118717730875616 -0.020463535255340157
543 2.9011150715951506 -1.4860570258443746 1.9390774028611284 -3.6902470599359747 -1.410884099456245 -0.019493025209365196
544 2.900708274351934 -1.486414008653004 1.9389913707698596 -3.6890170228099963 -1.409901435815313 -0.018532703569855705
545 2.9003037940984266 -1.4867713388331705 1.9389034424934037 -3.6877816504192142 -1.408923752992103 -0.01758256793394856
546 2.899901618748046 -1.487129007020714 1.938813641144703 -3.6865410303552637 -1.4079510218139526 -0.01664261589878061
547 2.899501736214206 -1.487487003851474 1.9387219898366983 -3.685295250209776 -1.4069832131081972 -0.0157128450614887
548 2.899104134410325 -1.487845319961292 1.9386285116823316 -3.6840443975743873 -1.4060202977021747 -0.014793253019209694
549 2.8987088012498177 -1.4882039459860066 1.938533229794545 -3.6827885600407297 -1.4050622464232216 -0.01388383736908045
550 2.8983157246461007 -1.4885628725614588 1.93843616728628 -3.6815278252004386 -1.4041090300986747 -0.012984595708237819
551 2.897924892512591 -1.488922090323489 1.9383373472704786 -3.680262280645148 -1.4031606195558715 -0.012095525633818657
552 2.8975362927627057 -1.489281589907937 1.938236792860083 -3.6789920139664916 -1.4022169856221482 -0.01121662474295982
553 2.8971499133098586 -1.4896413619506423 1.9381345271680337 -3.677717112756103 -1.401278099124842 -0.010347890632798165
554 2.8967657420674673 -1.4900013970874464 1.9380305733072738 -3.676437664605618 -1.4003439308912897 -0.009489320900470546
555 2.896383766948947 -1.4903616859541877 1.9379249543907435 -3.6751537571066666 -1.3994144517488276 -0.00864091314311381
556 2.896003975867716 -1.4907222191867078 1.9378176935313867 -3.673865477850887 -1.3984896325247935 -0.007802664957864831
557 2.895626356737189 -1.4910829874208467 1.937708813842144 -3.672572914429913 -1.3975694440465243 -0.006974573941860451
558 2.8952508974707825 -1.4914439812924434 1.9375983384359572 -3.671276154435376 -1.3966538571413558 -0.006156637692237526
559 2.894877585981913 -1.491805191437339 1.9374862904257677 -3.6699752854589107 -1.3957428426366256 -0.005348853806132916
560 2.8945064101839963 -1.4921666084913734 1.937372692924518 -3.6686703950921533 -1.3948363713596708 -0.004551219880683473
561 2.8941373572887645 -1.4925282246368383 1.9372575708406439 -3.667361570526667 -1.3939344156508087 -0.003763732310366664
562 2.8937704117012095 -1.4928900382418315 1.9371409562645578 -3.666048897353747 -1.39303695390228 -0.0029863826790223857
563 2.893405557124639 -1.4932520492209027 1.9370228830821667 -3.6647324607646174 -1.3921439660193067 -0.0022191613678311482
564 2.8930427772623584 -1.493614257488601 1.9369033851793762 -3.663412345950501 -1.3912554319071095 -0.0014620587579734607
565 2.892682055817677 -1.4939766629594762 1.9367824964420945 -3.6620886381026256 -1.3903713314709105 -0.0007150652306298318
566 2.892323376493902 -1.494339265548078 1.9366602507562283 -3.6607614224122162 -1.3894916446159316 2.182883301923166e-05
567 2.891966722994339 -1.4947020651689549 1.936536682007683 -3.6594307840704947 -1.3886163512473935 0.0007486330517932175
568 2.891612079022297 -1.4950650617366574 1.9364118240823665 -3.658096808268689 -1.3877454312705184 0.0014653570445116201
569 2.8912594282810824 -1.4954282551657343 1.9362857108661844 -3.6567595801980217 -1.386878864590527 0.002172010429993929
570 2.890908754474003 -1.4957916453707352 1.9361583762450447 -3.6554191850497193 -1.3860166311126418 0.0028686028270596374
571 2.8905600413043655 -1.4961552322662097 1.9360298541048535 -3.6540757080150064 -1.3851587107420835 0.0035551438545282353
572 2.8902132724754783 -1.4965190157667074 1.9359001783315177 -3.6527292342851077 -1.3843050833840744 0.0042316431312192145
573 2.889868431690647 -1.4968829957867775 1.9357693828109437 -3.6513798490512466 -1.3834557289438354 0.004898110275952065
574 2.88952550265318 -1.4972471722409695 1.9356375014290388 -3.6500276375046505 -1.3826106273265886 0.00555455490754628
575 2.889184469066384 -1.4976115450438328 1.9355045680717085 -3.648672684836543 -1.3817697584375548 0.00620098664482135
576 2.888845314633567 -1.4979761141099168 1.9353706166248608 -3.6473150762381485 -1.3809331021819562 0.006837415106596766
577 2.8885080230580362 -1.4983408793537716 1.9352356809744027 -3.645954896900694 -1.3801006384650145 0.00746384991169202
578 2.8881725780430982 -1.4987058406899458 1.9350997950062392 -3.6445922320154014 -1.37927234719195 0.008080300678926605
579 2.8878389632920607 -1.4990709980329893 1.9349629926062786 -3.6432271667734972 -1.3784482082679854 0.008686777027120009
580 2.8875071625082307 -1.4994363512974518 1.9348253076604272 -3.641859786366207 -1.3776282015983419 0.009283288575091723
581 2.8871771602174463 -1.4998018997515339 1.93468677305505 -3.640490175232361 -1.376812307795011 0.009869845790224511
582 2.886848944235662 -1.5001676400780435 1.934547417678345 -3.639118414801216 -1.3760005102970614 0.010446462534154209
583 2.886522503201365 -1.5005335683134398 1.9344072694189702 -3.637744585749636 -1.3751927932503336 0.011013153517079925
584 2.886197825753039 -1.5008996804941812 1.9342663561655808 -3.6363687687544837 -1.3743891408006663 0.01156993344920076
585 2.885874900529172 -1.5012659726567277 1.9341247058068354 -3.6349910444926237 -1.3735895370938986 0.012116817040715825
586 2.885553716168249 -1.5016324408375386 1.9339823462313903 -3.633611493640919 -1.372793966275871 0.012653819001824232
587 2.8852342613087547 -1.5019990810730723 1.9338393053279015 -3.632230196876231 -1.3720024124924215 0.013180954042725075
588 2.8849165245891766 -1.5023658893997884 1.9336956109850267 -3.6308472348754264 -1.3712148598893903 0.013698236873617473
589 2.8846004946479984 -1.5027328618541458 1.9335512910914223 -3.6294626883153653 -1.370431292612616 0.014205682204700525
590 2.884286160123708 -1.5030999944726042 1.9334063735357452 -3.6280766378729137 -1.369651694807939 0.014703304746173339
591 2.883973509654789 -1.5034672832916225 1.9332608862066527 -3.626689164224934 -1.3688760506211977 0.015191119208235022
592 2.8836625318797298 -1.50383472434766 1.9331148569928018 -3.62530034804829 -1.3681043441982321 0.015669140301084687
593 2.883353215437013 -1.5042023136771752 1.9329683137828482 -3.6239102700198433 -1.3673365596848808 0.016137382734921428
594 2.8830455489651277 -1.5045700473166281 1.9328212844654502 -3.6225190108164598 -1.3665726812269838 0.016595861219944365
595 2.8827395211025557 -1.5049379213024772 1.9326737969292629 -3.621126651115 -1.36581269297038 0.01704459046635259
596 2.8824351204877865 -1.505305931671182 1.932525879062945 -3.61973327159233 -1.3650565790609093 0.017483585184345223
597 2.8821323357593047 -1.5056740744592023 1.9323775587551526 -3.6183389529253134 -1.3643043236444106 0.017912860084121365
598 2.881831155555594 -1.5060423457029959 1.932228863894542 -3.616943775790811 -1.3635559108667232 0.018332429875880123
599 2.8815315685151432 -1.506410741439023 1.9320798223697704 -3.615547820865688 -1.3628113248736868 0.018742309269820602
600 2.8812335632764356 -1.5067792577037424 1.931930462069495 -3.6141511688268073 -1.3620705498111405 0.019142512976141914
601 2.8809371286262464 -1.507147890710524 1.931780810455328 -3.61275389963377 -1.3613335705394554 0.01953305662330936
602 2.880642253944495 -1.5075166373803783 1.9316308932807038 -3.6113560903771265 -1.3606003747771294 0.019913959512853026
603 2.880348928759394 -1.5078854948112277 1.9314807358720123 -3.6099578174301663 -1.359870950957193 0.020285241864569207
604 2.880057142599149 -1.5082544601009924 1.931330363555643 -3.608559157166176 -1.3591452875126744 0.020646923898254173
605 2.879766884991971 -1.5086235303475948 1.9311798016579862 -3.6071601859584455 -1.3584233728766046 0.02099902583370423
606 2.87947814546607 -1.5089927026489567 1.931029075505433 -3.6057609801802646 -1.357705195482014 0.021341567890715663
607 2.8791909135496536 -1.5093619741029987 1.9308782104243705 -3.6043616162049177 -1.3569907437619304 0.021674570289084743
608 2.878905178770932 -1.509731341807643 1.9307272317411917 -3.602962170405697 -1.356280006149385 0.02199805324860777
609 2.8786209306581134 -1.5101008028608103 1.930576164782284 -3.6015627191558885 -1.3555729710774072 0.02231203698908102
610 2.878338158739408 -1.510470354360423 1.930425034874039 -3.6001633388287826 -1.3548696269790264 0.022616541730300796
611 2.878056852543025 -1.5108399934044021 1.9302738673428457 -3.5987641057976667 -1.3541699622872727 0.02291158769206337
612 2.877777001597174 -1.5112097170906693 1.9301226875150947 -3.5973650964358295 -1.3534739654351764 0.023197195094165037
613 2.8774985954300627 -1.511579522517146 1.9299715207171753 -3.5959663871165586 -1.3527816248557663 0.02347338415640208
614 2.8772216235699015 -1.5119494067817538 1.9298203922754782 -3.5945680542131444 -1.3520929289820727 0.02374017509857079
615 2.8769460755448986 -1.5123193669824133 1.929669327516392 -3.5931701740988724 -1.3514078662471245 0.023997588140467443
616 2.876671940883265 -1.5126894002170475 1.929518351766308 -3.5917728231470334 -1.3507264250839528 0.024245643501888337
617 2.876399209113209 -1.5130595035835774 1.9293674903516156 -3.590376077730916 -1.350048593925587 0.02448436140262976
618 2.8761278697629384 -1.5134296741799238 1.9292167685987043 -3.5889800142238073 -1.3493743612050564 0.024713762062487984
619 2.8758579123606647 -1.5137999091040089 1.9290662118339645 -3.587584708998995 -1.3487037153553905 0.02493386570125931
620 2.8755893264345955 -1.5141702054537538 1.9289158453837865 -3.5861902384297704 -1.34803664480962 0.025144692538740018
621 2.8753221023300513 -1.5145405596463928 1.9287656947368323 -3.584796677822805 -1.3473731381707328 0.025346263658314393
622 2.8750562336607906 -1.5149109653764077 1.9286157860308573 -3.5834040982183146 -1.3467131847215548 0.0255386035977187
623 2.8747917148576847 -1.5152814156575938 1.9284661455658887 -3.582012569589899 -1.3460567739148694 0.025721737758277186
624 2.8745285403516005 -1.5156519035037448 1.9283167996419535 -3.5806221619111573 -1.3454038952034606 0.025895691541314107
625 2.8742667045734107 -1.5160224219286562 1.9281677745590802 -3.579232945155691 -1.3447545380401127 0.02606049034815372
626 2.8740062019539834 -1.516392963946123 1.9280190966172965 -3.5778449892971005 -1.3441086918776102 0.0262161595801203
627 2.8737470269241885 -1.516763522569939 1.9278707921166294 -3.576458364308984 -1.343466346168736 0.026362724638538067
628 2.8734891739148956 -1.5171340908138993 1.927722887357107 -3.5750731401649434 -1.3428274903662751 0.02650021092473131
629 2.8732326373569745 -1.5175046616917984 1.927575408638756 -3.573689386838577 -1.342192113923011 0.026628643840024255
630 2.872977411681295 -1.5178752282174313 1.9274283822616047 -3.572307174303487 -1.3415602062917282 0.02674804878574119
631 2.8727234913187267 -1.5182457834045922 1.9272818345256808 -3.5709265725332724 -1.3409317569252108 0.026858451163206346
632 2.8724708707001403 -1.5186163202670766 1.9271357917310117 -3.5695476515015336 -1.3403067552762422 0.02695987637374399
633 2.872219544256404 -1.5189868318186783 1.9269902801776249 -3.5681704811818697 -1.339685190797607 0.02705234981867838
634 2.8719695064183877 -1.5193573110731926 1.9268453261655483 -3.5667951315478823 -1.3390670529420894 0.027135896899333763
635 2.8717207516169605 -1.5197277510444134 1.926700955994808 -3.5654216725731693 -1.3384523311624723 0.027210543017034395
636 2.8714732742829945 -1.5200981447461364 1.926557195965434 -3.5640501742313333 -1.3378410149115412 0.02727631357310454
637 2.8712270688473582 -1.5204684851921557 1.926414072377453 -3.5626807064959745 -1.3372330936420793 0.027333233968868456
638 2.8709821297409195 -1.520838765396266 1.9262716115308915 -3.56131333934069 -1.3366285568068708 0.027381329605650383
639 2.8707384513945504 -1.5212089783722624 1.926129839725778 -3.5599481427390827 -1.3360273938586997 0.027420625884774594
640 2.8704960282391196 -1.5215791171339386 1.9259887832621403 -3.5585851866647515 -1.3354295942503505 0.027451148207565335
641 2.8702548531163443 -1.5219491768417326 1.9258484656843475 -3.5572245407390195 -1.334835148428649 0.027472922830197588
642 2.8700149125113263 -1.522319161242647 1.9257088995141378 -3.5558662731741038 -1.3342440508165916 0.027485979428249208
643 2.8697761913200166 -1.5226890762303285 1.9255700945175909 -3.5545104518299424 -1.3336562968312162 0.02749034853214877
644 2.869538674438363 -1.523058927698422 1.9254320604607853 -3.553157144566472 -1.333071881889561 0.027486060672324848
645 2.8693023467623164 -1.5234287215405742 1.9252948071098022 -3.5518064192436345 -1.3324908014086647 0.02747314637920602
646 2.8690671931878273 -1.523798463650431 1.925158344230721 -3.5504583437213686 -1.3319130508055654 0.027451636183220877
647 2.8688331986108437 -1.524168159921637 1.9250226815896208 -3.5491129858596104 -1.331338625497301 0.027421560614797974
648 2.8686003479273166 -1.524537816247839 1.9248878289525813 -3.5477704135183026 -1.3307675209009107 0.027382950204365902
649 2.8683686260331935 -1.5249074385226824 1.9247537960856829 -3.54643069455738 -1.330199732433431 0.027335835482353223
650 2.868138017824427 -1.525277032639813 1.924620592755005 -3.545093896836784 -1.329635255511902 0.027280246979188533
651 2.867908508196965 -1.5256466044928771 1.9244882287266272 -3.543760088216453 -1.3290740855533607 0.0272162152253004
652 2.8676800820467574 -1.5260161599755204 1.9243567137666298 -3.5424293365563266 -1.3285162179748462 0.0271437707511174
653 2.867452724269754 -1.526385704981388 1.9242260576410914 -3.5411017097163415 -1.3279616481933967 0.027062944087068108
654 2.8672264197619053 -1.5267552454041267 1.9240962701160929 -3.539777275556438 -1.32741037162605 0.026973765763581112
655 2.8670011534191584 -1.5271247871373808 1.9239673609577124 -3.5384561019365544 -1.3268623836898439 0.026876266311084963
656 2.866776910137466 -1.5274943360747975 1.9238393399320317 -3.5371382567166303 -1.326317679801818 0.026770476260008266
657 2.8665536748127765 -1.5278638981100225 1.9237122168051295 -3.5358238077566044 -1.3257762553790102 0.02665642614077959
658 2.866331432341039 -1.528233479136701 1.923586001343085 -3.5345128229164144 -1.3252381058384577 0.0265341464838275
659 2.866110167618204 -1.528603085048479 1.9234607033119786 -3.533205370056 -1.3247032265971999 0.026403667819580586
660 2.865889865540221 -1.5289727217390023 1.9233363324778894 -3.5319015170353003 -1.3241716130722745 0.026265020678467418
661 2.865670517974575 -1.5293423869812173 1.9232129068906352 -3.5306013281693054 -1.3236432577109996 0.02611823628639659
662 2.865452144674897 -1.529712046065269 1.92309047773498 -3.5293048535932106 -1.3231181410818111 0.02596334865119673
663 2.8652347723663514 -1.5300816561606037 1.9229691044794262 -3.5280121398972617 -1.3225962407834244 0.02580039247617648
664 2.8650184277741033 -1.5304511744366662 1.9228488465924753 -3.5267232336717034 -1.3220775344145548 0.025629402464644478
665 2.8648031376233205 -1.5308205580629037 1.9227297635426297 -3.525438181506785 -1.3215619995739183 0.025450413319909375
666 2.864588928639168 -1.531189764208762 1.9226119147983918 -3.5241570299927534 -1.3210496138602306 0.02526345974527982
667 2.864375827546809 -1.5315587500436858 1.922495359828262 -3.522879825719851 -1.3205403548722061 0.025068576444064437
668 2.864163861071413 -1.5319274727371215 1.922380158100744 -3.521606615278327 -1.320034200208561 0.024865798119571885
669 2.863953055938142 -1.532295889458515 1.9222663690843382 -3.5203374452584266 -1.319531127468011 0.024655159475110797
670 2.863743438872164 -1.5326639573773122 1.9221540522475482 -3.519072362250398 -1.3190311142492712 0.024436695213989824
671 2.8635350365986434 -1.5330316336629588 1.9220432670588747 -3.517811412844486 -1.3185341381510578 0.024210440039517604
672 2.863327875842747 -1.5333988754849008 1.9219340729868206 -3.516554643630938 -1.3180401767720855 0.023976428655002786
673 2.8631219833296395 -1.5337656400125834 1.9218265294998869 -3.5153021011999988 -1.31754920771107 0.023734695763754
674 2.8629173857844874 -1.5341318844154532 1.9217206960665763 -3.5140538321419164 -1.317061208566727 0.023485276069079904
675 2.8627141099324547 -1.5344975658629554 1.9216166321553896 -3.5128098830469354 -1.3165761569377719 0.02322820427428913
676 2.8625121824987083 -1.5348626415245363 1.9215143972348305 -3.511570300505304 -1.3160940304229203 0.022963515082690324
677 2.862311630208415 -1.5352270685696419 1.9214140507734008 -3.510335131107268 -1.3156148066208877 0.022691243197592137
678 2.862112479786737 -1.535590804167717 1.9213156522396004 -3.509104421443073 -1.3151384631303893 0.022411423322303198
679 2.861914757958843 -1.5359538054882085 1.9212192611019334 -3.507878218102966 -1.3146649775501411 0.02212409016013216
680 2.8617184914498974 -1.5363160297005614 1.9211249368289005 -3.5066565676771937 -1.3141943274788581 0.021829278414387664
681 2.8615236817347998 -1.53667746424018 1.9210327058571413 -3.505439524599332 -1.3137265015637996 0.021527023756208956
682 2.861330229287384 -1.5370382176062964 1.9209424624958404 -3.5042271746762723 -1.3132615326463963 0.021217365728057703
683 2.8611380093312166 -1.5373984285641016 1.920854068022319 -3.503019611558239 -1.3127994646166232 0.020900344840226185
684 2.860946897089865 -1.5377582358787856 1.9207673837138985 -3.501816928895451 -1.3123403413644539 0.02057600160300666
685 2.8607567677868957 -1.5381177783155398 1.9206822708479012 -3.500619220338133 -1.3118842067798635 0.020244376526691404
686 2.8605674966458783 -1.538477194639555 1.9205985907016494 -3.4994265795365083 -1.3114311047528269 0.019905510121572705
687 2.8603789588903767 -1.53883662361602 1.9205162045524629 -3.4982391001407955 -1.3109810791733172 0.01955944289794281
688 2.86019102974396 -1.5391962040101272 1.9204349736776645 -3.4970568758012197 -1.3105341739313099 0.019206215366094015
689 2.860003584430195 -1.5395560745870658 1.920354759354575 -3.495880000168001 -1.310090432916779 0.01884586803631857
690 2.859816498172649 -1.5399163741120274 1.920275422860517 -3.4947085668913633 -1.3096499000196995 0.018478441418908767
691 2.859629646194889 -1.5402772413502017 1.9201968254728117 -3.493542669621528 -1.3092126191300453 0.01810397602415687
692 2.8594429037204834 -1.5406388150667798 1.9201188284687807 -3.4923824020087175 -1.3087786341377912 0.01772251236235515
693 2.859256145972997 -1.541001234026952 1.9200412931257451 -3.4912278577031532 -1.308347988932911 0.017334090943795878
694 2.859069248175999 -1.5413646369959093 1.919964080721027 -3.490079130355059 -1.30792072740538 0.01693875227877133
695 2.858882085553055 -1.5417291627388408 1.9198870525319478 -3.488936313614654 -1.3074968934451716 0.01653653687757377
696 2.858694533327733 -1.542094950020939 1.9198100698358291 -3.487799501132164 -1.3070765309422614 0.016127485250495486
697 2.858506466723601 -1.5424621376073937 1.9197329939099934 -3.48666878655781 -1.3066596837866238 0.01571163790782874
698 2.858317760964225 -1.5428308642633946 1.9196556860317606 -3.485544263541812 -1.306246395868232 0.0152890353598658
699 2.8581282912731725 -1.543201268754133 1.9195780074784539 -3.4844260257343946 -1.3058367110770617 0.014859718116898945
700 2.8579379328740107 -1.5435734898447997 1.9194998195273938 -3.483314166785779 -1.3054306733030867 0.014423726689220444
701 2.857746655709278 -1.5439475533945815 1.919421104559118 -3.4822087452237596 -1.3050282845985302 0.013981101118992693
702 2.857554808597397 -1.5443230336386526 1.9193423293670238 -3.481109679086412 -1.3046293796646078 0.01353187957585858
703 2.8573628350757616 -1.5446993919061842 1.9192640818477245 -3.4800168512893874 -1.304233751364784 0.013076099761331103
704 2.8571711786817624 -1.5450760895263467 1.919186949897833 -3.478930144748331 -1.3038411925625226 0.012613799376923269
705 2.856980282952796 -1.5454525878283114 1.919111521413963 -3.477849442378895 -1.3034514961212886 0.01214501612414809
706 2.8567905914262557 -1.5458283481412494 1.9190383842927277 -3.4767746270967264 -1.3030644549045463 0.011669787704518568
707 2.8566025476395325 -1.5462028317943306 1.9189681264307392 -3.475705581817474 -1.3026798617757591 0.011188151819547706
708 2.8564165951300224 -1.546575500116727 1.9189013357246119 -3.474642189456786 -1.3022975095983922 0.010700146170748513
709 2.8562331774351173 -1.5469458144376087 1.9188386000709579 -3.473584332930311 -1.301917191235909 0.010205808459633994
710 2.8560527380922114 -1.5473132360861466 1.9187805073663908 -3.4725318951536988 -1.301538699551775 0.009705176387717158
711 2.8558757206386978 -1.5476772263915124 1.9187276455075237 -3.471484759042597 -1.3011618274094539 0.009198287656511006
712 2.8557025686119704 -1.5480372466828765 1.9186806023909704 -3.470442807512655 -1.3007863676724094 0.00868517996752855
713 2.8555337255494213 -1.5483927582894093 1.9186399659133428 -3.469405923479522 -1.3004121132041067 0.008165891022282787
714 2.8553696349884463 -1.5487432225402826 1.9186063239712552 -3.468373989858845 -1.3000388568680092 0.007640458522286733
715 2.855210740466436 -1.5490881007646662 1.9185802644613192 -3.4673468895662722 -1.2996663915275815 0.007108920169053384
716 2.855057485520786 -1.549426854291732 1.9185623752801497 -3.466324505517455 -1.2992945100462885 0.006571313664095753
717 2.8549103136888903 -1.5497589444506508 1.9185532443243596 -3.4653067206280412 -1.2989230052875942 0.0060276767089268435
718 2.854769668508139 -1.5500838325705926 1.9185534594905602 -3.4642934178136775 -1.2985516701149624 0.005478047005059661
719 2.854635993515929 -1.5504009799807292 1.9185636086753668 -3.463284479990014 -1.298180297391858 0.004922462254007213
720 2.854509732249652 -1.5507098480102308 1.9185842797753916 -3.4622797900727 -1.2978086799817445 0.0043609601572825035
721 2.854391126604779 -1.5510101062174495 1.9186157048338008 -3.461279305613665 -1.297436718670544 0.0037935760501921966
722 2.8542796119090816 -1.5513022570774573 1.918656692479972 -3.4602832827099683 -1.297064745934005 0.0032203358032175796
723 2.854174421848413 -1.5515870112945085 1.9187056954898358 -3.459292052094953 -1.2966932021703343 0.002641262920633599
724 2.8540747901086196 -1.5518650795728546 1.9187611666393225 -3.458305944501957 -1.296322527777737 0.0020563809067151977
725 2.8539799503755554 -1.5521371726167503 1.9188215587043629 -3.457325290664323 -1.29595316315442 0.0014657132657373247
726 2.8538891363350687 -1.552404001130449 1.9188853244608888 -3.4563504213153933 -1.2955855486985894 0.000869283501974921
727 2.8538015816730087 -1.552666275818203 1.918950916684828 -3.4553816671885067 -1.2952201248084503 0.0002671151197029359
728 2.8537165200752277 -1.552924707384266 1.9190167881521134 -3.454419359017006 -1.2948573318822099 -0.00034076837680368713
729 2.853633185227574 -1.5531800065328911 1.9190813916386744 -3.453463827534232 -1.2944976103180734 -0.0009543434832700035
730 2.8535508108158987 -1.5534328839683316 1.9191431799204421 -3.4525154034735266 -1.2941414005142473 -0.0015735866954210665
731 2.8534686305260513 -1.5536840503948408 1.9192006057733473 -3.4515744175682292 -1.2937891428689376 -0.0021984745089819323
732 2.853385878043883 -1.5539342165166723 1.9192521219733205 -3.4506412005516824 -1.293441277780351 -0.0028289834196776552
733 2.8533017870552437 -1.5541840930380784 1.9192961812962912 -3.4497160831572264 -1.2930982456466922 -0.003465089923233288
734 2.853215591245982 -1.5544343906633136 1.9193312365181916 -3.4487993961182037 -1.2927604868661688 -0.004106770515373889
735 2.8531265243019495 -1.5546858200966294 1.9193557404149506 -3.447891470167953 -1.2924284418369856 -0.00475400169182451
736 2.853033819908996 -1.5549390920422805 1.9193681457625 -3.4469926360398184 -1.2921025509573494 -0.005406759948310206
737 2.8529367117529727 -1.5551949172045205 1.9193669053367706 -3.44610322446714 -1.2917832546254664 -0.006065021780556034
738 2.8528344335197273 -1.555454006287601 1.9193504719136916 -3.4452235661832575 -1.2914709932395418 -0.006728763684287046
739 2.8527262188951124 -1.5557170699957765 1.9193172982691946 -3.4443539919215134 -1.2911662071977827 -0.007397962155228298
740 2.8526113015649766 -1.5559848190332999 1.9192658371792102 -3.443494832415249 -1.2908693368983948 -0.008072593689104844
741 2.852489176084219 -1.5562577095693098 1.9191950385842613 -3.442646318418204 -1.2905806750664244 -0.008752629087174241
742 2.8523603804839324 -1.5565351796324862 1.9191058410832433 -3.441808280765715 -1.29029992373428 -0.009438016372824043
743 2.8522257136642564 -1.5568164127163948 1.918999680439645 -3.4409804503135155 -1.290026637261211 -0.010128697874974306
744 2.85208597452533 -1.5571005923146002 1.9188779924169526 -3.440162557917341 -1.289760370006466 -0.010824615922545083
745 2.851941961967296 -1.5573869019206688 1.918742212778656 -3.4393543344329265 -1.289500676329294 -0.011525712844456434
746 2.851794474890294 -1.5576745250281663 1.9185937772882427 -3.4385555107160077 -1.2892471105889443 -0.01223193096962842
747 2.851644312194464 -1.5579626451306567 1.9184341217091998 -3.4377658176223176 -1.2889992271446649 -0.012943212626981082
748 2.8514922727799474 -1.5582504457217072 1.9182646818050166 -3.4369849860075923 -1.2887565803557057 -0.013659500145434489
749 2.8513391555468828 -1.558537110294882 1.9180868933391801 -3.4362127467275654 -1.288518724581315 -0.014380735853908689
750 2.8511857593954124 -1.5588218223437467 1.9179021920751793 -3.435448830637974 -1.288285214180742 -0.015106862081323743
751 2.8510328832256757 -1.5591037653618671 1.9177120137765018 -3.434692968594551 -1.2880556035132358 -0.015837821156599707
752 2.850881325937814 -1.5593821228428086 1.9175177942066357 -3.433944891453032 -1.2878294469380454 -0.016573555408656633
753 2.8507318864319666 -1.5596560782801365 1.9173209691290687 -3.4332043300691515 -1.2876062988144192 -0.017314007166414576
754 2.8505853636082747 -1.5599248151674163 1.9171229743072893 -3.4324710152986455 -1.2873857135016071 -0.0180591187587936
755 2.850442556366878 -1.5601875169982131 1.916925245504785 -3.4317446779972465 -1.2871672453588567 -0.018808832514713752
756 2.8503042636079177 -1.560443367266093 1.9167292184850444 -3.4310250490206915 -1.2869504487454182 -0.01956309076309509
757 2.8501712842315348 -1.5606915494646214 1.9165363290115556 -3.430311859224716 -1.28673487802054 -0.020321835832857675
758 2.8500444171378674 -1.5609312470873629 1.9163480128478059 -3.4296048394650516 -1.2865200875434708 -0.021085010052921554
759 2.849924461227058 -1.5611616436278837 1.916165705757284 -3.428903720597436 -1.2863056316734602 -0.02185255575220679
760 2.849812215399247 -1.5613819225797494 1.9159908435034776 -3.428208233477603 -1.2860910647697565 -0.022624415259633438
761 2.8497082790469626 -1.5615914865318712 1.9158245622780123 -3.4275181789316327 -1.2858760386910155 -0.023400530732724835
762 2.8496124535322935 -1.561790614454549 1.9156667999850618 -3.42683363766699 -1.2856605952935165 -0.02418084364341746
763 2.849524340709716 -1.5619798044134279 1.9155171949569374 -3.4261547603614826 -1.2854448739329458 -0.024965295292251076
764 2.849443542433706 -1.562159554474153 1.9153753855259499 -3.4254816976929185 -1.2852290139649893 -0.025753826979765432
765 2.8493696605587413 -1.5623303627023704 1.9152410100244104 -3.424814600339108 -1.2850131547453336 -0.026546380006500298
766 2.8493022969392987 -1.562492727163726 1.9151137067846309 -3.424153618977861 -1.2847974356296648 -0.027342895672995447
767 2.8492410534298522 -1.5626471459238638 1.9149931141389211 -3.423498904286984 -1.2845819959736682 -0.028143315279790606
768 2.849185531884882 -1.5627941170484312 1.9148788704195936 -3.4228506069442868 -1.2843669751330307 -0.028947580127425564
769 2.849135334158862 -1.562934138603072 1.9147706139589582 -3.422208877627578 -1.2841525124634379 -0.029755631516440065
770 2.8490900621062707 -1.5630677086534328 1.9146679830893272 -3.421573867014668 -1.2839387473205761 -0.030567410747373874
771 2.849049317581583 -1.5631953252651591 1.914570616143011 -3.420945725783364 -1.2837258190601313 -0.03138285912076676
772 2.849012702439278 -1.5633174865038966 1.9144781514523215 -3.420324604611477 -1.28351386703779 -0.03220191793715847
773 2.848979818533829 -1.5634346904352898 1.9143902273495688 -3.419710654176813 -1.2833030306092377 -0.03302452849708877
774 2.848950267719716 -1.5635474351249856 1.9143064821670648 -3.419104025157184 -1.283093449130161 -0.033850632101097435
775 2.848923651851412 -1.5636562186386278 1.9142265542371197 -3.4185048682303947 -1.2828852619562454 -0.03468017004972419
776 2.8488995727833974 -1.5637615390418635 1.914150081892046 -3.417913334074259 -1.2826786084431774 -0.03551308364350882
777 2.8488776323701472 -1.5638638944003385 1.9140767034641544 -3.417329573366583 -1.2824736279466435 -0.0363493141829911
778 2.848857432466137 -1.5639637827796962 1.9140060572857551 -3.416753736785176 -1.2822704598223291 -0.03718880296871076
779 2.8488385749258445 -1.564061702245584 1.9139377816891605 -3.4161859750078465 -1.2820692434259204 -0.03803149130120757
780 2.8488206616037464 -1.5641581508636468 1.9138715150066807 -3.4156264387124047 -1.2818701181131038 -0.0388773204810213
781 2.84880334901282 -1.5642535553884922 1.9138069966563616 -3.4150752523096375 -1.2816732014582473 -0.03972623149217207
782 2.848786512300048 -1.564348057330574 1.9137443703991839 -3.4145324351422457 -1.2814785239104458 -0.04057816405260145
783 2.8487700812709122 -1.564441726889309 1.9136838810818633 -3.413997980285912 -1.2812860941374764 -0.04143305756373139
784 2.8487539857308963 -1.564534634264112 1.913625773551114 -3.4134718808163154 -1.281095920807116 -0.04229085142698383
785 2.8487381554854827 -1.5646268496544 1.9135702926536517 -3.412954129809137 -1.2809080125871422 -0.04315148504378071
786 2.8487225203401554 -1.5647184432595895 1.9135176832361924 -3.412444720340058 -1.2807223781453319 -0.04401489781554401
787 2.8487070101003957 -1.5648094852790952 1.913468190145449 -3.4119436454847576 -1.2805390261494616 -0.04488102914369561
788 2.848691554571688 -1.5649000459123341 1.9134220582281392 -3.411450898318918 -1.280357965267309 -0.0457498184296575
789 2.8486760835595133 -1.5649901953587215 1.9133795323309764 -3.4109664719182176 -1.2801792041666504 -0.04662120507485161
790 2.8486605268693577 -1.5650800038176744 1.9133408573006765 -3.4104903593583393 -1.2800027515152639 -0.04749512848069988
791 2.8486448143067014 -1.5651695414886084 1.9133062779839545 -3.4100225537149624 -1.2798286159809258 -0.04837152804862426
792 2.848628875677029 -1.5652588785709396 1.9132760392275256 -3.409563048063768 -1.279656806231414 -0.049250343180046695
793 2.848612640785822 -1.5653480852640835 1.9132503858781045 -3.4091118354804366 -1.279487330934504 -0.050131513276389116
794 2.8485960394385654 -1.5654372317674572 1.9132295627824072 -3.4086689090406486 -1.2793201987579745 -0.05101497773907348
795 2.8485790014407386 -1.5655263882804753 1.9132138147871476 -3.408234261820083 -1.2791554183696012 -0.051900675969521706
796 2.848561456597828 -1.5656156250025555 1.913203386739042 -3.407807886894424 -1.2789929984371624 -0.05278854736915577
797 2.848543334715316 -1.565705012133113 1.913198523484806 -3.4073897773393504 -1.2788329476284348 -0.05367853133939761
798 2.8485245655986837 -1.5657946198715635 1.9131994698711525 -3.4069799262305422 -1.2786752746111945 -0.05457056728166914
799 2.848505079053416 -1.5658845184173236 1.9132064707447987 -3.4065783266436807 -1.2785199880532196 -0.055464594597392336
800 2.8484848048849947 -1.5659747779698092 1.9132197709524592 -3.406184971654445 -1.2783670966222869 -0.05636055268798912
801 2.848463667300667 -1.566065481759426 1.9132395373199094 -3.405799864882701 -1.278216609150937 -0.05725838314032306
802 2.8484415681147373 -1.5661567651405364 1.9132656245891675 -3.4054230521250397 -1.2780685351307624 -0.05815803628302417
803 2.8484184035432727 -1.5662487764984931 1.9132978094813116 -3.4050545897222384 -1.2779228842181196 -0.05905946463016408
804 2.848394069802341 -1.5663416642186478 1.9133358687174191 -3.404694534015071 -1.2777796660693648 -0.059962620695814386
805 2.84836846310801 -1.5664355766863536 1.9133795790185697 -3.4043429413443156 -1.2776388903408544 -0.06086745699404675
806 2.848341479676349 -1.5665306622869632 1.9134287171058417 -3.403999868050749 -1.2775005666889454 -0.0617739260389328
807 2.848313015723423 -1.5666270694058275 1.913483059700312 -3.403665370475143 -1.2773647047699928 -0.06268198034454413
808 2.8482829674653027 -1.5667249464282997 1.9135423835230598 -3.403339504958277 -1.277231314240354 -0.06359157242495236
809 2.848251231118053 -1.566824441739732 1.9136064652951632 -3.4030223278409255 -1.2771004047563845 -0.06450265479422916
810 2.848217702897744 -1.5669257037254765 1.9136750817377008 -3.4027138954638643 -1.276971985974441 -0.06541517996644615
811 2.8481822790204423 -1.5670288807708859 1.9137480095717505 -3.40241426416787 -1.27684606755088 -0.06632910045567492
812 2.8481448557022175 -1.5671341212613124 1.913825025518391 -3.4021234902937185 -1.2767226591420575 -0.06724436877598712
813 2.8481053291591345 -1.5672415735821081 1.9139059062987003 -3.401841630182185 -1.27660177040433 -0.06816093744145436
814 2.8480635956072637 -1.5673513861186255 1.913990428633757 -3.4015687401740466 -1.276483410994054 -0.06907875896614829
815 2.8480195512626705 -1.5674637072562165 1.9140783692446381 -3.401304876610077 -1.2763675905675846 -0.06999778586414052
816 2.8479730923414253 -1.5675786853802343 1.9141695048524237 -3.4010500958310543 -1.2762543187812798 -0.07091797064950268
817 2.847924115059594 -1.5676964688760309 1.9142636121781917 -3.400804454177755 -1.2761436052914954 -0.07183926583630641
818 2.847872515633245 -1.567817206128958 1.9143604679430193 -3.4005680079909517 -1.2760354597545867 -0.07276162393862329
819 2.8478181902784465 -1.567941045524368 1.914459848867986 -3.4003408136114226 -1.275929891826911 -0.073684997470525
820 2.847761035211266 -1.568068135447614 1.9145615316741695 -3.400122927379943 -1.2758269111648244 -0.07460933894608315
