lar-deeufba/potential_fields_with_aruco/src/custom_codes/csv_files/csv_to_eps/csv_files/joint_smoothed_AAPF_OriON.csv
Index Joint1 Joint2 Joint3 Joint4 Joint5 Joint6
0 3.139318617769042 -1.5696891801148605 0.018497592588071234 -1.5718189439270047 -1.5738378559823738 -1.5734920863090822
1 3.1378463201572395 -1.5686685013688015 0.03651136972466055 -1.5730242418047236 -1.5735807750090154 -1.5726354503568243
2 3.136485460916048 -1.5676472596538684 0.05471973919209115 -1.5742370260236953 -1.5736102636734823 -1.5717259232782828
3 3.1352300037887604 -1.5666254827713983 0.07311193527256736 -1.5754597655698965 -1.5739174454793006 -1.5707575886470844
4 3.1340739125186676 -1.5656031985227286 0.09167719224829346 -1.5766949294293038 -1.5744934439299965 -1.5697245300368559
5 3.133011150849063 -1.5645804347091965 0.11040474440147376 -1.5779449865878938 -1.5753293825290973 -1.5686208310212233
6 3.1320356825232367 -1.5635572191321394 0.12928382601431254 -1.5792124060316426 -1.5764163847801294 -1.5674405751738139
7 3.13114147128448 -1.5625335795928936 0.1483036713690141 -1.5804996567465257 -1.577745574186618 -1.5661778460682527
8 3.130322480876087 -1.5615095438927966 0.16745351474778272 -1.581809207718521 -1.5793080742520915 -1.564826727278168
9 3.1295726750413473 -1.5604851398331863 0.1867225904328227 -1.5831435279336041 -1.5810950084800746 -1.5633813023771843
10 3.1288860175235538 -1.5594603952153994 0.2061001327063384 -1.584505086377752 -1.5830975003740955 -1.56183565493893
11 3.1282564720659978 -1.558435337840773 0.225575375850534 -1.58589635203694 -1.585306673437679 -1.5601838685370304
12 3.127678002411972 -1.5574099955106444 0.2451375541476139 -1.5873197938971462 -1.587713651174353 -1.5584200267451127
13 3.1271445723047666 -1.5563843960263504 0.2647759018797823 -1.5887778809443451 -1.590309557087643 -1.5565382131368029
14 3.1266501454876736 -1.5553585671892285 0.2844796533292435 -1.5902730821645141 -1.5930855146810754 -1.5545325112857271
15 3.1261886857039864 -1.5543325368006164 0.30423804277820193 -1.5918078665436297 -1.5960326474581776 -1.552397004765513
16 3.1257541566969964 -1.553306332661851 0.3240403045088618 -1.5933847030676687 -1.5991420789224762 -1.5501257771497865
17 3.1253405222099935 -1.5522799825742692 0.3438756728034274 -1.5950060607226069 -1.6024049325774963 -1.547712912012174
18 3.1249417459862703 -1.5512535143392077 0.3637333819441029 -1.5966744084944198 -1.6058123319267648 -1.545152492926301
19 3.1245517917691195 -1.5502269557580046 0.3836026662130928 -1.5983922153690857 -1.6093554004738087 -1.5424386034657955
20 3.124164623301832 -1.5492003346319967 0.40347275989260123 -1.6001619503325797 -1.6130252617221545 -1.5395653272042835
21 3.1237742043277006 -1.5481736787625218 0.4233328972648327 -1.6019860823708791 -1.6168130391753288 -1.5365267477153917
22 3.1233744985900156 -1.5471470159509157 0.4431723126119912 -1.6038670804699595 -1.6207098563368572 -1.533316948572746
23 3.12295946983207 -1.546120373998517 0.46298024021628137 -1.605807413615798 -1.624706836710267 -1.5299300133499736
24 3.122523081797155 -1.5450937807066623 0.4827459143599073 -1.6078095507943704 -1.6287951037990847 -1.5263600256207004
25 3.1220592982285615 -1.5440672638766881 0.5024585693250732 -1.6098759609916529 -1.6329657811068357 -1.5226010689585527
26 3.1215620828695836 -1.5430408513099332 0.5221074393939835 -1.6120091131936232 -1.6372099921370478 -1.518647226937158
27 3.1210253994635107 -1.5420145708077335 0.5416817588488426 -1.6142114763862565 -1.641518860393247 -1.5144925831301421
28 3.1204432117536363 -1.5409884501714266 0.5611707619718544 -1.6164855195555299 -1.6458835093789594 -1.5101312211111313
29 3.1198094834832513 -1.5399625172023497 0.5805636830452239 -1.6188337116874192 -1.6502950625977122 -1.5055572244537527
30 3.119118178395646 -1.5389367997018393 0.5998497563511546 -1.6212585217679012 -1.654744643553031 -1.500764676731632
31 3.118363260234115 -1.5379113254712335 0.6190182161718512 -1.623762418782952 -1.659223375748443 -1.4957476615183962
32 3.1175386927419497 -1.53688612231187 0.6380582967895181 -1.626347871718549 -1.6637223826874747 -1.4905002623876722
33 3.1166384396624407 -1.5358612180250844 0.6569592324863593 -1.6290173495606677 -1.6682327878736523 -1.485016562913086
34 3.115656464738879 -1.534836640412215 0.6757102575445793 -1.631773321295284 -1.672745714810502 -1.4792906466682638
35 3.1145867317145584 -1.5338124172745982 0.6943006062463822 -1.6346182559083755 -1.6772522870015507 -1.4733165972268323
36 3.1134232043327694 -1.5327885764135725 0.7127195128739727 -1.6375546223859188 -1.681743627950325 -1.4670884981624186
37 3.1121598463368034 -1.5317651456304733 0.7309562117095545 -1.6405848897138884 -1.686210861160351 -1.460600433048648
38 3.1107906214699534 -1.5307421527266392 0.7489999370353324 -1.6437115268782625 -1.6906451101351552 -1.453846485459148
39 3.1093094934755108 -1.5297196255034067 0.7668399231335105 -1.6469370028650168 -1.6950374983782641 -1.4468207389675447
40 3.1077104260967667 -1.528697591762113 0.7844654042862931 -1.650263786660128 -1.6993791493932044 -1.439517277147465
41 3.1059907358013104 -1.5276762126590098 0.8018646277790042 -1.65369440513271 -1.7036647276306893 -1.431934748184302
42 3.1041611499539132 -1.5266561827700043 0.8190218929094475 -1.6572316166844283 -1.7079030613301789 -1.424090058710521
43 3.1022357486436447 -1.5256383300259182 0.8359205119785463 -1.6608782376000855 -1.7121065196783205 -1.4160046799703527
44 3.100228611959573 -1.5246234823575715 0.8525437972872231 -1.664637084164484 -1.71628747186176 -1.407700083208029
45 3.098153819990769 -1.5236124676957876 0.8688750611364021 -1.6685109726624276 -1.7204582870671459 -1.399197739667782
46 3.0960254528263005 -1.5226061139713873 0.8848976158270062 -1.6725027193787187 -1.7246313344811242 -1.390519120593843
47 3.0938575905552352 -1.5216052491151912 0.9005947736599581 -1.6766151405981595 -1.7288189832903416 -1.3816856972304439
48 3.0916643132666444 -1.5206107010580219 0.915949846936182 -1.680851052605554 -1.7330336026814464 -1.372718940821816
49 3.089459701049595 -1.5196232977307 0.9309461479566006 -1.6852132716857047 -1.737287561841084 -1.363640322612191
50 3.087257833993157 -1.5186438670640479 0.9455669890221373 -1.6897046141234142 -1.7415932299559023 -1.354471313845801
51 3.0850727921863985 -1.517673236988886 0.9597956824337152 -1.6943278962034851 -1.7459629762125477 -1.3452333857668772
52 3.0829186557183905 -1.5167122354360365 0.9736155404922578 -1.6990859342107218 -1.7504091697976683 -1.335948009619652
53 3.0808095046781987 -1.51576169033632 0.987009875498688 -1.7039815444299249 -1.7549441798979093 -1.326636656648356
54 3.0787594191548955 -1.514822429620559 0.9999619997539293 -1.7090175431458987 -1.759580375699919 -1.3173207980972217
55 3.076782479237546 -1.513895281219574 1.0124552255589048 -1.7141967466434456 -1.764330126390344 -1.3080219052104802
56 3.0748927650152225 -1.5129810730641873 1.024472865214538 -1.7195219712073686 -1.7692058011558314 -1.2987614492323634
57 3.073104356576993 -1.5120806330852201 1.0359982310217521 -1.7249960331224707 -1.7742197691830277 -1.2895609014071034
58 3.0714313340119253 -1.511194789213493 1.0470146352814698 -1.7306217486735544 -1.77938439965858 -1.280441732978931
59 3.069887777409089 -1.5103243693798285 1.057505390294615 -1.736401934145423 -1.7847120617691359 -1.2714254151920787
60 3.068487766857553 -1.5094702015150474 1.0674538083621106 -1.742339405822879 -1.7902151247013418 -1.2625334192907778
61 3.0672422888265714 -1.5086327789442786 1.076852120565755 -1.74843547558438 -1.7959021440000598 -1.253782442825924
62 3.0661499553061335 -1.5078112565698774 1.0857282331108458 -1.7546854376830021 -1.8017664206430115 -1.2451700885750714
63 3.0652062846664148 -1.507004454688506 1.0941189709835553 -1.7610830819654764 -1.8077974419661338 -1.2366891856224367
64 3.0644067952775873 -1.5062111935968263 1.102061159170055 -1.767622198278532 -1.8139846953053627 -1.228332563052237
65 3.0637470055098275 -1.5054302935915014 1.109591622656519 -1.7742965764689005 -1.8203176679966357 -1.2200930499486908
66 3.0632224337333107 -1.504660574969194 1.116747186429119 -1.7811000063833131 -1.8267858473758896 -1.2119634753960158
67 3.0628285983182093 -1.5039008580265647 1.1235646754740265 -1.788026277868499 -1.8333787207790595 -1.2039366684784278
68 3.062561017634699 -1.5031499630602774 1.1300809147774153 -1.7950691807711898 -1.8400857755420843 -1.1960054582801463
69 3.062415210052953 -1.5024067103669938 1.1363327293254568 -1.8022225049381153 -1.8468964990008983 -1.1881626738853874
70 3.062386693943148 -1.5016699202433765 1.1423569441043235 -1.809480040216007 -1.85380037849144 -1.180401144378369
71 3.0624709876754563 -1.5009384129860877 1.1481903841001886 -1.8168355764515947 -1.8607869013496456 -1.1727136988433091
72 3.062663609620054 -1.5002110088917897 1.1538698742992242 -1.82428290349161 -1.8678455549114519 -1.165093166364425
73 3.0629600781471145 -1.4994865282571448 1.159432239687602 -1.831815811182782 -1.8749658265127944 -1.1575323760259337
74 3.0633559116268128 -1.4987637913788157 1.1649143052514952 -1.8394280893718429 -1.8821372034896113 -1.150024156912053
75 3.0638466284293226 -1.4980416185534637 1.170352895977076 -1.8471135279055217 -1.889349173177838 -1.1425613381070003
76 3.06442774692482 -1.4973188300777527 1.1757848368505164 -1.8548659166305503 -1.896591222913412 -1.1351367486949935
77 3.0650947854834785 -1.4965942462483441 1.1812469528579896 -1.8626790453936592 -1.9038528400322705 -1.12774321776025
78 3.065843262475472 -1.4958666873619 1.1867760689856677 -1.8705467040415782 -1.9111235118703485 -1.120373574386987
79 3.066668696270976 -1.4951349737150836 1.1924090102197227 -1.8784626824210382 -1.918392725763584 -1.113020647659422
80 3.067566605240164 -1.4943979256045565 1.1981826015463273 -1.88642077037877 -1.925649969047913 -1.1056772666617727
81 3.0685332890841277 -1.4936546629863476 1.204124384751955 -1.8944165234570847 -1.9328891137789477 -1.098339374294418
82 3.0695681728276214 -1.4929055044539496 1.2102247688242824 -1.9024525599806141 -1.940121570891 -1.0910153687223823
83 3.070671462826315 -1.4921510682602221 1.2164648795512873 -1.910533263969571 -1.9473631360380574 -1.083716761926851
84 3.0718433654358788 -1.4913919726580236 1.2228258427209475 -1.9186630194441665 -1.9546296048741063 -1.0764550658890095
85 3.0730840870119853 -1.4906288359002138 1.2292887841212405 -1.9268462104246151 -1.9619367730531347 -1.0692417925900441
86 3.0743938339103036 -1.4898622762396527 1.235834829540145 -1.935087220931129 -1.9693004362291304 -1.06208845401114
87 3.0757728124865036 -1.4890929119291978 1.2424451047656373 -1.9433904349839188 -1.9767363900560788 -1.055006562133483
88 3.0772212290962586 -1.4883213612217092 1.2491007355856962 -1.951760236603199 -1.9842604301879683 -1.0480076289382587
89 3.078739290095236 -1.4875482423700457 1.2557828477882989 -1.9602010098091804 -1.9918883522787858 -1.0411031664066523
90 3.0803272018391086 -1.4867741736270672 1.2624725671614232 -1.968717138622077 -1.9996359519825189 -1.0343046865198506
91 3.0819851706835464 -1.485999773245632 1.2691510194930473 -1.9773130070621003 -2.007519024953154 -1.0276237012590381
92 3.08371340298422 -1.4852256594786004 1.2757993305711486 -1.9859929991494634 -2.0155533668446797 -1.0210717226054011
93 3.0855121050967997 -1.4844524505788306 1.2823986261837046 -1.9947614989043783 -2.0237547733110817 -1.0146602625401249
94 3.0873814833769564 -1.4836807647991823 1.2889300321186938 -2.003622890347058 -2.032139040006349 -1.0084008330443954
95 3.089321744180361 -1.4829112203925139 1.295374674164093 -2.0125815574977137 -2.040721962584466 -1.0023049460993978
96 3.0913330938626835 -1.4821444356116853 1.3017136781078806 -2.0216418843765593 -2.049519336699422 -0.9963841136863183
97 3.0934157387795955 -1.4813810287095561 1.3079281697380345 -2.030808255003807 -2.0585469580052047 -0.9906498477863427
98 3.095569885286766 -1.4806216179389846 1.3139992748425318 -2.040085053399668 -2.0678206221558 -0.9851136603806557
99 3.0977957397398663 -1.4798668215528303 1.3199081192093505 -2.0494766635843567 -2.0773561248051955 -0.9797870634504438
100 3.100093508494568 -1.4791172578039526 1.3256358286264684 -2.0589874695780845 -2.0871692616073783 -0.9746815689768924
101 3.102462939738464 -1.478373355879017 1.3311692039108756 -2.068619994037168 -2.0972707008481235 -0.9698047179172364
102 3.104901948986842 -1.4776347886999177 1.336517745995608 -2.07836931416234 -2.107650601340355 -0.9651481671329085
103 3.1074079935869108 -1.476901040122354 1.3416966308427145 -2.088228645790438 -2.1182939945287838 -0.9606996024613904
104 3.109978530885879 -1.4761715940020261 1.3467210344142435 -2.0981912047582982 -2.129185911858122 -0.9564467097401633
105 3.11261101823096 -1.4754459341946349 1.3516061326722437 -2.108250206902758 -2.1403113847730815 -0.95237717480671
106 3.115302912969364 -1.4747235445558802 1.3563671015787646 -2.118398868060655 -2.1516554447183744 -0.9484786834985119
107 3.1180516724482965 -1.4740039089414618 1.361019117095853 -2.1286304040688244 -2.16320312313871 -0.9447389216530506
108 3.120854754014972 -1.4732865112070805 1.365577355185559 -2.1389380307641046 -2.1749394514788025 -0.941145575107808
109 3.123709615016598 -1.4725708352084355 1.3700569918099303 -2.1493149639833318 -2.1868494611833618 -0.937686329700266
110 3.1266137128003852 -1.471856364801228 1.3744732029310158 -2.1597544195633436 -2.1989181836971 -0.9343488712679064
111 3.129564504713543 -1.4711425838411578 1.3788411645108642 -2.1702496133409768 -2.2111306504647286 -0.9311208856482112
112 3.132559448103284 -1.4704289761839249 1.3831760525115242 -2.180793761153068 -2.22347189293096 -0.9279900586786619
113 3.135596000316815 -1.4697150256852296 1.3874930428950436 -2.1913800788364544 -2.2359269425405035 -0.9249440761967401
114 3.1386716187013475 -1.469000216200772 1.391807311623472 -2.202001782227973 -2.2484808307380737 -0.9219706240399284
115 3.1417837606040906 -1.468284031586252 1.396134034658857 -2.21265208716446 -2.2611185889683796 -0.9190573880457076
116 3.1449298833722557 -1.4675659556973701 1.400488387963248 -2.223324209482754 -2.273825248676135 -0.9161920540515602
117 3.148107444353052 -1.466845472389827 1.4048855474986932 -2.234011365019691 -2.28658584130605 -0.913362307894968
118 3.15131390089369 -1.4661220655193217 1.4093406892272413 -2.2447067696121072 -2.299385398302836 -0.9105558354134125
119 3.154546710341379 -1.4653952189415553 1.4138689891109406 -2.25540363909684 -2.312208951111206 -0.9077603224443755
120 3.157803330043329 -1.4646644165122273 1.4184856231118401 -2.2660951893107275 -2.32504153117587 -0.9049634548253391
121 3.1610810119445123 -1.4639292891762867 1.423201472808739 -2.2767757426439625 -2.337867386673206 -0.9021542039540317
122 3.1643761863809456 -1.4631900562356757 1.4280102422474417 -2.2874440477001685 -2.350667632706254 -0.8993266834691691
123 3.1676850782864086 -1.4624470840815853 1.4329013410905018 -2.2980999596363247 -2.3634226011097192 -0.8964762925697136
124 3.1710039125946787 -1.4617007391052055 1.4378641790004747 -2.3087433336094105 -2.3761126237183054 -0.8935984304546277
125 3.1743289142395366 -1.4609513876977278 1.4428881656399146 -2.3193740247764065 -2.388718032366719 -0.8906884963228741
126 3.177656308154762 -1.460199396250343 1.447962710671377 -2.3299918882942925 -2.4012191588896665 -0.8877418893734154
127 3.180982319274131 -1.4594451311542407 1.4530772237574154 -2.3405967793200473 -2.413596335121851 -0.8847540088052132
128 3.184303172531425 -1.4586889588006127 1.4582211145605857 -2.3511885530106515 -2.425829892897978 -0.8817202538172311
129 3.187615092860421 -1.457931245580649 1.4633837927434414 -2.3617670645230855 -2.437900164052753 -0.8786360236084307
130 3.1909143051949 -1.4571723578855416 1.468554667968538 -2.3723321690143266 -2.4497874804208823 -0.8754967173777751
131 3.1941970344686395 -1.4564126621064795 1.4737231498984296 -2.3828837216413574 -2.46147217383707 -0.8722977343242264
132 3.19745950561542 -1.4556525246346548 1.4788786481956717 -2.3934215775611567 -2.472934576136022 -0.8690344736467474
133 3.2006979435690184 -1.4548923118612571 1.484010572522818 -2.4039455919307033 -2.4841550191524426 -0.8657023345443001
134 3.203908573263216 -1.4541323901774783 1.4891083325424241 -2.4144556199069784 -2.495113834721038 -0.8622967162158476
135 3.207087619631789 -1.453373125974508 1.4941613379170435 -2.4249515166469604 -2.5057913546765125 -0.8588130178603516
136 3.2102313076085194 -1.452614885643538 1.499158998309232 -2.4354331373076303 -2.516167910853573 -0.8552466386767752
137 3.2133358621271846 -1.4518580355757584 1.504090723381544 -2.4459003370459675 -2.526223835086924 -0.8515929778640811
138 3.2163975081215628 -1.45110294216236 1.5089459227965336 -2.4563529710189513 -2.5359394592112694 -0.8478474346212308
139 3.2194124705254348 -1.4503499717945336 1.5137140062167558 -2.4667908943835615 -2.5452951150613154 -0.8440054081471875
140 3.222376974272578 -1.4495994908634697 1.5183843833047657 -2.4772139622967786 -2.5542711344717675 -0.8400622976409136
141 3.225287705312908 -1.4488518153833203 1.5229482880075451 -2.4876218643963584 -2.562851165822325 -0.8360152291025719
142 3.228143193660879 -1.4481070598600803 1.5274042514097879 -2.4980136282431595 -2.571032123672661 -0.8318682357371276
143 3.2309424303470835 -1.4473652884227053 1.531752628880614 -2.50838811587882 -2.578814239127446 -0.8276270775507462
144 3.2336844064021104 -1.4466265652001509 1.535993775789145 -2.5187441893449733 -2.586197743291345 -0.8232975145495924
145 3.2363681128565513 -1.4458909543213738 1.5401280475045018 -2.5290807106832576 -2.593182867269029 -0.8188853067398327
146 3.238992540740998 -1.4451585199153298 1.5441557993958057 -2.539396541935308 -2.5997698421651663 -0.8143962141276323
147 3.241556681086039 -1.4444293261109737 1.5480773868321769 -2.5496905451427603 -2.6059588990844227 -0.809835996719156
148 3.244059524922267 -1.4437034370372623 1.5518931651827366 -2.559961582347251 -2.611750269131468 -0.80521041452057
149 3.2465000632802714 -1.442980916823151 1.5556034898166051 -2.570208515590415 -2.61714418341097 -0.8005252275380392
150 3.2488772871906453 -1.4422618295975964 1.5592087161029047 -2.5804302069138894 -2.6221408730275972 -0.7957861957777297
151 3.251190187683977 -1.4415462394895533 1.5627091994107556 -2.5906255183593094 -2.6267405690860177 -0.7909990792458066
152 3.2534377557908596 -1.4408342106279786 1.5661052951092787 -2.6007933119683115 -2.6309435026909003 -0.7861696379484354
153 3.2556189825418813 -1.440125807141827 1.5693973585675949 -2.6109324497825313 -2.6347499049469114 -0.7813036318917812
154 3.257732858967635 -1.4394210931600555 1.5725857451548255 -2.6210417938436055 -2.638160006958722 -0.7764068210820103
155 3.25977837609871 -1.4387201328116188 1.57567081024009 -2.6311202061931684 -2.641174039830997 -0.7714849655252871
156 3.261754524965698 -1.438022990225474 1.5786529091925114 -2.6411665488728575 -2.6437922346684073 -0.7665438252277781
157 3.26366029659919 -1.4373297295305765 1.5815323973812099 -2.651179683924309 -2.6460148225756215 -0.7615891601956483
158 3.265494682029776 -1.4366404148558816 1.5843096301753055 -2.6611584733891576 -2.6478420346573044 -0.7566267304350628
159 3.2672566722880476 -1.4359551103303458 1.58698496294392 -2.67110177930904 -2.649274102018127 -0.7516622959521877
160 3.268945258404595 -1.4352738800829248 1.5895587510561744 -2.6810084637255924 -2.650311255762757 -0.7467016167531881
161 3.2705596887723734 -1.4345967575341108 1.5920319074444995 -2.6908773821277774 -2.6509559136296996 -0.7417499622016683
162 3.2721002412337965 -1.4339236532705424 1.5944075752945688 -2.700707363793872 -2.6512192398928125 -0.7368106390909882
163 3.2735674509936397 -1.433254447170394 1.5966894553553657 -2.7104972314494775 -2.6511145854597893 -0.7318864635719463
164 3.2749618532566807 -1.4325890191118404 1.5988812483758728 -2.7202458078201976 -2.650655301238323 -0.7269802517953406
165 3.2762839832276964 -1.4319272489730566 1.600986655105074 -2.7299519156316365 -2.649854738136109 -0.7220948199119703
166 3.277534376111465 -1.4312690166322177 1.6030093762919537 -2.7396143776093975 -2.648726247060842 -0.7172329840726341
167 3.278713567112761 -1.4306142019674974 1.604953112685493 -2.749232016479081 -2.647283178920214 -0.7123975604281297
168 3.279822091436363 -1.4299626848570715 1.6068215650346773 -2.7588036549662918 -2.6455388846219208 -0.7075913651292562
169 3.280860484287048 -1.4293143451791137 1.6086184340884886 -2.7683281157966326 -2.643506715073655 -0.7028172143268119
170 3.2818292808695926 -1.4286690628118002 1.6103474205959114 -2.7778042216957073 -2.6412000211831117 -0.6980779241715953
171 3.2827290163887737 -1.4280267176333046 1.6120122253059286 -2.787230795389118 -2.6386321538579858 -0.6933763108144053
172 3.283560226049369 -1.4273871895218024 1.6136165489675234 -2.796606659602469 -2.6358164640059707 -0.6887151904060402
173 3.2843234450561547 -1.4267503583554675 1.6151640923296793 -2.805930637061362 -2.63276630253476 -0.6840973790972984
174 3.285019208613908 -1.4261161040124761 1.6166585561413802 -2.815201550491401 -2.6294950203520484 -0.6795256930389786
175 3.2856480519274056 -1.425484306371001 1.618103641151608 -2.8244182226181875 -2.6260159683655293 -0.6750029483818791
176 3.286210510201425 -1.4248548453092185 1.619503048109348 -2.8335794761673267 -2.6223424974828977 -0.6705319612767988
177 3.286707118640744 -1.4242276007053034 1.6208604777635824 -2.842684133864422 -2.618487958611848 -0.6661155478745361
178 3.2871384124501377 -1.4236024524374291 1.6221796308632945 -2.851731018435074 -2.614465702660073 -0.6617565243258894
179 3.2875049268343846 -1.4229792803837717 1.6234642081574686 -2.860718952604887 -2.610289080535267 -0.6574577067816572
180 3.2878071969982603 -1.4223579644225055 1.6247179103950873 -2.869646759099464 -2.6059714431451257 -0.6532219113926382
181 3.288045850187082 -1.4217384013474963 1.625944082462473 -2.878513542358885 -2.601524543073336 -0.649051427918715
182 3.2882218818083166 -1.4211205556153745 1.6271446457953005 -2.8873195336811297 -2.596953739607566 -0.6449464405561074
183 3.288336379309973 -1.420504408598462 1.6283211659665848 -2.8960652460786562 -2.5922627937114773 -0.640906607110119
184 3.2883904301400557 -1.4198899416690791 1.6294752085493394 -2.90475119256392 -2.5874554663487284 -0.6369315853860535
185 3.2883851217465736 -1.4192771361995484 1.6306083391165789 -2.91337788614938 -2.582535518482985 -0.6330210331892151
186 3.2883215415775338 -1.4186659735621914 1.6317221232413177 -2.921945839847494 -2.577506711077907 -0.6291746083249073
187 3.2882007770809416 -1.4180564351293283 1.6328181264965689 -2.9304555666707155 -2.572372805097154 -0.6253919685984337
188 3.288023915704806 -1.4174485022732815 1.6338979144553476 -2.9389075796315045 -2.56713756150439 -0.6216727718150986
189 3.287792044897132 -1.4168421563663725 1.6349630526906676 -2.9473023917423165 -2.5618047412632743 -0.6180166757802052
190 3.2875062521059286 -1.4162373787809224 1.636015106775543 -2.9556405160156096 -2.55637810533747 -0.6144233382990577
191 3.2871676247792023 -1.4156341508892525 1.6370556422829883 -2.963922465463841 -2.550861414690638 -0.6108924171769599
192 3.2867772503649606 -1.4150324540636847 1.6380862247860173 -2.9721487530994675 -2.5452584302864403 -0.6074235702192153
193 3.286336216311208 -1.4144322696765401 1.6391084198576442 -2.9803198919349456 -2.5395729130885374 -0.6040164552311279
194 3.2858456100659548 -1.4138335791001408 1.6401237930708832 -2.9884363949827333 -2.5338086240605913 -0.6006707300180016
195 3.2853065190772055 -1.413236363706807 1.641133909998748 -2.996498775255285 -2.527969324166263 -0.5973860523851399
196 3.2847200307929683 -1.4126406048688616 1.6421403362142535 -3.0045075457650623 -2.5220587743692144 -0.5941620801378468
197 3.2840872326612507 -1.4120462839586252 1.6431446372904135 -3.012463219524519 -2.516080735633108 -0.5909984710814261
198 3.2834092121300587 -1.4114533823484192 1.644148378800242 -3.0203663095461124 -2.5100389689216023 -0.5878948830211814
199 3.2826870566473993 -1.4108618814105651 1.6451531263167534 -3.0282173288423007 -2.5039372351983618 -0.5848509737624167
200 3.28192185366128 -1.4102717625173848 1.6461604454129617 -3.03601679042554 -2.497779295427047 -0.5818664011104355
201 3.2811146391792567 -1.4096829961837694 1.6471716602978763 -3.043765227566004 -2.4915685681008286 -0.5789404309877368
202 3.280266243447079 -1.4090955094948896 1.6481871297244892 -3.051463254564726 -2.485307101830921 -0.5760707617855979
203 3.2793774452700455 -1.4085092186784869 1.6492069710817874 -3.059111505980457 -2.4789966027580466 -0.5732547000124912
204 3.278449023453453 -1.4079240399623014 1.6502313017587567 -3.066710616371945 -2.472638777022929 -0.570489552176889
205 3.2774817568026027 -1.4073398895740747 1.6512602391443854 -3.0742612202979425 -2.466235330766292 -0.5677726247872639
206 3.276476424122792 -1.4067566837415482 1.65229390062766 -3.081763952317198 -2.4597879701288585 -0.5651012243520881
207 3.2754338042193174 -1.4061743386924617 1.6533324035975665 -3.089219446988462 -2.453298401251351 -0.5624726573798335
208 3.2743546758974804 -1.4055927706545568 1.6543758654430931 -3.096628338870484 -2.446768330274494 -0.5598842303789733
209 3.2732398179625766 -1.4050118958555737 1.655424403553226 -3.103991262522014 -2.44019946333901 -0.5573332498579793
210 3.272090009219907 -1.4044316305232543 1.6564781353169526 -3.111308852501803 -2.4335935065856225 -0.5548170223253238
211 3.270906028474769 -1.4038518908853388 1.6575371781232595 -3.1185817433686003 -2.4269521661550555 -0.5523328542894795
212 3.2696886545324606 -1.4032725931695686 1.6586016493611344 -3.1258105696811564 -2.420277148188031 -0.5498780522589186
213 3.2684386661982807 -1.4026936536036843 1.659671666419563 -3.13299596599822 -2.4135701588252734 -0.5474499227421132
214 3.2671568422775277 -1.402114988415427 1.660747346687533 -3.1401385668785418 -2.4068329042075054 -0.5450457722475364
215 3.2658439615754995 -1.401536513832537 1.6618288075540308 -3.1472390068808713 -2.4000670904754497 -0.5426629072836594
216 3.2645008028974956 -1.4009581460827563 1.6629161664080443 -3.15429792056396 -2.3932744237698316 -0.5402986343589555
217 3.2631281450488143 -1.4003798013938253 1.66400954063856 -3.1613159424865573 -2.3864566102313733 -0.5379502599818969
218 3.261726766834753 -1.3998013959934847 1.6651090476345642 -3.168293707207411 -2.3796153560007967 -0.5356150906609556
219 3.260297447060611 -1.3992228461094758 1.6662148047850442 -3.1752318492852742 -2.372752367218827 -0.5332904329046043
220 3.2588409645316867 -1.3986440679695393 1.6673269294789876 -3.182131003278895 -2.3658693500261867 -0.5309735932213151
221 3.257358078971964 -1.3980649965628842 1.6684454899260117 -3.1889916606823503 -2.3589679865125857 -0.5286623374445197
222 3.2558494737801698 -1.3974856419245918 1.6695703576182597 -3.1958137407310185 -2.3520498625636788 -0.5263562687074861
223 3.254315813273717 -1.3969060328512106 1.670701354868505 -3.202597019595605 -2.3451165400141076 -0.5240554494684416
224 3.2527577617700167 -1.3963261981392896 1.6718383039895213 -3.2093412734468125 -2.3381695806985117 -0.5217599421856132
225 3.2511759835864824 -1.3957461665853788 1.6729810272940824 -3.2160462784553494 -2.3312105464515347 -0.5194698093172285
226 3.2495711430405283 -1.3951659669860264 1.6741293470949627 -3.2227118107919184 -2.324240999107817 -0.5171851133215146
227 3.247943904449563 -1.3945856281377815 1.6752830857049354 -3.229337646627224 -2.317262500501999 -0.5149059166566988
228 3.2462949321310015 -1.3940051788371934 1.6764420654367744 -3.2359235621319726 -2.310276612468723 -0.5126322817810083
229 3.244624890402256 -1.3934246478808106 1.677606108603253 -3.2424693334768677 -2.303284896842629 -0.5103642711526702
230 3.242934443580739 -1.3928440640651831 1.678775037517146 -3.248974736832615 -2.2962889154583594 -0.5081019472299121
231 3.2412242559838624 -1.3922634561868592 1.6799486744912266 -3.255439548369919 -2.2892902301505553 -0.505845372470961
232 3.23949499192904 -1.3916828530423886 1.6811268418382685 -3.261863544259485 -2.282290402753858 -0.5035946093340441
233 3.2377473157336816 -1.3911022834283195 1.6823093618710458 -3.2682465006720167 -2.2752909951029077 -0.5013497202773888
234 3.235981891715203 -1.3905217761412016 1.683496056902332 -3.274588193778221 -2.2682935690323474 -0.49911076775922236
235 3.234199384191013 -1.3899413599775832 1.684686749244901 -3.2808883997488 -2.2612996863768164 -0.4968778142377718
236 3.2324004574785272 -1.3893610637340141 1.6858812612115264 -3.2871468947544606 -2.254310908970957 -0.49465092217126455
237 3.230585775895158 -1.388780916207044 1.6870794151149826 -3.293363454965908 -2.2473287986494115 -0.49243015401792806
238 3.2287560037583156 -1.38820094619322 1.6882810332680425 -3.2995378565538456 -2.240354917246819 -0.49021557223598905
239 3.2269118053854142 -1.3876211824890925 1.6894859379834806 -3.3056698756889786 -2.2333908265978217 -0.4880072392836753
240 3.225053845093866 -1.3870416538912103 1.6906939515740704 -3.3117592885420124 -2.226438088537061 -0.4858052176192137
241 3.223182769132822 -1.3864623797606266 1.691904852685959 -3.31780592016958 -2.2194981355649674 -0.4836094752433761
242 3.2212991514783895 -1.3858833417164127 1.6931182452987859 -3.3238097911720277 -2.212571882845123 -0.4814196023271115
243 3.2194035480384158 -1.385304511942143 1.694333689725565 -3.3297709710356287 -2.205660116206901 -0.47923509458391367
244 3.217496514720745 -1.3847258626213923 1.6955507462793076 -3.335689529246658 -2.1987636214796735 -0.47705544772727587
245 3.2155786074332253 -1.3841473659377366 1.6967689752730286 -3.341565535291389 -2.191883184492813 -0.4748801574706918
246 3.2136503820837037 -1.3835689940747504 1.6979879370197406 -3.347399058656098 -2.185019591075692 -0.47270871952765503
247 3.2117123945800232 -1.3829907192160087 1.6992071918324556 -3.3531901688270564 -2.178173627057682 -0.47054062961165893
248 3.209765200830033 -1.3824125135450864 1.7004263000241877 -3.3589389352905408 -2.1713460782681557 -0.4683753834361973
249 3.2078093567415777 -1.3818343492455587 1.7016448219079496 -3.3646454275328233 -2.164537730536485 -0.4662124767147633
250 3.2058454182225047 -1.3812561985010008 1.7028623177967543 -3.3703097150401793 -2.1577493696920427 -0.46405140516085097
251 3.2038739411806594 -1.3806780334949877 1.704078348003615 -3.3759318672988834 -2.1509817815642007 -0.4618916644879535
252 3.2018954815238887 -1.3800998264110946 1.7052924728415448 -3.3815119537952096 -2.1442357519823316 -0.4597327504095645
253 3.1999105951600377 -1.3795215494328963 1.7065042526235563 -3.3870500440154307 -2.137512066775807 -0.4575741586391776
254 3.1979198379969542 -1.3789431747439675 1.707713247662663 -3.392546207445824 -2.1308115117740005 -0.45541538489028627
255 3.195923765942483 -1.3783646745278837 1.7089190182718772 -3.39800051357266 -2.1241348728062825 -0.45325592487638394
256 3.1939229349044713 -1.37778602096822 1.7101211247642127 -3.403413031882215 -2.1174829357020273 -0.45109527431096447
257 3.1919179007907656 -1.3772071862485513 1.711319127452683 -3.4087838318607644 -2.1108564862906056 -0.4489329289075212
258 3.189909219509212 -1.3766281425524525 1.7125125866502995 -3.4141129829945793 -2.1042563104013903 -0.4467683843795475
259 3.1878974469676553 -1.3760488620634987 1.7137010626700766 -3.419400554769936 -2.097683193863754 -0.4446011364405372
260 3.185883139073943 -1.3754693169652654 1.714884115825027 -3.4246466166731087 -2.091137922507068 -0.44243068080398373
261 3.183866817061283 -1.374889488008811 1.716061337681574 -3.4298512171854574 -2.084621226346891 -0.44025657435748405
262 3.181848863464328 -1.3743093902151302 1.7172324448197853 -3.435014320768685 -2.0781336121435205 -0.4380786186850484
263 3.1798296261430914 -1.3737290471727013 1.7183971850731372 -3.4401358708795846 -2.0716755308434416 -0.43589667654479064
264 3.1778094529575878 -1.3731484824700013 1.7195553062751072 -3.4452158109749433 -2.0652474333931385 -0.4337106106948241
265 3.1757886917678313 -1.37256771969551 1.720706556259173 -3.4502540845115544 -2.0588497707390943 -0.4315202838932627
266 3.173767690433838 -1.3719867824377054 1.7218506828588125 -3.455250634946206 -2.0524829938277946 -0.42932555889822027
267 3.1717467968156186 -1.371405694285065 1.7229874339075013 -3.460205405735688 -2.046147553605721 -0.4271262984678101
268 3.16972635877319 -1.3708244788260675 1.7241165572387185 -3.465118340336793 -2.039843901019361 -0.4249223653601462
269 3.1677067241665644 -1.370243159649191 1.7252378006859403 -3.469989382206308 -2.033572487015195 -0.42271362233334214
270 3.1656882408557583 -1.3696617603429138 1.726350912082645 -3.474818474801026 -2.0273337625397105 -0.4204999321455116
271 3.163671256700784 -1.369080304495714 1.7274556392623093 -3.479605561577737 -2.021128178539389 -0.41828115755476825
272 3.161656119561657 -1.3684988156960705 1.7285517300584106 -3.4843505859932304 -2.0149561859607164 -0.4160571613192259
273 3.1596431772983906 -1.3679173175324604 1.7296389323044266 -3.4890534915042952 -2.008818235750175 -0.413827806196998
274 3.157632777770999 -1.3673358335933632 1.7307169938338347 -3.4937142215677253 -2.0027147788542505 -0.41159295494619835
275 3.155625268839496 -1.3667543874672556 1.7317856624801111 -3.498332719640306 -1.9966462662194258 -0.40935247032494065
276 3.1536209983638974 -1.366173002742617 1.7328446860767344 -3.5029089291788313 -1.9906131487921859 -0.4071062150913386
277 3.1516203142042176 -1.3655917030079259 1.733893812457182 -3.507442793640092 -1.984615877519015 -0.40485405200350594
278 3.1496235642204677 -1.3650105118516596 1.7349327894549305 -3.5119342564808758 -1.9786549033463958 -0.4025958438195561
279 3.147631096272664 -1.3644294528622964 1.7359613649034575 -3.5163832611579733 -1.972730677220814 -0.400331453297603
280 3.145643258220822 -1.3638485496283153 1.7369792866362408 -3.520789751128176 -1.9668436500887523 -0.39806074319576035
281 3.143660373187766 -1.3632678225708843 1.7379863252876888 -3.5251537059310842 -1.96099420405227 -0.3957836038814136
282 3.1416826653475787 -1.362687279441932 1.738982342695938 -3.529475249437545 -1.9551824458357208 -0.39350003615903684
283 3.1397103341371517 -1.362106924826079 1.739967223500057 -3.533754541601214 -1.9494084133190333 -0.39121006844237594
284 3.137743578993377 -1.3615267633079429 1.7409408523391119 -3.537991742375748 -1.9436721443821348 -0.3889137291451764
285 3.13578259935315 -1.360946799472144 1.741903113852172 -3.5421870117148044 -1.9379736769049543 -0.38661104668118457
286 3.133827594653363 -1.360367037903302 1.742853892678305 -3.5463405095720417 -1.932313048767421 -0.38430204946414614
287 3.1318787643309083 -1.359787483186035 1.743793073456578 -3.550452395901113 -1.9266902978494613 -0.3819867659078068
288 3.129936307822679 -1.3592081399049631 1.7447205408260598 -3.554522830655679 -1.921105462031005 -0.3796652244259125
289 3.1280004245655686 -1.3586290126447051 1.7456361794258177 -3.558551973789394 -1.9155585791919794 -0.37733745343220915
290 3.1260713139964698 -1.358050105989881 1.74653987389492 -3.562539985255916 -1.9100496872123132 -0.3750034813404426
291 3.1241491755522754 -1.3574714245251094 1.7474315088724344 -3.566487025008902 -1.9045788239719346 -0.3726633365643587
292 3.1222342086698798 -1.3568929728350099 1.7483109689974288 -3.5703932530020093 -1.899146027350772 -0.37031704751770345
293 3.1203266127861737 -1.3563147555042014 1.749178138908971 -3.574258829188893 -1.8937513352287534 -0.3679646426142224
294 3.1184265873380523 -1.3557367771173041 1.7500329032461286 -3.578083913523213 -1.8883947854858079 -0.36560615026766174
295 3.116534331762407 -1.3551590422589357 1.7508751466479695 -3.581868665958621 -1.883076416001862 -0.36324159889176705
296 3.1146500454961314 -1.3545815555137173 1.7517047537535624 -3.5856132464487795 -1.8777962646568458 -0.36087101690028445
297 3.11277392797612 -1.3540043214662674 1.7525216092019746 -3.589317814947344 -1.872554369330687 -0.3584944327069597
298 3.110906178639264 -1.3534273447012046 1.753325597632274 -3.5929825314079693 -1.8673507679033134 -0.35611187472553857
299 3.109046996922457 -1.3528506298031493 1.7541166036835283 -3.596607555784314 -1.862185498254654 -0.353723371369767
300 3.107196582262591 -1.3522741813567203 1.7548945119948058 -3.600193048030034 -1.8570585982646366 -0.3513289510533909
301 3.1053551222331315 -1.3516980057186667 1.7556592026858087 -3.6037390972908576 -1.8519701301812226 -0.3489286837375342
302 3.103522756953818 -1.3511221163342584 1.7564105377987798 -3.607245509480793 -1.8469202537245037 -0.3465228055728338
303 3.101699614680965 -1.3505465284208946 1.7571483748565964 -3.6107120197059177 -1.8419091529826055 -0.3441115942573046
304 3.0998858236708817 -1.349971257195975 1.757872571382135 -3.614138363072311 -1.8369370120436521 -0.3416953274889615
305 3.098081512179883 -1.349396317876899 1.7585829848982735 -3.617524274686051 -1.832004014995769 -0.3392742829658195
306 3.0962868084642805 -1.3488217256810668 1.7592794729278893 -3.620869489653219 -1.8271103459270814 -0.33684873838589363
307 3.094501840780385 -1.3482474958258766 1.7599618929938585 -3.6241737430798895 -1.8222561889257136 -0.3344189714471986
308 3.09272673738451 -1.347673643528729 1.7606301026190596 -3.6274367700721446 -1.8174417280797914 -0.3319852598477497
309 3.0909616265329665 -1.347100184007023 1.7612839593263687 -3.6306583057360595 -1.8126671474774387 -0.3295478812855615
310 3.089206636482068 -1.3465271324781585 1.761923320638664 -3.633838085177716 -1.8079326312067812 -0.3271071134586493
311 3.087461895488125 -1.3459545041595342 1.762548044078822 -3.636975843503191 -1.8032383633559437 -0.3246632340650278
312 3.0857275318074513 -1.345382314268551 1.7631579871697203 -3.640071315818564 -1.7985845280130512 -0.32221652080271224
313 3.084003673696358 -1.3448105780226072 1.7637530074342358 -3.6431242372299124 -1.7939713092662286 -0.3197672513697172
314 3.082290449411157 -1.3442393106391033 1.7643329623952462 -3.6461343428433164 -1.7893988912036012 -0.3173157034640579
315 3.080587987208161 -1.3436685273354376 1.7648977095756277 -3.6491013677648523 -1.7848674579132926 -0.3148621547837491
316 3.0788964153436824 -1.3430982433290108 1.7654471064982589 -3.6520250471006017 -1.7803771934834298 -0.31240688302680597
317 3.0772158620740333 -1.342528473837222 1.765981010686016 -3.6549051159566432 -1.7759282820021363 -0.30995016589124347
318 3.0755464556555245 -1.3419592340774704 1.7664992796617764 -3.657741309439052 -1.7715209075575375 -0.30749228107507626
319 3.0738883243444697 -1.341390539267156 1.7670017709484176 -3.6605333626539087 -1.7671552542377582 -0.3050335062763195
320 3.0722415963971805 -1.340822404623678 1.7674883420688163 -3.663281010707292 -1.7628315061309234 -0.3025741191929882
321 3.0706063699320048 -1.3402548408502182 1.767958938396437 -3.6659843006772 -1.758549599696163 -0.3001142962136835
322 3.0689826225154335 -1.3396878405930854 1.7684138567070884 -3.6686445275293056 -1.7543084808766232 -0.2976538084893524
323 3.067370301575994 -1.3391213919843716 1.7688534816271673 -3.6712632982012012 -1.7501068479864559 -0.29519232586152805
324 3.0657693545422107 -1.3385554831561672 1.7692781977830683 -3.6738422196304783 -1.7459433993398108 -0.2927295181717434
325 3.0641797288426136 -1.3379901022405638 1.7696883898011881 -3.6763828987547305 -1.7418168332508406 -0.29026505526153196
326 3.062601371905728 -1.3374252373696531 1.7700844423079232 -3.678886942511552 -1.7377258480336968 -0.2877986069724268
327 3.0610342311600793 -1.3368608766755254 1.770466739929668 -3.681355957838531 -1.7336691420025292 -0.285329843145961
328 3.059478254034196 -1.336297008290273 1.7708356672928198 -3.6837915516732633 -1.7296454134714905 -0.28285843362366797
329 3.057933387956603 -1.3357336203459862 1.7711916090237736 -3.686195330953339 -1.7256533607547304 -0.28038404824708063
330 3.05639958035583 -1.3351707009747569 1.7715349497489266 -3.688568902616352 -1.7216916821664012 -0.27790635685773235
331 3.0548767786604007 -1.3346082383086757 1.7718660740946728 -3.6909138735998943 -1.7177590760206536 -0.2754250292971562
332 3.053364930298844 -1.3340462204798347 1.7721853666874101 -3.6932318508415594 -1.71385424063164 -0.2729397354068856
333 3.0518639826996847 -1.3334846356203247 1.7724932121535328 -3.695524441278938 -1.7099758743135098 -0.2704501450284534
334 3.050373883291451 -1.332923471862237 1.7727899951194381 -3.6977932518496233 -1.706122675380416 -0.2679559280033931
335 3.0488945795026687 -1.3323627173376622 1.7730761002115205 -3.7000398894912068 -1.702293342146508 -0.26545675417323755
336 3.0474260187618647 -1.3318023601786928 1.7733519120561776 -3.7022659611412827 -1.6984865729259386 -0.26295229337952025
337 3.0459681484975674 -1.3312423885174194 1.7736178152798043 -3.704473073737444 -1.6947010660328587 -0.26044221546377433
338 3.044520916138301 -1.3306827904859326 1.7738741945087968 -3.706662834217279 -1.690935519781419 -0.2579261902675328
339 3.0430842691125934 -1.330123554216325 1.7741214343695506 -3.7088368495183834 -1.687188632485771 -0.255403887632329
340 3.0416581548489714 -1.3295646678406867 1.7743599194884618 -3.7109967265783497 -1.6834591024600658 -0.25287497739969605
341 3.0402425727371063 -1.329006135149196 1.7745897737318237 -3.713142927497594 -1.6797464907947686 -0.2503395132050108
342 3.038837730011246 -1.328448022564375 1.7748100779255136 -3.715271335027831 -1.6760538096855948 -0.24779908385902383
343 3.037443885866785 -1.3278904121668327 1.775019652135307 -3.7173766870836 -1.6723849341045744 -0.24525566196632967
344 3.0360612994991145 -1.3273333860371772 1.7752173164269784 -3.719453721579439 -1.6687437390237374 -0.24271122013152246
345 3.034690230103629 -1.3267770262560188 1.7754018908663034 -3.72149717642989 -1.6651340994151134 -0.24016773095919672
346 3.033330936875723 -1.3262214149039657 1.7755721955190567 -3.723501789549491 -1.661559890250732 -0.2376271670539467
347 3.031983679010787 -1.3256666340616259 1.775727050451013 -3.7254622988527784 -1.658024986502623 -0.23509150102036663
348 3.030648715704216 -1.3251127658096093 1.7758652757279476 -3.7273734422542955 -1.654533263142816 -0.23256270546305105
349 3.0293263061514017 -1.3245598922285242 1.7759856914156344 -3.7292299576685792 -1.6510885951433405 -0.23004275298659407
350 3.028016709547739 -1.3240080953989795 1.7760871175798503 -3.731026583010169 -1.6476948574762267 -0.2275336161955902
351 3.026720185088619 -1.3234574574015845 1.7761683742863683 -3.7327580561936045 -1.644355925113504 -0.22503726769463367
352 3.0254369919694377 -1.3229080603169474 1.7762282816009654 -3.7344191151334245 -1.641075673027202 -0.2225556800883188
353 3.024167389385586 -1.322359986225677 1.7762656595894142 -3.7360044977441684 -1.6378579761893506 -0.22009082598123994
354 3.0229116365324584 -1.321813317208383 1.7762793283174916 -3.7375089419403764 -1.6347067095719794 -0.21764467797799153
355 3.0216699926054456 -1.3212681353456728 1.776268107850971 -3.7389271856365847 -1.6316257481471175 -0.21521920868316766
356 3.020442716799943 -1.3207245227181565 1.7762308182556286 -3.7402539667473356 -1.6286189668867954 -0.21281639070136288
357 3.019230068311345 -1.3201825614064429 1.776166279597239 -3.7414840231871676 -1.6256902407630434 -0.21043819663717145
358 3.018032306335042 -1.31964233349114 1.7760733119415768 -3.742612092870618 -1.6228434447478892 -0.2080865990951876
359 3.0168496900664286 -1.319103921052857 1.7759507353544173 -3.7436329137122284 -1.6200824538133638 -0.2057635706800058
360 3.0156824787008976 -1.318567406172203 1.775797369901535 -3.7445412236265367 -1.617411142931497 -0.20347108399622033
361 3.014530940330691 -1.3180328484458073 1.7756123883308437 -3.745333601985242 -1.6148320241857923 -0.20121057827913066
362 3.013395378635442 -1.317500217534381 1.7753963741188101 -3.746013993988681 -1.6123421581056487 -0.19898135928685678
363 3.0122761061916363 -1.3169694606146576 1.7751502634240386 -3.746588186294351 -1.6099372423319402 -0.19678219940822392
364 3.0111734355757536 -1.3164405248633682 1.774874992405134 -3.7470619655597464 -1.6076129745055399 -0.19461187103205702
365 3.0100876793642786 -1.3159133574572455 1.7745714972207014 -3.7474411184423655 -1.6053650522673213 -0.19246914654718145
366 3.009019150133696 -1.3153879055730222 1.7742407140293466 -3.7477314315997052 -1.603189173258158 -0.1903527983424222
367 3.0079681604604853 -1.3148641163874297 1.7738835789896727 -3.7479386916892596 -1.601081035118923 -0.18826159880660448
368 3.006935022921132 -1.314341937077201 1.7735010282602859 -3.748068685368527 -1.5990363354904904 -0.18619432032855346
369 3.0059200500921177 -1.3138213148190678 1.7730939979997906 -3.748127199295003 -1.5970507720137326 -0.18414973529709422
370 3.004923554549926 -1.3133021967897631 1.7726634243667918 -3.748120020126185 -1.5951200423295242 -0.18212661610105194
371 3.0039458488710404 -1.3127845301660184 1.7722102435198945 -3.7480529345195683 -1.5932398440787379 -0.1801237351292517
372 3.002987245631943 -1.3122682621245667 1.771735391617704 -3.7479317291326506 -1.5914058749022475 -0.1781398647705188
373 3.002048057409117 -1.3117533398421397 1.7712398048188243 -3.7477621906229266 -1.5896138324409261 -0.17617377741367823
374 3.0011285967790458 -1.3112397104954696 1.7707244192818608 -3.747550105647895 -1.5878594143356475 -0.17422424544755524
375 3.0002291763182107 -1.3107273212612887 1.770190171165418 -3.7473012608650493 -1.5861383182272846 -0.17229004126097483
376 2.999350108603097 -1.3102161193163302 1.7696379966281015 -3.747021442931888 -1.5844462417567113 -0.17036993724276228
377 2.9984917062101877 -1.3097060518373258 1.7690688318285162 -3.746716438505909 -1.582778882564801 -0.16846270578174274
378 2.9976542817159637 -1.309197066001007 1.7684836129252661 -3.746392034244605 -1.581131938292427 -0.16656711926674128
379 2.996838147696909 -1.308689108984107 1.7678832760769567 -3.7460540168054752 -1.5795011065804625 -0.16468195008658307
380 2.996043616729507 -1.3081821279633579 1.7672687574421928 -3.745708172846015 -1.5778820850697812 -0.16280597063009325
381 2.9952708047086127 -1.3076760744684515 1.7666409244904728 -3.7453592057197636 -1.5762712956911153 -0.16093815830806946
382 2.994519040802571 -1.3071709174409176 1.7660003699348663 -3.745007485564428 -1.5746680575346317 -0.15907831061919905
383 2.9937874574981005 -1.3066666301752463 1.765347617799337 -3.74465229921376 -1.5730724139803551 -0.15722643008414194
384 2.9930751872819163 -1.3061631859659268 1.764683192107848 -3.744292933501507 -1.5714844084083108 -0.15538251922355797
385 2.9923813626407383 -1.305660558107449 1.7640076168843626 -3.7439286752614223 -1.5699040841985257 -0.15354658055810702
386 2.991705116061283 -1.3051587198943027 1.7633214161528452 -3.743558811327255 -1.568331484731024 -0.15171861660844907
387 2.991045580030267 -1.3046576446209768 1.762625113937258 -3.7431826285327547 -1.5667666533858304 -0.1498986298952438
388 2.990401887034409 -1.3041573055819617 1.7619192342615644 -3.7427994137116714 -1.5652096335429722 -0.14808662293915123
389 2.989773169560425 -1.3036576760717467 1.7612043011497276 -3.7424084536977555 -1.5636604685824729 -0.14628259826083118
390 2.989158560095034 -1.3031587293848217 1.760480838625712 -3.7420090353247573 -1.5621192018843593 -0.14448655838094354
391 2.9885571911249524 -1.302660438815676 1.7597493707134801 -3.7416004454264273 -1.5605858768286558 -0.14269850582014815
392 2.9879681951368986 -1.3021627776587994 1.7590104214369957 -3.7411819708365153 -1.559060536795389 -0.14091844309910492
393 2.9873907046175887 -1.3016657192086816 1.7582645148202214 -3.7407528983887715 -1.5575432251645827 -0.13914637273847372
394 2.9868238520537416 -1.3011692367598122 1.7575121748871219 -3.7403125149169463 -1.5560339853162637 -0.13738229725891446
395 2.9862667699320733 -1.3006733036066804 1.7567539256616584 -3.7398601072547883 -1.554532860630456 -0.13562621918108686
396 2.985718590739302 -1.3001778930437766 1.755990291167796 -3.73939496223605 -1.5530398944871864 -0.133878141025651
397 2.9851784469621463 -1.2996829783655903 1.7552217954294984 -3.7389163666944807 -1.55155513026648 -0.13213806531326663
398 2.9846454710873207 -1.2991885328666104 1.7544489624707276 -3.73842360746383 -1.5500786113483613 -0.13040599456459362
399 2.9841187956015456 -1.2986945298413275 1.7536723163154473 -3.7379159713778485 -1.5486103811128566 -0.1286819313002919
400 2.9835975529915366 -1.2982009425842305 1.7528923809876211 -3.7373927452702858 -1.5471504829399907 -0.1269658780410213
401 2.9830810244175603 -1.2977077493144922 1.752109577695066 -3.736853386340867 -1.545698959872182 -0.12525784367399545
402 2.9825690857340765 -1.2972149479500155 1.7513239163810117 -3.7362980332532105 -1.5442558536014166 -0.12355786255264262
403 2.9820617614690934 -1.2967225413333872 1.7505353041725424 -3.7357269950369076 -1.542821205482074 -0.12186597539694485
404 2.9815590761506168 -1.2962305323071917 1.7497436481967408 -3.7351405807215508 -1.541395056868533 -0.12018222292688419
405 2.981061054306658 -1.2957389237140162 1.7489488555806918 -3.7345390993367324 -1.5399774491151734 -0.1185066458624427
406 2.980567720465224 -1.295247718396447 1.748150833451479 -3.7339228599120475 -1.5385684235763746 -0.11683928492360242
407 2.9800790991543225 -1.2947569191970685 1.7473494889361847 -3.7332921714770833 -1.5371680216065142 -0.11518018083034531
408 2.9795952149019618 -1.2942665289584683 1.7465447291618938 -3.7326473430614358 -1.5357762845599727 -0.11352937430265347
409 2.979116092236148 -1.2937765505232308 1.7457364612556894 -3.7319886836946963 -1.5343932537911282 -0.1118869060605089
410 2.978641755684892 -1.2932869867339434 1.7449245923446555 -3.731316502406458 -1.533018970654361 -0.11025281682389368
411 2.9781722297762006 -1.2927978404331912 1.7441090295558759 -3.7306311082263113 -1.5316534765040495 -0.10862714731278979
412 2.9777075390380827 -1.2923091144635608 1.743289680016434 -3.7299328101838514 -1.5302968126945733 -0.10700993824717932
413 2.9772477079985453 -1.2918208116676373 1.7424664508534131 -3.7292219173086676 -1.528949020580311 -0.10540123034704425
414 2.9767927611855973 -1.2913329348880076 1.7416392491938972 -3.728498738630354 -1.527610141515642 -0.10380106433236663
415 2.976342723127245 -1.2908454869672568 1.7408079821649698 -3.727763583178501 -1.5262802168549452 -0.10220948092312851
416 2.9758976183514982 -1.2903584707479714 1.7399725568937154 -3.727016759982704 -1.5249592879526006 -0.10062652083931192
417 2.975457471386366 -1.2898718890727372 1.7391328805072173 -3.7262585780725543 -1.5236473961629864 -0.09905222480089892
418 2.9750223067598536 -1.2893857447841401 1.738288860132558 -3.725489346477642 -1.522344582840482 -0.09748663352787147
419 2.974592148999971 -1.2889000407247662 1.7374404028968227 -3.7247093742275617 -1.5210508893394667 -0.09592978774021169
420 2.9741670226347257 -1.2884147797372014 1.7365874159270938 -3.7239189703519053 -1.5197663570143196 -0.09438172815790154
421 2.973746935412157 -1.2879299635893073 1.735729833390899 -3.7231183977331046 -1.5184910088442551 -0.09284249069522515
422 2.9733318279604277 -1.2874455897500476 1.7348676976175363 -3.722307734664951 -1.51722479430783 -0.0913120920436747
423 2.972921624127733 -1.2869616546136626 1.7340010779767479 -3.7214870132940736 -1.515967644508437 -0.08979054408904444
424 2.9725162477622655 -1.2864781545743902 1.7331300438382742 -3.720656265767103 -1.5147194905494665 -0.0882778587171286
425 2.9721156227122223 -1.285995086026471 1.7322546645718582 -3.7198155242306705 -1.513480263534312 -0.08677404781372143
426 2.9717196728257966 -1.2855124453641449 1.7313750095472409 -3.7189648208314074 -1.5122498945663656 -0.08527912326461722
427 2.9713283219511815 -1.28503022898165 1.7304911481341632 -3.718104187715941 -1.5110283147490184 -0.08379309695561014
428 2.970941493936573 -1.2845484332732269 1.7296031497023674 -3.7172336570309037 -1.5098154551856633 -0.0823159807724945
429 2.9705591126301636 -1.2840670546331143 1.7287110836215949 -3.7163532609229253 -1.5086112469796917 -0.08084778660106448
430 2.97018110188015 -1.283586089455552 1.727815019261587 -3.7154630315386368 -1.5074156212344967 -0.07938852632711438
431 2.969807385534725 -1.28310553413478 1.726915025992086 -3.7145630010246684 -1.5062285090534693 -0.07793821183643841
432 2.969437887442084 -1.282625385065037 1.7260111731828334 -3.7136532015276513 -1.5050498415400022 -0.07649685501483085
433 2.96907253145042 -1.2821456386405625 1.7251035302035702 -3.7127336651942136 -1.5038795497974873 -0.07506446774808591
434 2.968711241407929 -1.281666291255597 1.7241921664240385 -3.7118044241709884 -1.502717564929317 -0.07364106192199785
435 2.968353941162803 -1.281187339304378 1.7232771512139784 -3.7108655106046027 -1.5015638180388822 -0.07222664942236089
436 2.9680005545632384 -1.2807087791811471 1.7223585539431339 -3.7099169566416905 -1.5004182402295765 -0.0708212421349693
437 2.96765100545743 -1.2802306072801428 1.721436443981245 -3.708958794428881 -1.4992807626047915 -0.06942485194561734
438 2.9673052176935704 -1.2797528199956048 1.7205108906980537 -3.707991056112804 -1.4981513162679185 -0.06803749074009922
439 2.9669631151198548 -1.279275413721772 1.7195819634633014 -3.7070137738400892 -1.4970298323223505 -0.0666591704042092
440 2.9666246215844776 -1.2787983848528843 1.71864973164673 -3.7060269797573686 -1.495916241871479 -0.06528990282374153
441 2.9662896701300765 -1.2783217300618066 1.7177142568562012 -3.7050307176768893 -1.4948104794046553 -0.0639296996102866
442 2.9659582305770633 -1.2778454471359024 1.7167755696520612 -3.7040250780733652 -1.4937124929550645 -0.06257857127861949
443 2.965630281940293 -1.2773695341411617 1.7158336928327755 -3.7030101630871295 -1.4926222339418518 -0.061236528069311444
444 2.9653058032346205 -1.2768939891435733 1.714888649196809 -3.7019860748585134 -1.49153965378416 -0.05990358022293363
445 2.964984773474901 -1.2764188102091272 1.7139404615426292 -3.7009529155278487 -1.4904647039011347 -0.05857973798005735
446 2.96466717167599 -1.275943995403813 1.7129891526687018 -3.6999107872354697 -1.4893973357119206 -0.05726501158125381
447 2.964352976852742 -1.2754695427936185 1.7120347453734914 -3.698859792121705 -1.4883375006356603 -0.0559594112670942
448 2.9640421680200126 -1.2749954504445353 1.7110772624554653 -3.697800032326889 -1.4872851500914996 -0.05466294727814981
449 2.9637347241926566 -1.2745217164225504 1.7101167267130888 -3.696731609991352 -1.4862402354985822 -0.053375629854991814
450 2.9634306243855293 -1.2740483387936548 1.709153160944828 -3.695654627255428 -1.4852027082760526 -0.052097469238191474
451 2.963129847613485 -1.2735753156238379 1.708186587949149 -3.6945691862594465 -1.4841725198430549 -0.05082847566832001
452 2.962832372891381 -1.273102644979088 1.7072170305245178 -3.6934753891437424 -1.483149621618734 -0.04956865938594865
453 2.96253817923407 -1.2726303249253952 1.7062445114693998 -3.6923733380486445 -1.4821339650222338 -0.04831803063164863
454 2.962247245656408 -1.2721583535287488 1.7052690535822619 -3.691263135114488 -1.4811255014726987 -0.047076599645991174
455 2.96195955117325 -1.2716867288551377 1.7042906796615682 -3.690144882481601 -1.4801241823892728 -0.0458443766695475
456 2.9616750747994516 -1.271215448970552 1.7033094125057864 -3.68901868229032 -1.4791299591911007 -0.04462137194288885
457 2.961393795549868 -1.2707445119409808 1.7023252749133828 -3.6878846366809745 -1.4781427832973273 -0.043407595706586456
458 2.961115692439353 -1.270273915832413 1.701338289682821 -3.686742847793896 -1.4771626061270955 -0.042203058201211535
459 2.9608407444827627 -1.2698036587108386 1.7003484796125692 -3.685593417769417 -1.4761893790995506 -0.041007769667335325
460 2.960568930694952 -1.2693337386422465 1.6993558675010922 -3.6844364487478707 -1.475223053633837 -0.03982174034552905
461 2.9603002290372182 -1.2688641537354048 1.6983604781904031 -3.683272039569839 -1.4742635816047627 -0.03864497938556673
462 2.9600346132566235 -1.2683949022701955 1.697362344696699 -3.682100275876912 -1.4733109167097915 -0.037477491574033496
463 2.959772056046673 -1.267925982569279 1.696361502079726 -3.6809212400109304 -1.4723650131020516 -0.036319280606717304
464 2.959512530100871 -1.267457392955315 1.695357985399227 -3.6797350143137315 -1.4714258249346701 -0.03517035017940604
465 2.959256008112722 -1.266989131750965 1.6943518297149478 -3.6785416811271583 -1.470493306360775 -0.034030703987887684
466 2.959002462775732 -1.2665211972788892 1.6933430700866337 -3.677341322793052 -1.4695674115334953 -0.03290034572795015
467 2.958751866783403 -1.2660535878617472 1.6923317415740278 -3.6761340216532505 -1.468648094605957 -0.03177927909538134
468 2.9585041928292424 -1.2655863018222007 1.6913178792368753 -3.6749198600495956 -1.4677353097312893 -0.030667507785969224
469 2.958259413606752 -1.2651193374829086 1.6903015181349208 -3.6736989203239276 -1.4668290110626183 -0.029565035495501706
470 2.9580175018094392 -1.2646526931665323 1.689282693327909 -3.6724712848180863 -1.465929152753074 -0.028471865919766724
471 2.9577784301308063 -1.2641863671957323 1.688261439875585 -3.671237035873913 -1.4650356889557825 -0.0273880027545522
472 2.9575421712643606 -1.263720357893169 1.6872377928376932 -3.6699962558332473 -1.4641485738238726 -0.02631344969564609
473 2.957308697903604 -1.263254663581502 1.6862117872739775 -3.668749027037929 -1.4632677615104717 -0.02524821043883629
474 2.9570779827420424 -1.262789282583393 1.6851834582441836 -3.6674954318298005 -1.4623932061687075 -0.024192288679910755
475 2.9568499984731798 -1.2623242132215007 1.6841528408080546 -3.666235552550699 -1.4615248619517072 -0.023145688114657396
476 2.9566247177905214 -1.2618594538184873 1.6831199700253368 -3.664969471542468 -1.4606626830126002 -0.02210841243886416
477 2.9564021133875724 -1.2613950026970124 1.682084880955775 -3.6636972711469467 -1.4598066235045133 -0.021080465348318974
478 2.9561821579578362 -1.2609308581797363 1.6810476086591117 -3.662419033705975 -1.458956637580574 -0.020061850538809756
479 2.955964824194818 -1.2604670185893196 1.6800081881950932 -3.661134841561394 -1.4581126793939108 -0.019052571706124448
480 2.9557500847920224 -1.2600034822484227 1.6789666546234638 -3.659844777055043 -1.457274703097651 -0.018052632546050974
481 2.955537913573188 -1.2595402469802022 1.6779230409229606 -3.6585489215742104 -1.4564426642739656 -0.017062036025781564
482 2.955328288882989 -1.2590773086097953 1.6768773717482863 -3.657247352687969 -1.4556165242211963 -0.0160807821981256
483 2.955121190196333 -1.258614662462837 1.675829669673137 -3.6559401470108384 -1.4547962456667276 -0.015108870387296787
484 2.9549165969881273 -1.2581523038649607 1.6747799572712079 -3.6546273811573373 -1.4539817913379443 -0.0141462999175088
485 2.954714488733281 -1.2576902281418005 1.6737282571161953 -3.6533091317419877 -1.453173123962231 -0.013193070112975337
486 2.9545148449067034 -1.2572284306189911 1.6726745917817953 -3.651985475379309 -1.4523702062669728 -0.012249180297910082
487 2.9543176449832993 -1.2567669066221654 1.6716189838417013 -3.650656488683819 -1.4515730009795536 -0.011314629796526724
488 2.9541228684379788 -1.2563056514769584 1.6705614558696114 -3.6493222482700403 -1.4507814708273588 -0.010389417933038957
489 2.9539304947456495 -1.2558446605090032 1.6695020304392194 -3.64798283075249 -1.449995578537772 -0.00947354403166046
490 2.953740503381219 -1.2553839290439344 1.668440730124222 -3.646638312745691 -1.4492152868381791 -0.008567007416604927
491 2.9535528738195964 -1.254923452407386 1.6673775774983142 -3.645288770864161 -1.448440558455964 -0.007669807412086048
492 2.953367585535689 -1.254463225924992 1.6663125951351923 -3.6439342817224203 -1.4476713561185122 -0.006781943342317509
493 2.9531846180044035 -1.2540032449223857 1.665245805608551 -3.642574921934989 -1.4469076425532073 -0.0059034145315129995
494 2.9530039507006505 -1.2535435047252022 1.6641772314920869 -3.6412107681163874 -1.4461493804874344 -0.00503422030388621
495 2.952825563099335 -1.2530840006590744 1.6631068953594945 -3.6398418968811335 -1.4453965326485778 -0.004174359983650823
496 2.952649434675368 -1.252624728049637 1.6620348197844705 -3.6384683848437493 -1.444649061764023 -0.0033238328950205356
497 2.9524755449036557 -1.2521656822225242 1.66096102734071 -3.6370903086187543 -1.4439069305611545 -0.0024826383622090324
498 2.9523038732591065 -1.2517068585033695 1.6598855406019084 -3.635707744820667 -1.4431701017673562 -0.0016507757094299995
499 2.952134399216628 -1.251248252217807 1.6588083821417616 -3.6343207700640083 -1.4424385381100133 -0.0008282442608971291
500 2.951967102251129 -1.2507898586914707 1.657729574533965 -3.632929460963298 -1.4417122023165105 -1.5043340824109127e-05
501 2.9518019622223646 -1.2503316751603093 1.6566491452590977 -3.6315338989422266 -1.4409910586366144 0.0007888285270542149
502 2.95163896052948 -1.2498737065015306 1.6555671414252677 -3.6301341846611654 -1.4402750774096198 0.0015833760209183695
503 2.951478078956468 -1.249415959502657 1.6544836150474675 -3.6287304235896567 -1.4395642304972034 0.0023686046194277242
504 2.95131929928732 -1.24895844095121 1.653398618140688 -3.627322721197242 -1.4388584897610415 0.003144519801241646
505 2.9511626033060296 -1.2485011576347127 1.6523122027199213 -3.625911182953464 -1.438157827062811 0.003911127045019506
506 2.951007972796591 -1.2480441163406875 1.6512244208001596 -3.6244959143278654 -1.4374622142641895 0.004668431829420674
507 2.9508553895429928 -1.247587323856656 1.6501353243963937 -3.623077020789987 -1.4367716232268528 0.005416439633104515
508 2.9507048353292316 -1.2471307869701407 1.649044965523616 -3.621654607809372 -1.4360860258124777 0.006155155934730403
509 2.9505562919392974 -1.246674512468664 1.6479533961968178 -3.6202287808555615 -1.435405393882741 0.006884586212957703
510 2.950409741157184 -1.2462185071397482 1.6468606684309912 -3.6187996453981 -1.4347296992993197 0.007604735946445788
511 2.950265164766884 -1.2457627777709162 1.645766834241128 -3.6173673069065266 -1.43405891392389 0.008315610613854022
512 2.95012254455239 -1.2453073311496892 1.6446719456422196 -3.6159318708503863 -1.43339300961813 0.009017215693841781
513 2.9499818622976943 -1.2448521740635898 1.6435760546492577 -3.6144934426992186 -1.4327319582437144 0.009709556665068425
514 2.94984309978679 -1.2443973133001411 1.6424792132772341 -3.613052127922567 -1.4320757316623212 0.010392639006193334
515 2.9497062388036674 -1.2439427556468645 1.64138147354114 -3.611608031989973 -1.4314243017356265 0.011066468195875865
516 2.9495712611323226 -1.2434885078912825 1.6402828874559678 -3.610161260370979 -1.4307776403253076 0.011731049712775398
517 2.9494381485567476 -1.2430345768209181 1.6391835070367098 -3.6087119185351293 -1.4301357192930413 0.0123863890355513
518 2.949306882860932 -1.2425809692232923 1.6380833842983562 -3.607260111951962 -1.429498510500504 0.013032491642862932
519 2.9491774458288713 -1.2421276918859285 1.6369825712558999 -3.6058059460910226 -1.4288659858093722 0.013669363013369667
520 2.9490498192445576 -1.2416747515963484 1.6358811199243317 -3.604349526421851 -1.428238117081323 0.01429700862573088
521 2.9489239855667244 -1.241222147989538 1.6347790635646087 -3.6028909377257143 -1.427614875630627 0.014915434695791364
522 2.9487999299530756 -1.2407698520903376 1.6336763604215447 -3.601430182030765 -1.4269962305819308 0.015524650388137648
523 2.9486776382360556 -1.240317827771051 1.6325729499859185 -3.5999672406768837 -1.426382150512475 0.016124665604541684
524 2.948557096248107 -1.2398660389039808 1.631468771748508 -3.598502095003946 -1.4257726039994996 0.01671549024677542
525 2.948438289821677 -1.2394144493614319 1.6303637652000924 -3.5970347263518314 -1.4251675596202458 0.017297134216610825
526 2.9483212047892096 -1.2389630230157074 1.6292578698314513 -3.5955651160604187 -1.4245669859519543 0.01786960741581985
527 2.948205826983147 -1.238511723739111 1.628151025133361 -3.5940932454695838 -1.4239708515718643 0.01843291974617443
528 2.9480921422359367 -1.2380605154039463 1.6270431705966024 -3.592619095919205 -1.4233791250572179 0.01898708110944655
529 2.9479801363800213 -1.2376093618825168 1.6259342457119528 -3.591142648749161 -1.4227917749852543 0.019532101407408138
530 2.947869795247846 -1.2371582270471269 1.6248241899701912 -3.5896638852993297 -1.4222087699332149 0.020067990541831164
531 2.947761104671856 -1.2367070747700788 1.6237129428620967 -3.588182786909589 -1.4216300784783402 0.02059475841448758
532 2.947654050484495 -1.236255868923678 1.6226004438784476 -3.586699334919818 -1.4210556691978709 0.021112414927149343
533 2.947548618518207 -1.2358045733802265 1.6214866325100223 -3.5852135106698912 -1.4204855106690464 0.021620969981588398
534 2.9474447946054383 -1.235353152012029 1.6203714482476002 -3.5837252954996903 -1.4199195714691086 0.02212043347957671
535 2.9473425645786313 -1.2349015686913885 1.619254830581958 -3.58223467074909 -1.4193578201752968 0.022610815322886224
536 2.947241914270232 -1.234449787290609 1.618136719003877 -3.580741617757972 -1.4188002253648522 0.023092125413288905
537 2.947142829512686 -1.2339977716819948 1.6170170530041346 -3.579246117866212 -1.418246755615016 0.023564373652556706
538 2.947045296138435 -1.233545485737848 1.6158957720735088 -3.5777481524136876 -1.4176973795030272 0.024027569942461573
539 2.946949299979925 -1.2330928933304732 1.6147728157027794 -3.5762477027402775 -1.4171520656061272 0.024481724184775466
540 2.9468548268696004 -1.232639958332174 1.6136481233827242 -3.5747447501858596 -1.4166107825015566 0.024926846281270336
541 2.9467618626024534 -1.2321866720370651 1.612521705679919 -3.573239353211049 -1.416073505493108 0.025362947137417248
542 2.9466703928236675 -1.2317331354265046 1.6113938574641262 -3.571731878759403 -1.4155402367907821 0.025790041673483664
543 2.9465804031409704 -1.2312794769036626 1.6102649446809056 -3.5702227708952194 -1.4150109853311323 0.026208145813436147
544 2.9464918791620924 -1.2308258248717072 1.6091353332758158 -3.568712473682792 -1.4144857600507117 0.026617275481241254
545 2.9464048064947645 -1.230372307733809 1.6080053891944168 -3.5672014311864184 -1.413964569886073 0.02701744660086557
546 2.946319170746716 -1.2299190538931368 1.6068754783822679 -3.565690087470394 -1.4134474237737702 0.027408675096275658
547 2.9462349575256757 -1.22946619175286 1.6057459667849279 -3.564178886599013 -1.4129343306503552 0.02779097689143807
548 2.9461521524393746 -1.2290138497161482 1.6046172203479563 -3.5626682726365724 -1.4124252994523825 0.028164367910319385
549 2.9460707410955416 -1.2285621561861706 1.6034896050169127 -3.561158689647367 -1.4119203391164037 0.02852886407688616
550 2.945990709101907 -1.2281112395660967 1.6023634867373564 -3.559650581695694 -1.411419458578973 0.02888448131510497
551 2.945912042066201 -1.227661228259096 1.6012392314548467 -3.5581443928458474 -1.4109226667766435 0.029231235548942382
552 2.945834725596154 -1.2272122506683376 1.600117205114943 -3.556640567162124 -1.410429972645968 0.02956914270236496
553 2.9457587452994933 -1.2267644351969909 1.5989977736632046 -3.5551395487088184 -1.4099413851234992 0.029898218699339264
554 2.9456840867839515 -1.2263179102482256 1.5978813030451908 -3.5536417815502284 -1.409456913145791 0.03021847946383187
555 2.945610735657256 -1.2258728042252103 1.5967681592064609 -3.552147709750647 -1.4089765656493958 0.03052994091980933
556 2.9455386775271384 -1.2254292455311155 1.5956587080925742 -3.5506577773743713 -1.4085003515708672 0.03083261899123823
557 2.9454678980013287 -1.2249873625691103 1.5945533156490905 -3.5491724284856985 -1.4080282798467587 0.03112652960208512
558 2.945398382687555 -1.2245472837423632 1.5934523478215683 -3.547692107148921 -1.4075603594136223 0.03141168867631658
559 2.9453301171935484 -1.2241091374540445 1.5923561705555678 -3.546217257428337 -1.4070965992080118 0.03168811213789916
560 2.945263087127038 -1.2236730521073234 1.591265149796648 -3.544748323388241 -1.4066370081664805 0.03195581591079944
561 2.945197276273464 -1.2232391422048972 1.5901796031360658 -3.5432857016583053 -1.406181590640356 0.032214823851905466
562 2.9451326611290973 -1.222807466647576 1.5890996547478708 -3.5418295991297044 -1.405730332640066 0.03246519154979123
563 2.9450692163679224 -1.2223780704356975 1.5880253804518094 -3.540380175258989 -1.4052832155908124 0.03270698252595221
564 2.945006916663919 -1.2219509985696 1.586956856067628 -3.538937589502709 -1.404840220917797 0.03294026030188388
565 2.9449457366910696 -1.221526296049621 1.5858941574150742 -3.537502001317417 -1.4044013300462228 0.03316508839908172
566 2.9448856511233585 -1.221104007876099 1.5848373603138948 -3.5360735701596626 -1.4039665244012924 0.03338153033904121
567 2.9448266346347647 -1.2206841790493717 1.5837865405838356 -3.534652455485996 -1.4035357854082067 0.03358964964325782
568 2.944768661899272 -1.2202668545697772 1.5827417740446443 -3.5332388167529682 -1.403109094492169 0.033789509833227024
569 2.9447117075908618 -1.2198520794376535 1.5817031365160672 -3.5318328134171293 -1.4026864330783806 0.033981174430444315
570 2.9446557463835163 -1.2194398986533383 1.5806707038178516 -3.530434604935031 -1.4022677825920447 0.03416470695640516
571 2.9446007529512177 -1.2190303572171697 1.579644551769744 -3.529044350763224 -1.4018531244583625 0.03434017093260503
572 2.944546701967948 -1.218623500129486 1.5786247561914912 -3.5276622103582587 -1.4014424401025374 0.03450762988053942
573 2.9444935681076885 -1.218219372390625 1.57761139290284 -3.526288343176685 -1.4010357109497706 0.03466714732170378
574 2.944441326044423 -1.2178180190009247 1.5766045377235376 -3.524922908675055 -1.400632918425265 0.034818786777593605
575 2.9443899504521305 -1.2174194849607227 1.5756042664733296 -3.5235660663099173 -1.400234043954222 0.03496261176970436
576 2.9443394160047953 -1.2170238152703572 1.5746106549719645 -3.5222179755378242 -1.3998390689618452 0.03509868581953154
577 2.9442896973764006 -1.2166310549301669 1.573623779039188 -3.5208787958153276 -1.3994479748733355 0.03522707244857062
578 2.9442407692409254 -1.2162412489404886 1.5726437144947472 -3.519548686598975 -1.3990607431138955 0.03534783517831706
579 2.944192606272354 -1.2158544423016608 1.5716705371583886 -3.518227807345319 -1.398677355108728 0.035461037530266346
580 2.9441451831446663 -1.2154706800140218 1.5707043228498594 -3.5169163175109106 -1.3982977922830342 0.035566743025913956
581 2.9440984773291934 -1.215089992640865 1.5697451229594732 -3.515614335930496 -1.3979220331131008 0.035665013852676265
582 2.944052477486647 -1.2147123529973083 1.568792891159811 -3.5143218189516103 -1.3975500442795479 0.035755906861653246
583 2.9440071750750874 -1.2143377194614255 1.567847556694021 -3.5130386822999844 -1.3971817895140795 0.03583947756986578
584 2.9439625615525733 -1.2139660504112895 1.5669090488052508 -3.511764841701348 -1.396817232548399 0.03591578149433471
585 2.9439186283771672 -1.2135973042249748 1.5659772967366492 -3.510500212881433 -1.3964563371142114 0.03598487415208093
586 2.943875367006928 -1.2132314392805545 1.5650522297313638 -3.5092447115659717 -1.3960990669432207 0.036046811060125326
587 2.9438327688999144 -1.2128684139561021 1.5641337770325423 -3.507998253480692 -1.3957453857671298 0.03610164773548873
588 2.943790825514187 -1.2125081866296916 1.5632218678833334 -3.506760754351326 -1.3953952573176438 0.036149439695192055
589 2.943749528307806 -1.2121507156793963 1.562316431526884 -3.5055321299036057 -1.3950486453264659 0.03619024245625613
590 2.943708868738831 -1.2117959594832894 1.5614173972063436 -3.5043122958632615 -1.3947055135253004 0.036224111535701854
591 2.943668838265323 -1.211443876419445 1.5605246941648592 -3.5031011679560233 -1.3943658256458518 0.036251102450550084
592 2.9436294283453406 -1.2110944248659372 1.5596382516455793 -3.501898661907623 -1.3940295454198235 0.036271270717821706
593 2.9435906304369435 -1.2107475632008387 1.5587579988916516 -3.500704693443791 -1.3936966365789194 0.036284671854537584
594 2.943552435998193 -1.2104032498022235 1.5578838651462243 -3.4995191782902597 -1.3933670628548438 0.036291361377718594
595 2.9435148364871466 -1.2100614430481647 1.5570157796524449 -3.4983420321727565 -1.3930407879793003 0.03629139480438559
596 2.943477823361867 -1.2097221013167365 1.556153671653462 -3.4971731708170157 -1.3927177756839935 0.036284827651559465
597 2.943441388080413 -1.209385182986013 1.5552974703924243 -3.496012509948768 -1.3923979897006278 0.036271715436261086
598 2.9434055221008437 -1.209050646434066 1.5544471051124784 -3.494859965293742 -1.3920813937609056 0.03625211367551131
599 2.9433702168812204 -1.2087184500389707 1.5536025050567732 -3.4937154525776704 -1.391767951596532 0.03622607788633102
600 2.9433354638796017 -1.2083885521788003 1.5527635994684565 -3.4925788875262835 -1.3914576269392112 0.036193663585741095
601 2.9433012548787705 -1.2080609158652809 1.5519303261102932 -3.491450198880468 -1.3911503855093919 0.036154925314928005
602 2.943267582960397 -1.2077355226447493 1.5511026568235173 -3.49032936744173 -1.390846200982506 0.036109913711740736
603 2.943234441530873 -1.2074123586971954 1.550280571968979 -3.489216387026729 -1.3905450490227298 0.03605867843819385
604 2.9432018239965907 -1.207091410202608 1.5494640519075287 -3.4881112514521275 -1.3902469052942394 0.03600126915630193
605 2.9431697237639436 -1.2067726633409774 1.548653077000017 -3.4870139545345875 -1.3899517454612127 0.035937735528079565
606 2.9431381342393244 -1.206456104292293 1.5478476276072952 -3.485924490090769 -1.3896595451878258 0.03586812721554134
607 2.9431070488291224 -1.2061417192365438 1.547047684090213 -3.4848428519373327 -1.3893702801382548 0.035792493880701826
608 2.943076460939734 -1.2058294943537198 1.5462532268096214 -3.4837690338909413 -1.389083925976677 0.03571088518557562
609 2.9430463639775484 -1.2055194158238103 1.5454642361263704 -3.4827030297682544 -1.3888004583672686 0.035623350792177266
610 2.943016751348959 -1.205211469826805 1.5446806924013112 -3.4816448333859347 -1.3885198529742069 0.0355299403625214
611 2.9429876164603592 -1.2049056425426934 1.5439025759952942 -3.4805944385606424 -1.388242085461668 0.03543070355862255
612 2.942958952718141 -1.2046019201514653 1.5431298672691705 -3.479551839109039 -1.3879671314938289 0.03532569004249535
613 2.9429307535286946 -1.2043002888331091 1.542362546583789 -3.478517028847786 -1.3876949667348655 0.03521494947615433
614 2.942903012298416 -1.2040007347676158 1.541600594300002 -3.477490001593545 -1.387425566848956 0.035098531521614115
615 2.942875722433693 -1.203703244134974 1.5408439907786589 -3.4764707511629744 -1.3871589075002748 0.03497648584088924
616 2.942848877340923 -1.2034078031151736 1.540092716380611 -3.475459271372739 -1.3868949643530006 0.03484886209599433
617 2.9428224704264956 -1.2031143978882044 1.539346751466709 -3.4744555560394987 -1.3866337130713098 0.03471570994894396
618 2.942796495096803 -1.2028230146340548 1.5386060763978024 -3.473459598979913 -1.3863751293193776 0.03457707906175268
619 2.942770944758238 -1.2025336395327153 1.5378706715347432 -3.4724713940106455 -1.386119188761382 0.034433019096435105
620 2.9427458128171935 -1.2022462587641756 1.5371405172383805 -3.4714909349483563 -1.3858658670614994 0.0342835797150058
621 2.9427210930269734 -1.2019608578746983 1.5364155927163936 -3.4705182134515242 -1.385615140437842 0.03412880994211362
622 2.942696780528534 -1.2016774198756424 1.535695872563772 -3.469553212545897 -1.3853669873242695 0.033968756252944446
623 2.9426728708097434 -1.2013959271446408 1.5349813302223325 -3.4685959130990414 -1.3851213867085752 0.033803464485318443
624 2.9426493593584677 -1.201116362059325 1.5342719391338921 -3.4676462959785215 -1.3848783175785546 0.03363298047705577
625 2.9426262416625772 -1.2008387069973283 1.5335676727402683 -3.4667043420519033 -1.3846377589220016 0.033457350065976596
626 2.942603513209939 -1.200562944336283 1.5328685044832793 -3.4657700321867533 -1.384399689726712 0.03327661908990107
627 2.94258116948842 -1.2002890564538211 1.5321744078047403 -3.464843347250635 -1.3841640889804785 0.033090833386649345
628 2.942559205985889 -1.200017025727576 1.53148535614647 -3.4639242681111164 -1.3839309356710972 0.03290003879404159
629 2.942537618190214 -1.1997468345351794 1.5308013229502853 -3.463012775635761 -1.3837002087863621 0.032704281149897964
630 2.9425164015892618 -1.1994784652542636 1.5301222816580027 -3.4621088506921347 -1.3834718873140683 0.03250360629203862
631 2.942495551670902 -1.199211900262462 1.5294482057114405 -3.4612124741478043 -1.3832459502420098 0.03229806005828371
632 2.942475063923002 -1.1989471219374064 1.5287790685524156 -3.460323626870335 -1.3830223765579817 0.03208768828645342
633 2.942454933833429 -1.1986841126567291 1.5281148436227447 -3.459442289727291 -1.3828011452497782 0.03187253681436787
634 2.9424351568900513 -1.1984228547980633 1.5274555043642455 -3.458568443586239 -1.3825822353051942 0.031652651479847256
635 2.942415728580737 -1.1981633307390407 1.5268010242187349 -3.4577020693147436 -1.382365625712024 0.03142807812071171
636 2.942396644393354 -1.1979055228572946 1.5261513766280306 -3.456843147780372 -1.3821512954580626 0.031198862574781404
637 2.942377899815771 -1.197649413530457 1.5255065350339498 -3.4559916598506892 -1.381939223531105 0.0309650506798765
638 2.9423594903358534 -1.19739498513616 1.5248664728783088 -3.455147586393259 -1.3817293889189444 0.03072668827381714
639 2.9423414114414723 -1.197142220052037 1.5242311636029262 -3.45431090827565 -1.381521770609377 0.030483821194423506
640 2.942323658620493 -1.1968911006557195 1.5236005806496178 -3.4534816063654246 -1.381316347590196 0.030236495279515736
641 2.942306227513848 -1.1966416100093806 1.5229746986058097 -3.452659662895154 -1.3811130994952499 0.029984755916855028
642 2.942289114374725 -1.1963937339133541 1.5223534966413588 -3.4518450655574258 -1.3809120085426008 0.02972864669396673
643 2.9422723156093733 -1.196147458852514 1.5217369550717292 -3.451037803409832 -1.3807130575963629 0.029468210748317198
644 2.9422558276240443 -1.1959027713117345 1.5211250542123878 -3.4502378655099637 -1.380516229520652 0.029203491217372823
645 2.942239646824987 -1.195659657775889 1.5205177743787979 -3.4494452409154124 -1.3803215071795818 0.028934531238599962
646 2.942223769618453 -1.195418104729851 1.5199150958864247 -3.4486599186837696 -1.3801288734372676 0.028661373949464986
647 2.9422081924106926 -1.1951780986584957 1.5193169990507331 -3.4478818878726276 -1.3799383111578243 0.028384062487434265
648 2.9421929116079557 -1.1949396260466962 1.518723464187189 -3.447111137539578 -1.3797498032053674 0.028102639989974188
649 2.9421779236164936 -1.194702673379327 1.5181344716112568 -3.446347656742212 -1.379563332444011 0.027817149594551106
650 2.9421632248425547 -1.1944672271412606 1.5175500016384011 -3.44559143453812 -1.3793788817378703 0.02752763443863139
651 2.9421488116923924 -1.1942332738173729 1.5169700345840873 -3.444842459984896 -1.3791964339510603 0.027234137659681433
652 2.942134680572255 -1.1940007998925368 1.5163945507637806 -3.4441007221401314 -1.3790159719476958 0.026936702395167593
653 2.9421208278883935 -1.1937697918516263 1.5158235304929455 -3.4433662100614164 -1.3788374785918915 0.026635371782556237
654 2.9421072500470578 -1.1935402361795153 1.515256954087047 -3.442638912806343 -1.3786609367477627 0.026330188959313744
655 2.9420939434544993 -1.193312119361078 1.5146948018615503 -3.4419188194325026 -1.3784863292794236 0.026021197062906475
656 2.9420809045169682 -1.1930854278811882 1.5141370541319206 -3.4412059189974884 -1.3783136390509898 0.025708439230800822
657 2.942068129640715 -1.1928601482247199 1.513583691213622 -3.440500200558891 -1.3781428489265761 0.025391958600463137
658 2.9420556152319888 -1.1926362668765467 1.5130346934221204 -3.4398016531743014 -1.377973941770297 0.025071798309359798
659 2.9420433576970417 -1.1924137703215427 1.51249004107288 -3.4391102659013124 -1.3778069004462679 0.024748001494957178
660 2.942031353442123 -1.1921926450445826 1.5119497144813667 -3.438426027797516 -1.3776417078186032 0.024420611294721648
661 2.9420195988734843 -1.1919728775305392 1.5114136939630447 -3.437748927920502 -1.377478346751418 0.024089670846119578
