lar-deeufba/potential_fields_with_aruco/src/custom_codes/csv_files/csv_to_eps/csv_files/joint_AAPF_OriON.csv
Index Joint1 Joint2 Joint3 Joint4 Joint5 Joint6
0 3.14 -1.5707 0.0 -1.5707 -1.5707 -1.5707
1 3.139318617769042 -1.5696891801148605 0.018497592588071234 -1.5718189439270047 -1.5738378559823738 -1.5734920863090822
2 3.138634249794504 -1.568676504933534 0.03709521985758858 -1.5729282991029243 -1.5623894659562794 -1.5621314082001756
3 3.137925468594362 -1.56766264730936 0.05577052335247455 -1.5740940359594893 -1.5663517008926842 -1.5654755112341687
4 3.1372145273992604 -1.5666470301148427 0.07453606003219207 -1.5752896680655788 -1.570780356761091 -1.5691176274646361
5 3.136502079539373 -1.5656296984732418 0.09338926011427603 -1.5765150595734556 -1.5755264653547756 -1.572902067141491
6 3.1357885795779223 -1.5646107053638374 0.11233787637998413 -1.577685244191834 -1.5622189910104638 -1.5615710912077205
7 3.1350461163662415 -1.5635909466002287 0.13134191222846794 -1.5789683444548146 -1.5670760160030448 -1.5651555730963427
8 3.134302380915517 -1.5625696627104024 0.15042363616777352 -1.580285614954879 -1.5721739375282122 -1.568791911523641
9 3.1335577391382463 -1.5615469142003877 0.16957950472083172 -1.581638143299793 -1.5774926650496508 -1.5724539928979528
10 3.1328125433200937 -1.5605227641436452 0.18882366117281313 -1.5828839031035156 -1.5624573949156126 -1.561525508565371
11 3.132033455793282 -1.5594983188239484 0.20809684352456395 -1.5843064711837025 -1.5679724689364363 -1.565031544715921
12 3.131253691189633 -1.5584726187142504 0.22743202238661261 -1.5857694890965992 -1.573696190763071 -1.568535523372528
13 3.1304736154379147 -1.5574457324172373 0.2468248159148844 -1.5872744513435462 -1.5796233045333026 -1.5720255465066515
14 3.1296936067214274 -1.5564177307799856 0.2662970191681163 -1.5886116278396982 -1.5811649442497357 -1.5570512425035177
15 3.128905979597625 -1.5553889519997501 0.28578579842657775 -1.5902020753943003 -1.58723726029409 -1.5603411689632625
16 3.1281186567555976 -1.5543592218241407 0.30531718923381135 -1.5918405506219233 -1.5935165882348943 -1.563602601240225
17 3.1273320768265154 -1.553328617748487 0.32488582898851887 -1.5935288503872567 -1.6000022533535996 -1.5668272784494877
18 3.126546704886373 -1.5522972200026721 0.34452241932598815 -1.5949780900672186 -1.6002884826866588 -1.5506689418213222
19 3.125750888039536 -1.551265504232268 0.3641407121029195 -1.5967682027858647 -1.606963010544373 -1.5536957791868735
20 3.124956675083807 -1.5502331792881632 0.38377805334516435 -1.5986151015708825 -1.6138522360004433 -1.5566732479069871
21 3.124164623301832 -1.5492003346319967 0.4034727598926012 -1.6001619503325797 -1.6130252617221545 -1.5395653272042835
22 3.1233593799002133 -1.5481675775936343 0.4231183150768358 -1.6021238908310267 -1.6201364613974492 -1.5423449705452679
23 3.12255683497278 -1.5471345071963698 0.4427618401371047 -1.60415034473891 -1.6274728602624415 -1.5450625362123136
24 3.121757666072951 -1.5461012254045456 0.4624502386933373 -1.6058075436563313 -1.6254238697429584 -1.526976177409434
25 3.120942038858139 -1.5450685028135243 0.48205372072875563 -1.607963680848238 -1.6330140143155623 -1.5294915664498385
26 3.120130499224357 -1.5440358051844558 0.5016307186620677 -1.610192916982191 -1.6408419289741645 -1.5319319239382885
27 3.1193238803343855 -1.5430032517234633 0.5211723840722465 -1.6124978783554533 -1.6489117305768013 -1.5342907784544193
28 3.1185230849501266 -1.5419709690721188 0.5407388684981848 -1.6143255776489427 -1.645107797081672 -1.5148638524593332
29 3.1177007711018776 -1.5409399987606214 0.5601637362428522 -1.616782878189414 -1.6534728026740113 -1.5170064507538719
30 3.1168853180200866 -1.5399095933440408 0.5795234573912653 -1.6193257044861773 -1.6620951037725824 -1.5190543504987704
31 3.1160778462330723 -1.5388799059063685 0.5988897234032933 -1.6212971774659062 -1.6567546159302524 -1.4985600054160952
32 3.1152439444495754 -1.5378522505783805 0.6180634716418894 -1.624010377461173 -1.6657048738401337 -1.5003827324986156
33 3.114419370239601 -1.5368256682334402 0.6371376185377876 -1.626819842517877 -1.6749292517402057 -1.5020972885260129
34 3.1136055181551967 -1.5358003472498662 0.6561971286587057 -1.6289497558706567 -1.6678959724207552 -1.4804974857979476
35 3.1127593855775553 -1.5347779443350718 0.6750049164433842 -1.6319487503781398 -1.6774805513340048 -1.481977519584787
36 3.111925712025003 -1.5337572360453782 0.6936736576715937 -1.6350555907336701 -1.6873568317059957 -1.4833359632035508
37 3.1111062295540854 -1.5327384556933308 0.7123036939811406 -1.6373583403696284 -1.6784650180083562 -1.4605957103429608
38 3.110247535056114 -1.5317236883364151 0.7306136638559412 -1.640674395188847 -1.6887316131835037 -1.461711234348999
39 3.1094052519782984 -1.5307113762855822 0.7487402407122925 -1.6441104633411463 -1.6993071277412484 -1.4626923951807977
40 3.1085815142133524 -1.5297018058778489 0.7668017107907255 -1.6465993306136484 -1.6883880923981802 -1.438784634434085
41 3.1077104260967667 -1.528697591762113 0.7844654042862931 -1.650263786660128 -1.6993791493932044 -1.439517277147465
42 3.1068606796709957 -1.5276967479817782 0.8018973800499689 -1.6540605402069744 -1.7106942900566717 -1.4401043518363472
43 3.1060348627973675 -1.5266996160814776 0.8192369877997004 -1.6567464824062583 -1.6975870259517158 -1.4150162226635945
44 3.105152266993589 -1.5257094534211078 0.8360926715921774 -1.6607886941891616 -1.709334124874291 -1.4153543912569893
45 3.1042970431077697 -1.5247237198427432 0.8526665748320422 -1.6649748930018573 -1.72141617521192 -1.4155386161139678
46 3.1034722520304383 -1.5237428021728379 0.8689425017262379 -1.6693074347924173 -1.7338364076977189 -1.4155648581979676
47 3.1026811001073376 -1.5227671014396835 0.8850934810231924 -1.672277638948837 -1.7177061263640503 -1.3889401607680354
48 3.1018194053041523 -1.5218007835298313 0.9006390227519049 -1.6768748109266798 -1.730562738477688 -1.3887255110887304
49 3.098061685499303 -1.5208179774866735 0.9159890019976268 -1.681672341161412 -1.7461269881215997 -1.3883505507610023
50 3.0947249535200885 -1.5198415957844056 0.9312126400095757 -1.684810412758146 -1.7295607270123179 -1.3606075345284296
51 3.0912336132394493 -1.5188734877634742 0.94573838343719 -1.6899617432788436 -1.74527489768824 -1.3600024154616652
52 3.088156015595306 -1.5178931729547194 0.9598867907145353 -1.6953154844114848 -1.7610079015623066 -1.3592344874443942
53 3.085487221204573 -1.5169207877438673 0.9739365384968997 -1.6984193795108509 -1.7413136828626226 -1.3304651854999294
54 3.082599181010649 -1.5159430247426822 0.9871530457041876 -1.7041181567960735 -1.75723799575441 -1.3295036716752318
55 3.0801229161234103 -1.5149771554212401 0.9999463307317855 -1.7100130926057517 -1.7731824973466372 -1.3283898332717634
56 3.0780430478232996 -1.5140244673238743 1.0126863048997534 -1.7130992896640866 -1.7505257682691415 -1.298708386794515
57 3.0756531293689546 -1.5130844211030672 1.0244676986021561 -1.7193127773613424 -1.7666870885380124 -1.2974522231747834
58 3.073664860755383 -1.5121587613074063 1.0358244145001736 -1.7257137045303623 -1.7828550950378845 -1.2960615649258351
59 3.0720614824126447 -1.511248056846716 1.0471994054006595 -1.7287901434209176 -1.7574850712233776 -1.2655851633682327
60 3.0700783852429283 -1.5103516433262394 1.0575257780295153 -1.7354765159581833 -1.773858554769694 -1.2641153950445745
61 3.068487766857553 -1.5094702015150476 1.0674538083621108 -1.7423394058228792 -1.7902151247013418 -1.2625334192907778
62 3.067271701961917 -1.5086037596209763 1.0769966530828603 -1.7493672513826755 -1.8065568405286196 -1.2608446233686315
63 3.0663959836927583 -1.5077544938528438 1.086664093651252 -1.7524862334905722 -1.7781311901928558 -1.2295745332678742
64 3.065069972706355 -1.5069170521881385 1.0952210113381657 -1.7597516255963035 -1.7946658241910647 -1.2278932537809426
65 3.0640967257663103 -1.506097282905709 1.103431129708126 -1.7671759981054587 -1.8111609946287721 -1.226129091527352
66 3.0634746945229114 -1.505290171863961 1.1113307400178007 -1.7747436075139034 -1.82761093675303 -1.2242874500617087
67 3.063185821793492 -1.5044952861887084 1.1194996638119779 -1.7779632729245889 -1.7967140906879446 -1.1923506822122432
68 3.0623587812513247 -1.5037157507689505 1.1265060890907794 -1.785723590467528 -1.8133326790911504 -1.1906024388368988
69 3.0618806763728035 -1.5029468993678927 1.1332692650212564 -1.7936200780634322 -1.82987457254537 -1.188798267475005
70 3.06173255600038 -1.5021882388971708 1.1398088668621038 -1.8016418554204279 -1.8463432981553662 -1.186941675939412
71 3.06189615236335 -1.5014392067231248 1.1461442314599608 -1.8097787013285698 -1.8627427265844259 -1.1850359039054499
72 3.062353896098282 -1.5006991905954596 1.1528900782374827 -1.8132534115394163 -1.8296158555892295 -1.1524461193053412
73 3.0622006653865426 -1.4999723046789026 1.1584637115621437 -1.8215442891944247 -1.8461813965913134 -1.1507230762431404
74 3.06236290248378 -1.4992527504620015 1.1639010688572258 -1.8299485996179599 -1.8626466697465787 -1.1489668506089457
75 3.062822046764813 -1.4985400114808236 1.1692178794196908 -1.838456983248641 -1.879017384160661 -1.1471787695620543
76 3.0635603467787065 -1.4978335441659172 1.1744289157068841 -1.847060791777503 -1.8952995416975482 -1.1453599210042291
77 3.0645608532914066 -1.4971327894829916 1.1801509586370464 -1.8509279627473236 -1.8605678300797128 -1.112047112073137
78 3.064898216454304 -1.4964432722302636 1.184717501892864 -1.8596618199972306 -1.877010502578863 -1.11048588555589
79 3.0655235637084712 -1.4957578914016783 1.1892386257687997 -1.8684938705368834 -1.8933334561479669 -1.1089042539379097
80 3.0664187721131007 -1.4950762472059926 1.1937240562978553 -1.8774159983721896 -1.9095441019916404 -1.1073016164391196
81 3.0675666052401644 -1.4943979256045565 1.1981826015463273 -1.8864207703787703 -1.9256499690479132 -1.1056772666617727
82 3.0689506912011124 -1.4937225060370896 1.2026221911207327 -1.8955013778966316 -1.9416586141668104 -1.104030402276496
83 3.0705554966933226 -1.4930495677842057 1.2076275547925601 -1.900030526976858 -1.9057402086816326 -1.0698487092105764
84 3.071453325813695 -1.491833907643048 1.2271958747577139 -1.907397706205154 -1.921353304821998 -1.0685279513839208
85 3.072590817070535 -1.4907792673439888 1.2422214293868155 -1.9153679396940406 -1.9373655159587146 -1.066934515980549
86 3.073949237812141 -1.4898252901953395 1.2541054686145099 -1.9237511058925127 -1.953605135584639 -1.065141676320909
87 3.0755315099396876 -1.4889503698857867 1.264347713685499 -1.9279316397596462 -1.9147285508737122 -1.0306733541159574
88 3.0763502452907088 -1.488192966037741 1.2701413448394303 -1.936964938195488 -1.9315719192751661 -1.0290478145699675
89 3.0774357769297374 -1.4874526490518296 1.2754994414853449 -1.9461330580236822 -1.94831522139072 -1.0273710938637248
90 3.0787705412782347 -1.4867239419883467 1.280577384734847 -1.9554139331423066 -1.9649551757438644 -1.0256487534669942
91 3.080337684170486 -1.4860029666500043 1.2854830438571183 -1.9647907066851693 -1.9814921671808166 -1.0238838197011828
92 3.0821211121467487 -1.4852869671820184 1.2902909466995296 -1.974250234681584 -1.9979290098879006 -1.022077598989509
93 3.0841055155703794 -1.4845739748259488 1.2950522478029183 -1.9837820541746392 -2.0142700866694367 -1.0202302422670553
94 3.0862763718763078 -1.4838625724113255 1.3002911036671565 -1.989462773316457 -1.9744736328444383 -0.9851995050266001
95 3.0876525951065106 -1.4832330652615526 1.3024381816460024 -1.9993101440272012 -1.9910748198378725 -0.9837720942200515
96 3.089255977956843 -1.48257878639726 1.3053304881495302 -2.009174423540404 -2.0074730755812187 -0.9823368031195759
97 3.091068435043857 -1.4819066673952601 1.3087665693424524 -2.0190657017187505 -2.023693639554309 -0.9808804781259496
98 3.0930732925527114 -1.4812215606477677 1.3126032266205545 -2.0289901996342024 -2.0397575516088144 -0.9793933585964447
99 3.095255128498666 -1.4805268482665255 1.3167386058156614 -2.0389513101601784 -2.055682246818822 -0.9778680813961019
100 3.097599636143265 -1.4798248754204222 1.3211001137720282 -2.048950410361037 -2.0714821613065153 -0.9762989762202208
101 3.100093508494568 -1.4791172578039524 1.3256358286264687 -2.0589874695780845 -2.0871692616073783 -0.9746815689768924
102 3.102724340529374 -1.478405099383754 1.330308414649598 -2.069061491961722 -2.102753475668452 -0.9730122324823501
103 3.105480545796002 -1.4776891464265465 1.3350908211230827 -2.0791708320704503 -2.118243030937308 -0.9712879409078699
104 3.1083512845317975 -1.4769698963841058 1.3399632464612439 -2.089313416481643 -2.133644714375532 -0.969506097133683
105 3.1113264009950115 -1.4762476748438746 1.3451977789672362 -2.0971926412415938 -2.094271588046509 -0.9333200843490405
106 3.113502845602471 -1.4756020216376748 1.347462665333584 -2.10769996778065 -2.1098890995973973 -0.932023343769961
107 3.1158283652201306 -1.474926892157821 1.3505717330742153 -2.1181849095668137 -2.125271745525645 -0.9306906666130594
108 3.1182882791832864 -1.4742307379991921 1.3542789379469233 -2.1286637399627635 -2.140452449324061 -0.9293099562671983
109 3.120878624289281 -1.4735289076414784 1.358389285434155 -2.1391515077969774 -2.1554546959356506 -0.9278726482686128
110 3.123577603306616 -1.472815719039994 1.362813267311497 -2.149649715487101 -2.1702975586800615 -0.9263730776072154
111 3.126374240314034 -1.4720941134241068 1.3674628234181723 -2.160162567726307 -2.184995030079367 -0.9248066278278462
112 3.129258434448913 -1.4713661263510054 1.3722758407222706 -2.1706921521403917 -2.1995571264714724 -0.9231698507891809
113 3.132220840843493 -1.4706331673343827 1.3772082616179753 -2.1812390836756017 -2.2139907709038877 -0.9214601009740732
114 3.1352527765078477 -1.469896214602662 1.3822285766179727 -2.191802968318078 -2.22830045670696 -0.9196752874569241
115 3.1383461448390473 -1.4691559506052299 1.387313987384087 -2.2023827324841276 -2.2424887391000614 -0.917813706062903
116 3.1414933740556816 -1.4684128562173036 1.3924477362672192 -2.212976855093061 -2.25655659669758 -0.9158739262170992
117 3.1446873661121884 -1.467667276184025 1.3976172488302807 -2.223583530340298 -2.2705036966282983 -0.9138547151280693
118 3.1479214535845843 -1.4669194645478387 1.4028128422134354 -2.234200781712044 -2.2843285891244696 -0.9117549874876606
119 3.151189362704106 -1.4661696161482625 1.408026827008318 -2.244826541992822 -2.2980288508556397 -0.9095737726324509
120 3.154485181209565 -1.4654178884308873 1.413252882678091 -2.2554587097076992 -2.311601191127144 -0.9073101936713132
121 3.1578033300433286 -1.4646644165122271 1.41848562311184 -2.2660951893107275 -2.3250415311758696 -0.904963454825339
122 3.1611385381685864 -1.463909323549289 1.4237202943593947 -2.276733920192891 -2.338345063934564 -0.9025328344131157
123 3.1644858199657873 -1.4631527278385188 1.4289525642978855 -2.2873728979994246 -2.3515062995662657 -0.9000176817242792
124 3.167840454794926 -1.4623947476349024 1.4341783762832283 -2.2980101906343675 -2.3645191005952273 -0.8974174165783202
125 3.1711979684028235 -1.4616355043804823 1.4393938473826484 -2.3086439505533645 -2.3773767094253713 -0.8947315307459827
126 3.1745541159215453 -1.460875124821943 1.444595197715915 -2.3192724244048697 -2.390071770325142 -0.8919595906731118
127 3.1779035070743893 -1.4601252100307425 1.449754389342898 -2.3298978977665517 -2.402598868664636 -0.889101241129426
128 3.1812437780827434 -1.4593740563408797 1.4549022332458101 -2.340513717812017 -2.414944411024481 -0.8861564746671349
129 3.184571246437004 -1.4586219262614752 1.4600319029394182 -2.351118745459896 -2.427099978028523 -0.8831250479252803
130 3.1878824146619937 -1.4578690563468661 1.465137498200192 -2.3617118700432593 -2.4390564354512447 -0.8800068329241584
131 3.1911739554881495 -1.4571156674151589 1.4702137491067555 -2.3722920386276463 -2.450804000651819 -0.8768018150697564
132 3.194442698806527 -1.456361971506443 1.4752558114297294 -2.3828582759265653 -2.462332295548177 -0.8735100940903251
133 3.197685620037178 -1.455608176569115 1.4802591257313837 -2.393409697246257 -2.47363039181884 -0.8701318870894456
134 3.2008998296463913 -1.4548544895581075 1.485219321066477 -2.403945516094576 -2.4846868528520285 -0.8666675332008092
135 3.204082563625866 -1.4541011184171235 1.4901321501001452 -2.414465047534965 -2.495489776188435 -0.8631174995337215
136 3.2072311748049476 -1.4533482732696583 1.4949934465767378 -2.4249677079841665 -2.5060268397011525 -0.8594823882347645
137 3.2103431249116285 -1.45259616704095 1.4997990989386463 -2.4354530118922324 -2.516285354425539 -0.8557629445792646
138 3.2134159773331636 -1.451845015661358 1.5045450358888286 -2.445920565571862 -2.526252326712741 -0.8519600660580965
139 3.216447390555635 -1.4510950379516594 1.5092272210781374 -2.45637005833894 -2.5359145321631256 -0.8480748124477414
140 3.2194351122851645 -1.4503464552559069 1.5138416550591498 -2.4668012510730475 -2.5452586035361566 -0.8441084168477475
141 3.2223769742725783 -1.44959949086347 1.5183843833047657 -2.4772139622967786 -2.5542711344717675 -0.8400622976409137
142 3.2252708878783314 -1.4488543692456917 1.5228515095251325 -2.487608051900525 -2.562938800340791 -0.8359380712775304
143 3.22811484042504 -1.448111315122325 1.5272392137856052 -2.4979834027011676 -2.5712484968232525 -0.8317375657056478
144 3.230906892390365 -1.4473705523672822 1.5315437750680123 -2.508339900115227 -2.579187495863888 -0.8274628341654168
145 3.233645175492245 -1.4466323027614045 1.5357615979520753 -2.518677410344512 -2.586743617469403 -0.8231161689401417
146 3.2363278917106184 -1.4458967846013795 1.5398892430414373 -2.5289957576075084 -2.5939063652454113 -0.8186996821877304
147 3.2389533231676406 -1.445164209167425 1.5439235136735674 -2.5392946923038857 -2.6006679119936935 -0.8142149771243026
148 3.241519850348628 -1.44443477594095 1.5478615740004853 -2.5495738534146004 -2.607017320435384 -0.8096657747824024
149 3.244025908588968 -1.4437086811612103 1.5517007146949784 -2.5598327891660095 -2.612945066487805 -0.805056038204548
150 3.246469993272 -1.4429861145064125 1.5554384347090322 -2.570070934587093 -2.6184432308109344 -0.8003899675145889
151 3.248850665671393 -1.4422672561613834 1.5590725113851187 -2.5802875933283853 -2.6235056702243518 -0.7956719907419824
152 3.2511665593150183 -1.441552274212651 1.5626010605537763 -2.59048192434595 -2.628128158612454 -0.790906749845555
153 3.253416386691042 -1.440841322352794 1.566022587181877 -2.600652933975896 -2.632308488226125 -0.7860990815719501
154 3.2555989460726935 -1.4401345379027295 1.5693360264669634 -2.6107994737422646 -2.636046524405939 -0.7812539930462455
155 3.257713128209506 -1.4394320401753735 1.5725407749360494 -2.6209202439802417 -2.639344209564883 -0.776376632306336
156 3.259757922622636 -1.4387339292086814 1.57563671104415 -2.6310138030527486 -2.6422055155164488 -0.7714722543262639
157 3.261732423251279 -1.4380402848922405 1.5786242049205081 -2.641078581631243 -2.644636346567808 -0.76654618338838
158 3.26363583322534 -1.4373511665014322 1.581504117216853 -2.6511129012398897 -2.6466443988443498 -0.7616037729221045
159 3.265478576739718 -1.436653986820173 1.5843003141060288 -2.6611119242676935 -2.648234282932966 -0.756650364097544
160 3.267248382020695 -1.435961613561935 1.5869829526802426 -2.6710779373945552 -2.649465065121168 -0.7516773030826206
161 3.2689452584045946 -1.4352738800829246 1.5895587510561742 -2.6810084637255915 -2.6503112557627566 -0.746701616753188
162 3.2705689360431887 -1.4345907183489253 1.5920317355784555 -2.6909014623382452 -2.6507846376497146 -0.7417285209455249
163 3.2721192479596883 -1.4339120587155858 1.5944058547772366 -2.700754941244507 -2.650897757860746 -0.7367631170551019
164 3.273596128527444 -1.4332378273161055 1.5966850441974123 -2.710566970672843 -2.6506637000762208 -0.7318103546717241
165 3.274999610704905 -1.432567944650934 1.5988732598192072 -2.7203356964933936 -2.6500958810700337 -0.726874999426861
166 3.2763298222762613 -1.4319023250253498 1.6009744898037226 -2.730059352701533 -2.6492078724776196 -0.7219616063049241
167 3.2775869813258445 -1.431240876570051 1.60299275177826 -2.7397362722668954 -2.6480132480418006 -0.7170744984191328
168 3.278771391152295 -1.4305835016471196 1.604932080981612 -2.7493648959610995 -2.646525455681048 -0.7122177510452037
169 3.279883434805203 -1.4299300974948823 1.606796513152341 -2.7589437790088454 -2.644757713009103 -0.7073951805488254
170 3.280923569402799 -1.4292805570044191 1.6085900649477252 -2.7684715955746597 -2.642722924406906 -0.7026103377357955
171 3.281892320365026 -1.428634769550623 1.6103167138458607 -2.7779471412120866 -2.6404336174138154 -0.6978665050922687
172 3.282790275672784 -1.4279926218238714 1.6119803788492733 -2.787369333473974 -2.6379018960467704 -0.6931666973595636
173 3.283618080242065 -1.427353998626027 1.613584902831226 -2.7967372109212514 -2.635139408641663 -0.6885136648950168
174 3.2843764304815677 -1.4267187836078152 1.6151340370118774 -2.8060499307817977 -2.6321573279049724 -0.6839098992991846
175 3.285066069084585 -1.4260868599345262 1.6166314277939398 -2.815306765507851 -2.62896634103126 -0.6793576408328229
176 3.2856877800906235 -1.425458110874191 1.618080606005216 -2.8245070984657508 -2.6255766479536926 -0.6748588871983116
177 3.286242384239294 -1.4248324203074663 1.6194849784711847 -2.8336504189702563 -2.6219979660266493 -0.6704154033146843
178 3.2867307346284482 -1.4242096731619207 1.620847821760773 -2.8427363168505844 -2.6182395396739513 -0.6660287317696212
179 3.287153712680037 -1.4235897557756292 1.6221722779014605 -2.851764476709202 -2.6143101537612066 -0.661700203683223
180 3.287512224410596 -1.4229725561962665 1.6234613518369714 -2.860734672008855 -2.6102181496584054 -0.6574309497656172
181 3.287807196998261 -1.4223579644225055 1.6247179103950873 -2.869646759099464 -2.6059714431451257 -0.6532219113926382
182 3.288039719921331 -1.4217321638661333 1.6259693709387544 -2.8784972363997654 -2.6015754375171087 -0.6490738515607064
183 3.288210493890058 -1.4211090583232413 1.6271839575759357 -2.887290858016247 -2.597040999201583 -0.6449873572798187
184 3.2883205112651592 -1.4204884569146927 1.6283665956115425 -2.8960274206263694 -2.59237436387832 -0.6409628355695592
185 3.288370768891051 -1.4198701943590106 1.6295214457219014 -2.9047068489034347 -2.5875815595406766 -0.6370005559213233
186 3.288362267477314 -1.4192541250857702 1.630652070404103 -2.913329173102856 -2.5826683880130674 -0.6331006573812342
187 3.2882960107668793 -1.4186401188549689 1.6317615587872114 -2.9218945112239854 -2.5776404161992654 -0.6292631558750914
188 3.288173004587689 -1.4180280574915858 1.6328526205797118 -2.9304030546600757 -2.5725029741255523 -0.6254879515815586
189 3.287994255854436 -1.417417832446488 1.6339276571113437 -2.938855056523138 -2.5672611576542614 -0.6217748362177028
190 3.2877607715654524 -1.416809342970069 1.634988815352009 -2.9472508220336673 -2.5619198343345992 -0.6181235001436985
191 3.2874735578244687 -1.416202494740541 1.6360380292595733 -2.955590700516179 -2.5564836512884144 -0.6145335392248616
192 3.2871336189061195 -1.4155971988298361 1.637077051678309 -2.9638750786539148 -2.550957044342215 -0.6110044614120841
193 3.2867419563764333 -1.4149933709204234 1.6381074791748702 -2.9721043747399274 -2.5453442478449553 -0.6075356930183745
194 3.2862995682742433 -1.4143909307087763 1.6391307715815497 -2.9802790337244507 -2.5396493047769875 -0.6041265846812023
195 3.285807448355819 -1.413789801447855 1.6401482675600434 -2.988399522905429 -2.533876076875967 -0.6007764170089003
196 3.2852772454151333 -1.413201425538414 1.6411411361005668 -2.996469296731592 -2.5280273344331783 -0.5974844059153989
197 3.284698764168468 -1.4126138653085727 1.6421386857785643 -3.004484669242936 -2.5221069325246863 -0.5942497556764611
198 3.284072997960398 -1.412027131558385 1.6431398455691566 -3.012446409457359 -2.5161185654508227 -0.591071590328392
199 3.2834009360907053 -1.4114412175179585 1.6441440071604638 -3.0203552320844262 -2.5100656933253362 -0.5879489752137551
200 3.2826835623109614 -1.4108561038780487 1.6451508906312293 -3.0282118112593293 -2.5039515752691766 -0.5848809233685137
201 3.28192185366128 -1.4102717625173848 1.6461604454129615 -3.03601679042554 -2.4977792954270464 -0.5818664011104355
202 3.2811167795650507 -1.4096881592608743 1.6471727774533709 -3.0437707893624255 -2.491551783634596 -0.5789043329812567
203 3.2802693011205735 -1.4091052559173736 1.6481880958239963 -3.0514744091028922 -2.4852718320760387 -0.5759936061594492
204 3.279380370544116 -1.4085230117821088 1.6492066737460913 -3.059128235297592 -2.4789421089162187 -0.5731330744339951
205 3.278450930730409 -1.4079413847414735 1.6502288202973132 -3.0667328404407703 -2.472565169631558 -0.5703215618098038
206 3.277481914905123 -1.4073603320826735 1.651254860020734 -3.0742887852669307 -2.4661434665746165 -0.5675578658005322
207 3.2764742463501597 -1.4067798110844443 1.6522851183713914 -3.0817966195481836 -2.459679357168214 -0.5648407604532868
208 3.275428838187275 -1.4061997794455177 1.6533199114667134 -3.0892568824628803 -2.4531751110234046 -0.5621689991410669
209 3.2743465932090166 -1.405620195592973 1.6543595390023185 -3.096670102661835 -2.446632916200996 -0.5595413171521882
210 3.273228403748554 -1.4050410189017757 1.655404279488656 -3.104036798125416 -2.440054884781503 -0.5569564341007784
211 3.2720751515818973 -1.4044622098487505 1.6564543871825654 -3.1113574758801503 -2.433443057868062 -0.5544130561784238
212 3.270887707857442 -1.4038837301182419 1.657510090250362 -3.1186326316251707 -2.4267994101170656 -0.5519098782638745
213 3.269666933048875 -1.403305542672257 1.658571589819839 -3.1258627493052207 -2.420125853869237 -0.549445585905191
214 3.2684136769282666 -1.4027276117945704 1.6596390596682837 -3.1330483006568377 -2.4134242429374932 -0.5470188571866859
215 3.2671287785568044 -1.4021499031158102 1.660712646360213 -3.14018974474687 -2.4066963760957836 -0.544628364491362
216 3.265813066291082 -1.401572383624711 1.6617924696979416 -3.1472875275169776 -2.3999440003039343 -0.5422727761681925
217 3.264476525580238 -1.4009861336928353 1.6628983001049094 -3.154339318029124 -2.393166555803664 -0.5399507581124554
218 3.2631102148376505 -1.4004002698012723 1.6640028016309618 -3.1613493977853304 -2.3863690020089736 -0.5376612211932913
219 3.2617149718264162 -1.3998146888949565 1.6651081122802454 -3.1683179033083326 -2.379552695051292 -0.5354027668230145
220 3.2602916190045357 -1.3992293098582593 1.6662157829871385 -3.175245028106862 -2.372719014966316 -0.5331740132609177
221 3.2588409645316863 -1.3986440679695393 1.6673269294789876 -3.182131003278895 -2.3658693500261863 -0.5309735932213151
222 3.2573638030416774 -1.398058910822346 1.6684423439989906 -3.188976083174197 -2.3590050859024125 -0.528800152332378
223 3.2558609162457164 -1.3974737953263499 1.66956257748587 -3.1957805347994555 -2.3521275982903567 -0.526652348227532
224 3.254333073413672 -1.3968886855025269 1.6706880000239273 -3.2025446299922185 -2.3452382480036347 -0.5245288501045599
225 3.252781031767446 -1.3963035508621522 1.6718188453209761 -3.2092686396437697 -2.3383383778215974 -0.522428338628169
226 3.251205536811072 -1.395718365214579 1.672949405163995 -3.2159995357558717 -2.331342989307603 -0.5200225132876909
227 3.249605955287653 -1.395132968884892 1.6740904391388822 -3.2226858890075767 -2.3243414007421532 -0.5176366304378128
228 3.247983096616321 -1.3945473979139076 1.675240367264214 -3.2293280831043245 -2.3173351109305393 -0.5152697203315649
229 3.2463377586306588 -1.3939616753642874 1.6763979778103402 -3.235926440089265 -2.310325551884683 -0.512920820966826
230 3.244670727248765 -1.393375815138829 1.6775623235272838 -3.242481234235788 -2.303314100142709 -0.5105889811701735
231 3.2429827762838612 -1.3927898247551738 1.6787326462748489 -3.248992702266019 -2.2963020850846285 -0.5082732629809557
232 3.2412662600656823 -1.3922165248213143 1.6798934715719411 -3.2554643355145223 -2.2892949100428 -0.5059727435035777
233 3.239530965056275 -1.39164274882832 1.6810671332585627 -3.2618917425615197 -2.2822888606824923 -0.5036863119496336
234 3.2377775826905135 -1.391068580142609 1.6822508862697394 -3.2682753966959828 -2.275285364320435 -0.501413151858825
235 3.2360067970277835 -1.3904940774522914 1.6834426690710629 -3.2746156681610774 -2.2682857641598004 -0.49915244695883243
236 3.2342192840065036 -1.3899192818388746 1.6846409121160213 -3.2809128501199667 -2.2612913365772997 -0.49690338665859773
237 3.232415710927902 -1.38934422189418 1.6858443992730021 -3.2871671776114466 -2.2543033035361604 -0.49466517013819394
238 3.2305967361040704 -1.3887689174175577 1.6870521677152215 -3.2933788413972693 -2.2473228415281925 -0.4924370093933722
239 3.228763008623759 -1.3881933820830037 1.6882634357104973 -3.299547998092125 -2.2403510880421798 -0.49021813150000965
240 3.226915168202592 -1.3876176253595958 1.6894775506273336 -3.305674777592057 -2.2333891462675113 -0.4880077802949945
241 3.2250538450938655 -1.3870416538912103 1.6906939515740702 -3.3117592885420124 -2.226438088537061 -0.4858052176192137
242 3.2231796600428613 -1.3864654724850674 1.691912142618118 -3.31780162238192 -2.2194989588676983 -0.4836097242306157
243 3.2212932242724674 -1.3858890848175744 1.6931316736461186 -3.323801856363546 -2.21257277485328 -0.4814206004673959
244 3.2193951394913563 -1.3853124939360733 1.6943521267357147 -3.3297600558229896 -2.2056605290914426 -0.47923716672066785
245 3.217485997918449 -1.384735702613401 1.6955731064978719 -3.3356762759154193 -2.1987631902732567 -0.47705876376067574
246 3.2155663823191536 -1.384158713596425 1.6967942332755543 -3.3415505629616327 -2.191881704027726 -0.47488475294927784
247 3.2136368660501318 -1.3835815297782936 1.6980151383939788 -3.3473829555146213 -2.185016993586802 -0.4727145163630656
248 3.211698013110251 -1.3830041543158782 1.6992354608817688 -3.353173485224181 -2.178169960317912 -0.4705474568453023
249 3.209750378196011 -1.3824265907078885 1.700454845244443 -3.3589221775558094 -2.1713414841577823 -0.46838299800030747
250 3.2077945067602136 -1.3818488428448252 1.7016729399888413 -3.36462905240429 -2.1645324239719335 -0.466220584140554
251 3.205830964798494 -1.3812695980120575 1.7028911134581568 -3.370293750099187 -2.1577434909251054 -0.4640596801942685
252 3.203860240095494 -1.3806902098908636 1.7041063958369191 -3.3759168054824356 -2.150975649234603 -0.4618997951501125
253 3.201882851626507 -1.3801106739817193 1.7053187090233652 -3.381498187025705 -2.14422968294733 -0.4597404247584742
254 3.1998993091589387 -1.3795309890759275 1.7065278999947557 -3.387037870313554 -2.137506360131739 -0.45758108775946194
255 3.1979101133808445 -1.3789511564242691 1.7077337630717186 -3.3925358353163166 -2.130806431811415 -0.4554213248848474
256 3.195915756010821 -1.3783711791390356 1.7089360558722302 -3.397992064536721 -2.1241306312596864 -0.4532606980618161
257 3.193916719894766 -1.377791061762788 1.7101345107575225 -3.403406541779609 -2.1174796735445214 -0.451098789759147
258 3.191913479093371 -1.3772108099561478 1.7113288430589662 -3.4087792513650013 -2.1108542552466587 -0.4489352024329925
259 3.189906498963044 -1.3766304302705334 1.7125187570071203 -3.4141101776556897 -2.1042550542975427 -0.44676955804147395
260 3.187896236232157 -1.3760499299814937 1.713703950020737 -3.4193993048070648 -2.0976827299001193 -0.4446014976060527
261 3.185883139073943 -1.3754693169652654 1.714884115825027 -3.4246466166731087 -2.091137922507068 -0.4424306808039838
262 3.183867647176977 -1.3748885996061684 1.7160589467337872 -3.4298520968212585 -2.084621253839072 -0.4402567855807524
263 3.181850191813891 -1.374307786726012 1.7172281353337449 -3.4350157286222935 -2.078133326931297 -0.43807950777471716
264 3.1798311959088026 -1.3737268875292334 1.7183913757408174 -3.440137495391032 -2.0716747262001127 -0.43589856074858124
265 3.177811074103791 -1.3731459115592979 1.7195483645490128 -3.445217380560491 -2.065246017524756 -0.43371367502403824
266 3.1757902328246645 -1.3725648686631873 1.7206988015578133 -3.4502553678771064 -2.0588477483404697 -0.4315245979171821
267 3.173769070346219 -1.3719837689617238 1.7218423903390436 -3.4552514416081124 -2.0524804477408995 -0.4293310931731571
268 3.171747976857122 -1.3714026228241256 1.7229788386865705 -3.4602055867547032 -2.046144626588382 -0.4271329405991585
269 3.16972733452455 -1.3708214408456654 1.7241078589796146 -3.465117789266402 -2.039840777631321 -0.42492993569534543
270 3.1677075175586684 -1.3702402338276232 1.7252291684815473 -3.469988036253344 -2.0335693756282254 -0.4227218892835425
271 3.1656888922770543 -1.36965901275897 1.7263424895897121 -3.474816316194116 -2.027330877478218 -0.4205086271338304
272 3.1636718171691216 -1.369077788799376 1.7274475500473307 -3.4796026191374465 -2.0211257223579695 -0.41828998958927666
273 3.1616566429606388 -1.3684965732632592 1.7285440831253778 -3.4843469368965336 -2.014954331865103 -0.41606583118916
274 3.159643712678391 -1.3679153776046782 1.7296318277800482 -3.4890492632351378 -2.0088171101681467 -0.4138360202911104
275 3.157633361715061 -1.3673342134029183 1.730710528789873 -3.493709594044827 -2.0027144441631233 -0.41160043869262514
276 3.155625917894382 -1.3667530923486797 1.7317799368753948 -3.4983279275129435 -1.996646703636865 -0.40935898125244613
277 3.1536217015366255 -1.366172026230789 1.732839808803542 -3.502904264281006 -1.9906142414371146 -0.40711155551229056
278 3.151621025524476 -1.3655910269233877 1.7338899074782705 -3.5074386075933672 -1.9846173936494533 -0.4048580813194283
279 3.149624195369347 -1.3650101063735602 1.7349300020186629 -3.511930963436026 -1.9786564797810537 -0.4025984904505907
280 3.1476315092781872 -1.3644292765893742 1.7359598678253871 -3.5163813406655575 -1.972731802951235 -0.40033272623768346
281 3.145643258220822 -1.3638485496283155 1.7369792866362406 -3.520789751128176 -1.9668436500887525 -0.3980607431957603
282 3.1436597259978734 -1.3632679375861034 1.7379880465713586 -3.5251562097689884 -1.9609922921357246 -0.39578250665369663
283 3.141681189309302 -1.362687452585874 1.7389859421685876 -3.529480734731527 -1.9551779842580679 -0.39349799238798044
284 3.1397079178235985 -1.362107106767725 1.739972774409446 -3.533763347447686 -1.9494009660622775 -0.3912071862600186
285 3.1377401742476585 -1.3615269122786133 1.7409483507360661 -3.538004072718201 -1.9436614618183623 -0.3889100838573329
286 3.1357782143973765 -1.3609468812626004 1.7419124850594716 -3.542202938783847 -1.9379596806887194 -0.38660669013899923
287 3.133822287268969 -1.3603670258514393 1.7428649977595307 -3.546359977387533 -1.9322958169627042 -0.3842970190856593
288 3.1318726351110513 -1.359787358155499 1.7438057156769102 -3.550475223827504 -1.926670050296635 -0.3819810933544125
289 3.129929493497487 -1.3592078902550215 1.7447344720973488 -3.554548717001867 -1.9210825459589462 -0.37965894393887306
290 3.12799309140101 -1.3586286341917062 1.745651106728563 -3.558580499444668 -1.9155334550801948 -0.37733060983465394
291 3.126063651267632 -1.358049601960618 1.7465554656700917 -3.5625706173537735 -1.910022914907601 -0.37499613771051865
292 3.1241413890918346 -1.3574708055024134 1.7474474013763897 -3.5665191206108013 -1.9045510490637967 -0.37265558158541967
293 3.122226514492542 -1.3568922566958812 1.7483267726134741 -3.570426062793371 -1.8991179678094485 -0.37030900251162063
294 3.1203192307898666 -1.356313967350792 1.7491934444094277 -3.5742915011799377 -1.8937237683094028 -0.36795646826407946
295 3.1184197350826186 -1.355735949201053 1.7500472879990594 -3.5781154967474933 -1.8883685349020076 -0.3655980530362493
296 3.1165282183265606 -1.3551582138981622 1.7508881807630283 -3.581898114162413 -1.883052339371251 -0.3632338371424346
297 3.114644865413391 -1.3545807730049573 1.7517160061617247 -3.585639421764738 -1.8777752412213613 -0.3608639067268206
298 3.112769855250431 -1.3540036379896536 1.7525306536642078 -3.589339491546173 -1.8725372879535072 -0.35848835347927677
299 3.110903360840993 -1.3534268202201685 1.7533320186724926 -3.59299839912211 -1.8673385153442414 -0.35610727435801665
300 3.109045549365394 -1.352850330958723 1.7541200024414785 -3.5966162236979513 -1.8621789477253334 -0.35372077131918067
301 3.1071965822625915 -1.3522741813567203 1.7548945119948056 -3.6001930480300346 -1.8570585982646366 -0.3513289510533909
302 3.1053566153123944 -1.351698382449891 1.7556554600369216 -3.603728958381456 -1.8519774692476474 -0.34893192472931306
303 3.1035257987182234 -1.351122945153703 1.7564027648616394 -3.6072240444730705 -1.8469355523594126 -0.34652980774424524
304 3.101704277190371 -1.3505478802590303 1.7571363502574546 -3.610678399429973 -1.8419328289664534 -0.34412271948173956
305 3.099892190029725 -1.3499731984280725 1.7578561454098982 -3.6140921197237295 -1.8369692703983824 -0.34171078307624936
306 3.0980896712119086 -1.3493989101905248 1.7585620848011785 -3.617465305110657 -1.832044838228897 -0.33929412518478264
307 3.0962968494717904 -1.3488250259399874 1.7592541081073751 -3.6207980585664172 -1.827159484555843 -0.33687287576553043
308 3.0945138483883188 -1.348251555930612 1.7599321600934303 -3.6240904862172028 -1.822313152280055 -0.33444716786342804
309 3.092740786469633 -1.3476785102739801 1.7605961905061824 -3.627342697267783 -1.8175057753826893 -0.33201713740259664
310 3.090977777238398 -1.347105898936205 1.7612461539656763 -3.630554803926673 -1.8127372792007752 -0.3295829229856035
311 3.0892249293173153 -1.346533731735255 1.7618820098549817 -3.633726921328673 -1.808007580700727 -0.32714466569947
312 3.0874823465147583 -1.3459620183384902 1.7625037222087345 -3.6368591674550435 -1.8033165887495681 -0.32470250892834884
313 3.085745149134015 -1.345388716179065 1.7631230691895465 -3.6399509144769637 -1.7986667439638178 -0.32225659817278374
314 3.0840187623523865 -1.3448160205914987 1.7637242462406006 -3.6430036259658487 -1.7940550051093143 -0.31980722319587523
315 3.082303247386497 -1.344243896034433 1.7643084191552862 -3.646017257514916 -1.7894812844223287 -0.317354474050587
316 3.080598663112281 -1.3436723202456813 1.7648764012979932 -3.6489918180920293 -1.784945487108438 -0.3148984611364598
317 3.0789050660532546 -1.3431012802099331 1.7654287605217835 -3.6519273546792537 -1.780447510903619 -0.31243930935991215
318 3.0772225103529514 -1.3425307693362798 1.765965893939972 -3.6548239415051524 -1.775987245914366 -0.3099771540058977
319 3.0755510477399874 -1.3419607854824243 1.766488080213819 -3.6576816724867025 -1.7715645746408246 -0.30751213781087555
320 3.0738907274913116 -1.3413913295714954 1.7669955161123452 -3.6605006559146545 -1.7671793721179483 -0.3050444088793371
321 3.07224159639718 -1.3408224046236779 1.7674883420688166 -3.663281010707292 -1.7628315061309234 -0.30257411919298816
322 3.070603698730037 -1.3402540150782454 1.7679666600382473 -3.6660228637608907 -1.758520837475589 -0.30010142353663743
323 3.0689770762185606 -1.3396861663189312 1.7684305459672964 -3.668726348067232 -1.7542472202443609 -0.2976264787174083
324 3.0673617680275194 -1.3391188643416914 1.7688800584935664 -3.6713916013677683 -1.7500105021247958 -0.2951494429907499
325 3.0657578107436874 -1.3385521155222033 1.7693152450057088 -3.6740187651834026 -1.7458105247023603 -0.29267047563256643
326 3.0641652383677846 -1.3379859264532354 1.7697361458560885 -3.676607984107297 -1.741647123761954 -0.290189736614903
327 3.062584082312256 -1.3374203038309758 1.7701427972801589 -3.679159405282024 -1.7375201295847207 -0.28770738635532767
328 3.0610143714045934 -1.3368552543756766 1.7705352334104678 -3.6816731780060277 -1.7334293672380017 -0.28522358551905375
329 3.0594561318958533 -1.3362907847763625 1.7709134876569026 -3.6841494534309525 -1.7293746568571595 -0.2827384948590883
330 3.0579093874739796 -1.3357269016524125 1.7712775936433702 -3.686588384322928 -1.7253558139185756 -0.28025227508406886
331 3.0563741592815545 -1.3351636115269876 1.7716275858341388 -3.688990124869037 -1.7213726495034996 -0.27776508674651645
332 3.0548504659375832 -1.3346009208087775 1.771963499943172 -3.691354830515814 -1.7174249705526696 -0.2752770901463837
333 3.0533383235629397 -1.3340388357795898 1.7722853731918609 -3.6936826578306112 -1.713512580111778 -0.2727884452462832
334 3.0518377458091157 -1.333477362586055 1.7725932444609944 -3.695973764379408 -1.7096352775679473 -0.2702993115958374
335 3.050348743889935 -1.3329165072342293 1.7728871543691096 -3.698228308616598 -1.705792858877444 -0.2678098482633313
336 3.0488713266159118 -1.3323562755862437 1.7731671452997622 -3.700446449783626 -1.701985116784883 -0.2653202137733687
337 3.0474055004309553 -1.3317966733584023 1.773433261393526 -3.702628347814302 -1.698211841034196 -0.2628305660495955
338 3.0459512694511437 -1.3312377061203093 1.7736855485158212 -3.704774163245277 -1.6944728185716362 -0.26034106236180893
339 3.0445086355053093 -1.3306793792947293 1.7739240542083548 -3.7068840571306185 -1.6907678337410965 -0.2578518592769496
340 3.043077598177197 -1.330121698157977 1.7741488276296447 -3.7089581909597658 -1.6870966684720055 -0.2553631126135995
341 3.0416581548489714 -1.3295646678406867 1.7743599194884618 -3.7109967265783492 -1.6834591024600658 -0.25287497739969605
342 3.0402503007458765 -1.329008293328861 1.7745573819728935 -3.7129998261115245 -1.6798549133410825 -0.2503876078332346
343 3.0388540289818518 -1.3284525794651243 1.7747412686769162 -3.71496765188958 -1.6762838768581259 -0.24790115724577558
344 3.0374693306059375 -1.3278975309501324 1.774911634525809 -3.716900366375646 -1.672745767022257 -0.24541577806860196
345 3.036096194649312 -1.3273431523440986 1.7750685357013398 -3.7187981320953956 -1.669240356267044 -0.24293162180139644
346 3.03473460817281 -1.3267894480684117 1.7752120295673768 -3.7206611115686457 -1.6657674155970774 -0.24044883898332156
347 3.0333845563147954 -1.3262364224073258 1.775342174596379 -3.722489467242812 -1.6623267147306926 -0.23796757916639852
348 3.03204602233926 -1.3256840795097093 1.7754590302970858 -3.72428336142817 -1.6589180222370943 -0.23548799089108813
349 3.030718987684043 -1.3251324233908424 1.7755626571436174 -3.726042956234891 -1.6555411056680724 -0.23301022166398358
350 3.0294034320090666 -1.3245814579342525 1.7756531165061404 -3.727768413511832 -1.6521957316844915 -0.23053441793753013
351 3.0280993332444957 -1.3240311868935875 1.7757304705831933 -3.7294598947870545 -1.648881666177728 -0.2280607250916896
352 3.026806667638738 -1.3234816138945151 1.775794782335734 -3.731117561210057 -1.645598674386221 -0.22558928741747175
353 3.025525409806208 -1.32293274243665 1.7758461154229495 -3.7327415734957015 -1.6423465210073047 -0.2231202481022568
354 3.0242555327747858 -1.3223845758955008 1.7758845341398446 -3.73433209186982 -1.6391249703044712 -0.22065374921683553
355 3.022997008032909 -1.3218371175244399 1.7759101033566176 -3.735889276016478 -1.6359337862102208 -0.21818993170409626
356 3.0217498055762433 -1.3212903704566854 1.7759228884598173 -3.7374132850268778 -1.6327727324246422 -0.21572893536928955
357 3.020513893953876 -1.3207443377073012 1.7759229552952707 -3.7389042773498855 -1.6296415725098647 -0.21327089887180345
358 3.019289240313994 -1.320199022175207 1.775910370112766 -3.7403624107441553 -1.6265400699805188 -0.21081595971838435
359 3.0180758104490004 -1.3196544266452 1.7758851995124716 -3.741787842231834 -1.6234679883903362 -0.20836425425774016
360 3.0168735688400403 -1.3191105537899834 1.7758475103930622 -3.743180728053816 -1.6204250914150187 -0.20591591767646417
361 3.015682478700897 -1.318567406172203 1.775797369901535 -3.7445412236265363 -1.617411142931497 -0.20347108399622033
362 3.014502502021239 -1.3180249862464863 1.7757348453846804 -3.745869483500259 -1.6144259070937037 -0.20102988607213182
363 3.013333599609186 -1.3174832963614878 1.7756600043421842 -3.747165661318854 -1.6114691484049717 -0.19859245559231714
364 3.012175731133181 -1.3169423387619326 1.7755729143813266 -3.7484299097810228 -1.6085406317871747 -0.19615892307851934
365 3.011028855163145 -1.3164021155906622 1.7756397392828582 -3.7483336117260877 -1.6056145867341227 -0.19395047357424117
366 3.0098940624662536 -1.3158695225412134 1.7755165374153412 -3.748243843109169 -1.6027092638234839 -0.19176130815253245
367 3.0087711451790478 -1.315342511222973 1.7752562527481395 -3.7481537891753285 -1.5998249787655636 -0.1895885842255651
368 3.0076599060526137 -1.3148196228711848 1.774896543178176 -3.748058634458492 -1.598324348812852 -0.18763144969655354
369 3.0065888082976273 -1.314300091111015 1.7744645934707344 -3.7479559924116757 -1.5968051993661363 -0.18568214396062685
370 3.0055550736224683 -1.313783157073875 1.7739796151675005 -3.747843470405334 -1.595270150442917 -0.18374000410996352
371 3.004556142669258 -1.3132682766900563 1.7734552724029207 -3.7477193987034765 -1.5937215741976947 -0.18180461568569792
372 3.0035896577182157 -1.3127550588464683 1.7729012865651077 -3.7475826212041614 -1.592161623370822 -0.17987573678741803
373 3.002653446750387 -1.312243221379548 1.7723245766294582 -3.7474323464998927 -1.5905922548923856 -0.17795324446169225
374 3.0017455087547478 -1.311732559768138 1.7717300696227134 -3.7472680419603854 -1.589015249837695 -0.17603709690209463
375 3.0008640001809117 -1.3112229248650535 1.7711212766927977 -3.7470893584628167 -1.5874322305648263 -0.1741273068633291
376 3.0000072224490637 -1.3107142070590834 1.7705007026004198 -3.7468960769339974 -1.5858446756250961 -0.17222392302258052
377 2.9991736104364874 -1.3102063250104385 1.7698701368136787 -3.7466880704049252 -1.5842539328763385 -0.1703270169674982
378 2.998361721866395 -1.3096992176381506 1.7692308604433697 -3.746465277091002 -1.5826612311181076 -0.168436674163025
379 2.997570227530254 -1.3091928384193106 1.7685837933518465 -3.7462276813048527 -1.5810676904902585 -0.16655298772753038
380 2.9967979022797975 -1.308687151331549 1.7679295987307961 -3.7459752999307216 -1.5794743318209237 -0.16467605418857353
381 2.996043616729507 -1.3081821279633579 1.7672687574421928 -3.7457081728460144 -1.5778820850697812 -0.16280597063009325
382 2.995306329614653 -1.3076777454543111 1.7666016208622972 -3.7454263561428074 -1.5762917969830483 -0.16094283281433666
383 2.9945850807540286 -1.3071739850249855 1.765928448442105 -3.7451299173344936 -1.574704238054713 -0.15908673398363063
384 2.9938789845702667 -1.3066708309259012 1.7652494344016925 -3.7448189319690206 -1.573120108872007 -0.15723776413355275
385 2.9931872241241884 -1.306168269684216 1.7645647266991724 -3.7444934812380986 -1.5715400459104916 -0.15539600961040126
386 2.9925090456229064 -1.305666289562042 1.7638744405072846 -3.744153650291095 -1.5699646268343321 -0.15356155292936696
387 2.991843753364499 -1.305164880165208 1.7631786677853238 -3.7437995270470683 -1.5683943753496417 -0.1517344727406425
388 2.9911907050849065 -1.3046640321590444 1.7624774840752848 -3.7434312013585593 -1.5668297656525947 -0.14991484389253837
389 2.9905493076753706 -1.304163737060353 1.7617709533248798 -3.743048764423496 -1.5652712265090132 -0.14810273755612238
390 2.98991901324118 -1.3036639870836884 1.7610591313081287 -3.7426523083718464 -1.5637191449979861 -0.14629822138681278
391 2.9892993154747662 -1.3031647750264244 1.7603420680493036 -3.74224192597517 -1.5621738699486245 -0.14450135970605257
392 2.988689746318293 -1.3026660941815904 1.7596198095387314 -3.7418177104424335 -1.560635715096103 -0.14271221369161133
393 2.98808987289283 -1.3021679382706672 1.7588923989455774 -3.7413797552762666 -1.559104961980612 -0.14093084156886287
394 2.9874992946729937 -1.3016703013907953 1.7581598774734433 -3.7409281541714647 -1.5575818626106324 -0.13915729879804675
395 2.9869176408875924 -1.3011731779724653 1.75742228496245 -3.740463000942949 -1.5560666419100044 -0.13739163825437167
396 2.986344568128349 -1.3006765627448953 1.756679660311499 -3.739984389474214 -1.5545594999665475 -0.13563391039909825
397 2.9857797581501813 -1.300180450707109 1.7559320417730921 -3.739492413679993 -1.5530606140984398 -0.13388416344061566
398 2.985222915847817 -1.2996848371033036 1.7551794671579315 -3.738987167478757 -1.5515701407531939 -0.1321424434851199
399 2.9846737673947286 -1.2991897174014928 1.754421973975742 -3.738468744772007 -1.5500882172528154 -0.13040879467689664
400 2.984132058531472 -1.2986950872747078 1.7536595995311033 -3.7379372394282617 -1.548614963397599 -0.1286832593284679
401 2.9835975529915366 -1.2982009425842305 1.752892380987621 -3.7373927452702858 -1.5471504829399907 -0.1269658780410213
402 2.983070031053752 -1.2977072793644824 1.7521203554099043 -3.736835356064564 -1.545694864939009 -0.1252566898156346
403 2.9825492882111604 -1.2972140938092922 1.7513435597900542 -3.7362651655123624 -1.5442481850048602 -0.12355573215585555
404 2.9820351339470688 -1.2967213822593349 1.7505620310634162 -3.735682267241905 -1.5428105064426012 -0.12186304116221425
405 2.9815273906097253 -1.2962291411905873 1.749775806116958 -3.735086754801383 -1.5413818813029894 -0.120178651619242
406 2.9810258923777373 -1.2957373672036827 1.7489849217926425 -3.734478721652582 -1.5399623513479945 -0.11850259707555441
407 2.980530484308988 -1.2952460570140654 1.7481894148874746 -3.7338582611650084 -1.5385519489378556 -0.11683490991753166
408 2.980041021466363 -1.2947552074428743 1.7473893221513852 -3.7332254666104303 -1.5371506978459992 -0.11517562143710006
409 2.979557368114146 -1.2942648154084895 1.7465846802837801 -3.7325804311577784 -1.5357586140076398 -0.1135247618940873
410 2.9790793969794245 -1.29377487791869 1.7457755259293175 -3.7319232478683797 -1.5343757062074044 -0.111882360573592
411 2.978606988573288 -1.2932853920633764 1.744961895673309 -3.7312540096915 -1.5330019767109027 -0.11024844583877573
412 2.9781400305670327 -1.2927963550078176 1.7441438260370112 -3.7305728094601864 -1.5316374218447646 -0.10862304517945591
413 2.9776784172189488 -1.292307763986383 1.743321353472981 -3.7298797398873984 -1.5302820325293038 -0.10700618525684738
414 2.9772220488476355 -1.2918196162967315 1.7424945143606172 -3.7291748935624254 -1.5289357947676332 -0.10539789194477386
415 2.976770831348099 -1.291331909294422 1.7416633450019567 -3.7284583629475785 -1.5275986900947514 -0.1037981903676438
416 2.9763246757471937 -1.290844640387918 1.7408278816177671 -3.727730240375158 -1.526270695989836 -0.10220710493546128
417 2.975883497795241 -1.290357807033962 1.73998816034396 -3.7269906180446855 -1.5249517862547184 -0.10062465937612014
418 2.9754472175909092 -1.289871406733293 1.7391442172283285 -3.7262395880203942 -1.523641931361278 -0.09905087676520882
419 2.975015759236674 -1.2893854370266837 1.738296088227607 -3.7254772422289726 -1.5223410987702706 -0.09748577955353421
420 2.9745890505223933 -1.2888998954912774 1.7374438092048476 -3.724703672457548 -1.521049253223909 -0.09592938959255536
421 2.974167022634725 -1.2884147797372014 1.736587415927094 -3.723918970351905 -1.5197663570143194 -0.09438172815790154
422 2.9737496098903002 -1.2879300874044424 1.7357269440633412 -3.723123227414926 -1.5184923702298314 -0.09284281597113467
423 2.973336749490729 -1.2874458161599596 1.7348624291827646 -3.722316535005247 -1.5172272509809046 -0.09131267321990197
424 2.972928381297676 -1.2869619636950245 1.7339939067531995 -3.7214989843361126 -1.5159709556073397 -0.08979131957661288
425 2.972524447626376 -1.286478527722768 1.733121412139854 -3.720670666474427 -1.5147234388682993 -0.08827877421576225
426 2.9721248930560935 -1.2859955059759214 1.7322449806042388 -3.719831672339982 -1.5134846541165354 -0.08677505583001185
427 2.971729664256159 -1.2855128962047377 1.7313646473032993 -3.7189820927048594 -1.5122545534581084 -0.08528018264513228
428 2.9713387098263055 -1.2850306961750786 1.73048044728873 -3.7181220181929917 -1.511033087898778 -0.08379417243389878
429 2.970951980150156 -1.284548903666657 1.7295924155064608 -3.7172515392798715 -1.5098202074781548 -0.08231704252902654
430 2.970569427260779 -1.2840675164714235 1.7287005867963001 -3.716370746292401 -1.508615861392607 -0.08084880983522336
431 2.97019100471734 -1.2835865323920834 1.7278049958917212 -3.7154797294088735 -1.5074199981078438 -0.07938949084043133
432 2.9698166674919384 -1.2831059492407393 1.7269056774197784 -3.7145785786590677 -1.5062325654620128 -0.07793910162632264
433 2.9694463718658017 -1.282625764837647 1.726002665901144 -3.7136673839244603 -1.5050535107600935 -0.07649765787810926
434 2.9690800753340714 -1.2821459770100745 1.7250959957502565 -3.7127462349385354 -1.503882780860292 -0.07506517489372085
435 2.9687177365184794 -1.2816665835912617 1.7241857012755644 -3.7118152212871878 -1.5027203222530938 -0.07364166759240097
436 2.9683593150872674 -1.281187582419467 1.7232718166798613 -3.710874432409211 -1.5015660811335794 -0.07222715052276696
437 2.9680047716817626 -1.280708971337099 1.722354376060705 -3.7099239575968634 -1.5004200034675454 -0.07082163787037515
438 2.967654067849051 -1.280230748189924 1.7214334134109077 -3.708963885996501 -1.4992820350519513 -0.06942514346482945
439 2.967307165980263 -1.2797529108263446 1.720508962619094 -3.7079943066092746 -1.498152121570144 -0.06803768078646806
440 2.9669640292539987 -1.2792754570967428 1.719581057470317 -3.707015308291882 -1.4970302086423015 -0.06665926297266017
441 2.966624621584477 -1.278798384852884 1.7186497316467297 -3.706026979757368 -1.4959162418714789 -0.06528990282374152
442 2.966288907574015 -1.2783216919473774 1.7177150187283023 -3.70502940957597 -1.4948101668856224 -0.06392961280861552
443 2.9659568524694824 -1.277845376233185 1.716776952193583 -3.704022686175998 -1.493711929375885 -0.0625784050700442
444 2.965628422122404 -1.2773694355631793 1.7158355654204946 -3.703006897844746 -1.492621475131541 -0.06123629142965098
445 2.9653035829524077 -1.2768938677897443 1.7148908916871648 -3.701982132729435 -1.4915387500717883 -0.05990328339265587
446 2.9649823019137402 -1.2764186707644165 1.7139429641727835 -3.700948478838174 -1.4904637002746883 -0.058579392152361284
447 2.964664546464596 -1.2759438423375606 1.7129918159584858 -3.6999060240409376 -1.4893962720034832 -0.05726462859440577
448 2.9643502845390293 -1.2754693803580817 1.7120374800282547 -3.69885485607056 -1.4883364117305056 -0.05595900330080097
449 2.9640394845212303 -1.274995282673166 1.711079989269842 -3.697795062523736 -1.4872840661588786 -0.05466252655376604
450 2.9637321152219704 -1.2745215471280518 1.710119376475702 -3.696726730862029 -1.4862391822421919 -0.05337520833937266
451 2.963428145857038 -1.2740481715658243 1.7091556743439376 -3.6956499484128793 -1.485201707202316 -0.052097058351012304
452 2.9631275460274926 -1.2735751538272368 1.7081889154792556 -3.6945648023706146 -1.4841715885455145 -0.05082808599269692
453 2.9628302857015925 -1.273102491750553 1.7072191323939263 -3.69347137979745 -1.4831487740769913 -0.049568300382202835
454 2.96253633519825 -1.2726301831714077 1.7062463575087503 -3.6923697676244887 -1.4821332119140038 -0.04831771035406708
455 2.9622456651718876 -1.27215822592269 1.7052706231540224 -3.6912600526527064 -1.481124850497661 -0.047076324462444606
456 2.9619582465985794 -1.2716866178344377 1.7042919615705001 -3.6901423215539286 -1.4801236386035144 -0.04584415098383394
457 2.9616740507633668 -1.271215356733753 1.7033104049103691 -3.689016660871788 -1.4791295253510417 -0.04462119791967849
458 2.961393049248648 -1.270744440444729 1.7023259852382022 -3.6878831570226707 -1.47814246021212 -0.04340747299884999
459 2.9611152139235575 -1.27027386678839 1.701338734531918 -3.6867418962966387 -1.4771623930185638 -0.04220298368001994
460 2.9608405169342396 -1.269803633582644 1.7003486846837306 -3.685592964858336 -1.4761892739688127 -0.04100773715392468
461 2.960568930694952 -1.2693337386422463 1.6993558675010922 -3.6844364487478707 -1.4752230536338369 -0.039821740345529044
462 2.9603004278799223 -1.2688641797787723 1.698360314707627 -3.683272433881673 -1.4742636829623244 -0.038644999916093395
463 2.9600349814158897 -1.2683949548006008 1.697362057944055 -3.6821010060533266 -1.4733111132852108 -0.03747752226514821
464 2.9597725644752835 -1.2679260615129044 1.696361128769107 -3.680922250934378 -1.4723652963196079 -0.03631931353238029
465 2.959513150469973 -1.2674574977176487 1.6953575586604241 -3.6797362540751126 -1.4714261841721765 -0.03517037959943427
466 2.959256713045546 -1.266989261213598 1.6943513790154494 -3.678543100905304 -1.4704937293419957 -0.034030726091632796
467 2.959003226076064 -1.2665213497963277 1.6933426211523026 -3.6773428767349357 -1.4695678847229652 -0.032900358379618626
468 2.9587526636592623 -1.2660537612582434 1.692331316310643 -3.676135666754886 -1.468648603605782 -0.03177928158092149
469 2.958505000112144 -1.265586493388604 1.691317495652517 -3.674921556037585 -1.467735839679528 -0.030667500561452562
470 2.9582602099669426 -1.2651195439735512 1.690301190263192 -3.673700629537641 -1.4668295470328974 -0.029565019936929
471 2.9580182679674185 -1.264652910796143 1.689282431151972 -3.6724729720924243 -1.4659296801550972 -0.02847184407423107
472 2.957779149065455 -1.2641865916363932 1.6882612492530007 -3.6712386684226277 -1.4650361939364451 -0.027387977092693964
473 2.957542828417933 -1.2637205842713117 1.6872376754260452 -3.6699978031327856 -1.464149043668694 -0.02631342286533652
474 2.957309281383857 -1.2632548864749515 1.6862117404572654 -3.6687504607117583 -1.4632681850451 -0.025248185020028735
475 2.9570784835217108 -1.2627894960184585 1.685183475059964 -3.667496725533183 -1.4623935741602603 -0.024192266940600022
476 2.9568504105870175 -1.2623244106701235 1.6841529098753212 -3.6662366818558856 -1.4615251675097374 -0.023145671767889894
477 2.9566250385300927 -1.2618596281954384 1.683120075473111 -3.6649704138242583 -1.4606629219894884 -0.0221084024007428
478 2.9564023434939672 -1.2613951463571544 1.6820850023523997 -3.6636980054685973 -1.4598067948951141 -0.021080461496948668
479 2.9561823018124636 -1.260930962915344 1.6810477209422254 -3.6624195407054074 -1.4589567439209443 -0.020061851474130702
480 2.9559648900084174 -1.260467075627464 1.6800082616022627 -3.6611351033376645 -1.4581127271589724 -0.01905257451058178
481 2.955750084792022 -1.2600034822484227 1.6789666546234638 -3.6598447770550426 -1.457274703097651 -0.01805263254605097
482 2.95553786305929 -1.2595401805306472 1.6779229302286869 -3.6585486454341036 -1.456442630620559 -0.017062027282481348
483 2.95532820189062 -1.2590771682241555 1.6768771185733018 -3.6572467919384466 -1.4556164690049542 -0.01608076018470049
484 2.955121078549456 -1.2586144430766286 1.675829249745779 -3.655939299918821 -1.454796177920218 -0.015108832481064812
485 2.9549164704810296 -1.2581520028334852 1.6747793537682607 -3.6546262526132005 -1.4539817174262004 -0.014146245164058928
486 2.954714355311182 -1.2576898452379588 1.6737274605971106 -3.6533077331468187 -1.4531730479714735 -0.013192998990851221
487 2.9545147108452494 -1.257227968031176 1.6726736001234488 -3.651983824532165 -1.4523701303915049 -0.012249094483806686
488 2.9543175150670127 -1.2567663689522373 1.6716178021736638 -3.6506546096689476 -1.4515729259067518 -0.01131453193095819
489 2.9541227461376995 -1.2563050457382985 1.6705600965099103 -3.6493201713440087 -1.4507813961206846 -0.01038931138643709
490 2.9539303823950362 -1.2558439961246557 1.6695005128305835 -3.6479805922312103 -1.4499955030177465 -0.009473432670864394
491 2.9537404023523406 -1.25538321784483 1.6684390807707803 -3.6466359548912775 -1.4492152089612527 -0.008566895371703295
492 2.9535527846976555 -1.2549227086306551 1.6673758299027372 -3.645286341771604 -1.4484404766912342 -0.007669698843574208
493 2.953367508292912 -1.2544624662123658 1.6663107897362532 -3.6439318352060193 -1.4476712693222311 -0.006781842208533202
494 2.9531845521731253 -1.2540024883186882 1.6652439897190912 -3.6425725174145187 -1.4469075503410376 -0.005903324356314803
495 2.953003895545615 -1.2535427726769324 1.6641754592373639 -3.6412084705029564 -1.4461492836044056 -0.005034143944540082
496 2.952825517789245 -1.2530833170130848 1.6631052276158993 -3.639839776462699 -1.4453964333367069 -0.004174299398890966
497 2.9526493984536883 -1.252624119051904 1.6620333241185894 -3.6384665171702415 -1.4446489641275568 -0.003323788913251679
498 2.9524755172586996 -1.2521651765170168 1.6609597779487206 -3.6370887743867906 -1.4439068409294062 -0.002482610449818201
499 2.9523038540934086 -1.2517064871310157 1.6598846182492855 -3.635706629757802 -1.4431700290550995 -0.001650761739176647
500 2.952134389015621 -1.251248048615559 1.6588078741032768 -3.6343201648124905 -1.4424384941754038 -0.0008282402803514362
501 2.9519671022511287 -1.2507898586914705 1.6577295745339653 -3.6329294609632976 -1.4417122023165103 -1.5043340824108802e-05
502 2.9518019741930277 -1.2503319150788423 1.6566497485051561 -3.6315345995053234 -1.44099111985751 0.0007888320434762892
503 2.951638985401041 -1.249874215497138 1.6555684249214329 -3.6301356616157245 -1.440275213527845 0.0015833890682105094
504 2.9514781166008452 -1.2494167576652975 1.6544856326283794 -3.6287327283530746 -1.4395644504047385 0.0023686311606931055
505 2.951319348683399 -1.2489595393018433 1.6534014004127877 -3.6273258806566893 -1.4388587979106036 0.003144561979982427
506 2.9511626627042724 -1.2485025581249878 1.6523157570028457 -3.625915199345916 -1.4381582238104322 0.003911185416995679
507 2.9510080398829794 -1.2480458118527418 1.6512287310683116 -3.62450076511939 -1.437462696209166 0.004668505594648234
508 2.950855461602302 -1.247589298203025 1.6501403512206676 -3.623082658554252 -1.4367721835490501 0.005416526868016415
509 2.9507049094076185 -1.2471330148937765 1.6490506460132588 -3.621660960105337 -1.4360866546069717 0.006155253824522852
510 2.9505563650062268 -1.246676959643068 1.647959643941415 -3.6202357501043227 -1.4354060784917817 0.006884691284143657
511 2.950409810266662 -1.2462211301692168 1.6468673734425567 -3.6188071087588507 -1.4347304246416035 0.007604844299636582
512 2.950265227218011 -1.2457655241909007 1.6457738628962824 -3.617375116151609 -1.4340596628211288 0.008315718156789366
513 2.9501225980492234 -1.245310139427274 1.644679140624442 -3.615939852239382 -1.4333937631188989 0.00901731837468743
514 2.949981905108413 -1.2448549735980845 1.6435832348911947 -3.6145013968520736 -1.432732695944575 0.009709650706000179
515 2.949843130902156 -1.2444000244237907 1.6424861739030463 -3.613059829691688 -1.4320764320261978 0.010392721137285042
516 2.9497062580947833 -1.243945289625682 1.6413879858088758 -3.611615230331288 -1.4314249424074355 0.011066535889308537
517 2.9495712695076604 -1.2434907669259978 1.6402886986999432 -3.6101676782139145 -1.4307781984448213 0.01173110141738353
518 2.9494381481184675 -1.2430364540480485 1.6391883406098842 -3.608717252651481 -1.4301361718049823 0.01238642441172189
519 2.949306877060467 -1.2425823487163379 1.6380869395146846 -3.60726403282363 -1.4294988344618578 0.013032511797801813
520 2.949177439621763 -1.242128448656685 1.6369845233326463 -3.605808097776565 -1.4288661586939093 0.013669370736748987
521 2.949049819244557 -1.2416747515963482 1.6358811199243317 -3.604349526421851 -1.4282381170813228 0.014297008625730879
522 2.9489239995243905 -1.2412212552641493 1.6347767570924967 -3.6028883975351804 -1.4276146825032017 0.014915433098363308
523 2.9487999642093823 -1.2407679573905985 1.6336714625820081 -3.601424789755117 -1.4269958281347537 0.015524652025128639
524 2.948677697199455 -1.24031485570802 1.6325652640797454 -3.5999587815818055 -1.4263815274444682 0.016124673513804744
525 2.9485571825455557 -1.239861947950678 1.6314581892144884 -3.5984904513756555 -1.425771754191289 0.016715505909904043
526 2.948438404448866 -1.239409231854905 1.6303502655567907 -3.597019877355994 -1.425166482421779 0.01729715779712187
527 2.9483213472600034 -1.2389567051592278 1.6292415206188382 -3.595547137599695 -1.424565686467277 0.01786963799779336
528 2.948205995478216 -1.238504365604496 1.6281319818542948 -3.5940723100397767 -1.4239693409410537 0.01843295557335826
529 2.948092333750566 -1.2380522109340106 1.6270216766581307 -3.592595472463975 -1.4233774207354541 0.01898711982483273
530 2.9479803468711046 -1.2376002388936527 1.6259106323664418 -3.5911167025132893 -1.4227899010190412 0.0195321402932876
531 2.947870019780042 -1.2371484472320127 1.6247988762562502 -3.5896360776805025 -1.4222067572337307 0.020068026760332248
532 2.9477613375629024 -1.2366968337005197 1.6236864355452947 -3.588153675308675 -1.421627965091922 0.020594789248603435
533 2.947654285449677 -1.2362453960535724 1.6225733373918065 -3.586669572589615 -1.4210535005736227 0.02111243802225833
534 2.9475488488139625 -1.2357941320486674 1.6214596088942712 -3.585183846562321 -1.420483339923571 0.021620983587471124
535 2.947445013172098 -1.2353430394465303 1.6203452770911788 -3.583696574111403 -1.4199174596483517 0.022120436692932406
536 2.9473427641822854 -1.2348921160112465 1.6192303689607594 -3.582207831965478 -1.419355836513509 0.022610808330350715
537 2.947242087643708 -1.2344413595103902 1.618114911420707 -3.580717696695543 -1.4187984475406556 0.02309210973495553
538 2.9471429694956393 -1.2339907677151563 1.6169989313278896 -3.5792262447133223 -1.4182452700045771 0.02356435238600103
539 2.9470453958165415 -1.23354033840049 1.6158824554780484 -3.5777335522695988 -1.417696281430334 0.024027548007269937
540 2.9469493528231587 -1.2330900693452167 1.6147655106054823 -3.5762396954525153 -1.4171514595903596 0.024481708567576862
541 2.9468548268696004 -1.2326399583321739 1.6136481233827238 -3.5747447501858596 -1.4166107825015564 0.024926846281270336
542 2.9467618044464197 -1.2321900031483393 1.6125303204201975 -3.573248792227324 -1.4160742284223877 0.025362973608733047
543 2.94667027217968 -1.2317402015849617 1.6114121282658729 -3.5717518971667506 -1.4155417758499693 0.025790103256879505
544 2.9465802168300192 -1.2312905514376904 1.6102935734049 -3.5702541404243475 -1.4150134035171558 0.026208248179650565
545 2.946491625291703 -1.230841050506705 1.6091746822592368 -3.5687555972488942 -1.4144890903896268 0.026617421578504188
546 2.946404484591671 -1.2303916965968433 1.6080554811872647 -3.5672563427159205 -1.4139688156629724 0.0270176369029018
547 2.9463187818885794 -1.2299424875177312 1.606935996483392 -3.56575645172587 -1.4134525587597742 0.027408907850789577
548 2.9462345044718328 -1.2294934210839101 1.6058162543776466 -3.564255999002245 -1.412940299326687 0.027791248369074196
549 2.9461516397606102 -1.229044495114965 1.6046962810352585 -3.562755059089733 -1.4124320172315201 0.028164672654092282
550 2.946070175302887 -1.228595707435652 1.603576102556231 -3.561253706352314 -1.4119276925603148 0.028529195152073108
551 2.945990098774448 -1.2281470558760244 1.6024557449749017 -3.5597520149713566 -1.4114273056144249 0.028884830559593875
552 2.9459113979778935 -1.2276985382715597 1.6013352342594935 -3.558250058943687 -1.4109308369075941 0.029231593824027045
553 2.9458340608416447 -1.2272501524632857 1.6002145963116554 -3.5567479120796537 -1.4104382671630356 0.029569500143979126
554 2.9457580754189348 -1.2268018962979037 1.5990938569659925 -3.555245648001168 -1.4099495773105106 0.029898564969720414
555 2.945683429886802 -1.226353767627915 1.5979730419895875 -3.5537433401397336 -1.4094647484834075 0.030218804003605076
556 2.945610112545073 -1.2259057643117437 1.596852177081512 -3.552241061734461 -1.4089837620158217 0.030530233200481083
557 2.945538111815343 -1.2254578842138597 1.5957312878723304 -3.5507388858300666 -1.4085065994396375 0.03083286876808947
558 2.9454674162399472 -1.2250101252049015 1.5946103999235903 -3.549236885274858 -1.4080332424816104 0.03112672716745234
559 2.945398014480932 -1.2245624851617973 1.5934895387273096 -3.547735132718707 -1.4075636730604513 0.03141182511324923
560 2.94532990657824 -1.224116131212132 1.5923724503992465 -3.5462370362583266 -1.4070981266313147 0.031688179574181144
561 2.9452630871270378 -1.2236730521073234 1.5912651497966477 -3.544748323388241 -1.4066370081664805 0.031955815910799434
562 2.945197510932377 -1.2232332464514521 1.5901668647972471 -3.543269029240733 -1.406180291430411 0.032214776871936614
563 2.945133136041409 -1.2227967041866412 1.5890770483397263 -3.541799161730374 -1.4057279490369736 0.0324651132392363
564 2.945069923427038 -1.2223634093920883 1.5879953084307379 -3.5403387103896864 -1.4052799524905542 0.032706881128751995
565 2.9450078367109067 -1.2219333422079106 1.586921359982639 -3.538887652438409 -1.404836272261775 0.03294014013868148
566 2.944946841918837 -1.221506480156857 1.5858549916713303 -3.5374459569500445 -1.4043968778819087 0.03316495207899583
567 2.9448869072635238 -1.2210827990517763 1.5847960431284724 -3.536013587709804 -1.4039617380456315 0.0333813801012346
568 2.9448280029504352 -1.220662273618133 1.5837443892442395 -3.5345905051726256 -1.4035308207155095 0.033589488103483216
569 2.9447701010037406 -1.2202448779205275 1.5826999293625472 -3.5331766678023975 -1.4031040932241055 0.03378934032457205
570 2.9447131751096913 -1.2198305856544345 1.581662579842663 -3.5317720329857583 -1.4026815223712585 0.03398100106837484
571 2.9446572004753544 -1.219419370345274 1.5806322689372 -3.530376557653497 -1.402263074515184 0.034164534517541784
572 2.9446021537009353 -1.219011205483789 1.5796089332640424 -3.5289901987010492 -1.401848715656754 0.0343400046086972
573 2.944548012664202 -1.2186060646176653 1.5785925153751181 -3.5276129132710152 -1.4014384115167782 0.034507474949862636
574 2.94449475641573 -1.2182039214131053 1.5775829620800015 -3.526244658940981 -1.4010321276063884 0.034667008766871704
575 2.9444423650838636 -1.2178047496957867 1.5765802232890003 -3.524885393846408 -1.4006298292908075 0.034818668869673074
576 2.9443908197884068 -1.2174085234776935 1.575584251213796 -3.523535076759049 -1.4002314818468735 0.034962517632259646
577 2.944340102562199 -1.2170152169742756 1.5745949998142128 -3.522193667134962 -1.399837050514746 0.03509861698191587
578 2.9442901962798023 -1.2166248046150063 1.5736124244144343 -3.5208611251417845 -1.399446500544233 0.03522702839481977
579 2.944241084592621 -1.2162372610494407 1.5726364814359122 -3.519537411671912 -1.3990597972361758 0.03534781289596108
580 2.9441927518698447 -1.215852561150221 1.5716671282106471 -3.518222488346143 -1.398676905979315 0.03546103106197312
581 2.9441451831446663 -1.2154706800140216 1.5707043228498592 -3.51691631751091 -1.3982977922830342 0.03556674302591395
582 2.9440983640652765 -1.2150915929611168 1.5697480241508461 -3.515618862231253 -1.3979224218063606 0.035665008483333586
583 2.9440522808501903 -1.2147152755340311 1.5687981915301905 -3.514330086280988 -1.3975507603835635 0.03575588669917127
584 2.9440069202475088 -1.2143417034955966 1.5678547849751652 -3.513049954131093 -1.3971827740466751 0.03583943651516961
585 2.943962269497743 -1.2139708528266289 1.566917765007731 -3.5117784309369755 -1.3968184290452224 0.03591571635759075
586 2.9439183162998765 -1.2136026997233738 1.5659870926572548 -3.5105154825251015 -1.3964576918634424 0.03598478424508694
587 2.943875048780363 -1.213237220594821 1.5650627294392911 -3.5092610753792886 -1.3961005292352218 0.036046697796625136
588 2.943832455464794 -1.2128743920599545 1.5641446373385934 -3.508015176626882 -1.3957469081569835 0.0361015142393966
589 2.943790525251988 -1.2125141909449817 1.563232778795086 -3.50677775402495 -1.3953967958987255 0.03614929041666527
590 2.9437492473902775 -1.2121565942805739 1.5623271166919286 -3.505548775946594 -1.3950501600133896 0.03619008279552345
591 2.943708611455797 -1.2118015792991332 1.5614276143450703 -3.504328211367425 -1.3947069683447328 0.03622394747453406
592 2.9436686073325857 -1.2114491234321025 1.5605342354938707 -3.5031160298522552 -1.394367189033848 0.03625094019124595
593 2.943629225194339 -1.2110992043073214 1.5596469442925094 -3.5019122015420145 -1.3940307905244713 0.03627111632957382
594 2.943590455487659 -1.210751799746435 1.5587657053019752 -3.500716697140912 -1.3936977415672018 0.0362845309270375
595 2.943552288916674 -1.2104068877623555 1.5578904834824985 -3.4995294879038426 -1.3933680112227438 0.036291238681858094
596 2.943514716428888 -1.210064446556779 1.5570212441863305 -3.4983505456240422 -1.3930415688642728 0.03629129395990984
597 2.943477729202165 -1.2097244545177543 1.5561579531507987 -3.497179842620985 -1.39271838417902 0.03628475080152783
598 2.9434413186327344 -1.2093868902173066 1.5553005764915926 -3.4960173517285216 -1.392398427169155 0.03627166292817239
599 2.943405476324133 -1.20905173240911 1.5544490806962412 -3.4948630462832533 -1.3920816681520418 0.0362520837489516
600 2.943370194076992 -1.208718960026211 1.5536034326177615 -3.4937169001131316 -1.3917680777599408 0.036226066367003665
601 2.943335463879601 -1.2083885521788003 1.5527635994684563 -3.4925788875262835 -1.391457626939211 0.03619366358574109
602 2.9433012778991734 -1.2080604881520305 1.5519295488138491 -3.4914489833000477 -1.3911502869490742 0.036154927914958904
603 2.943267628473755 -1.2077347474038787 1.5511012485667464 -3.490327162670224 -1.390846029359988 0.03610991157680917
604 2.943234508104715 -1.2074113095630516 1.5502786669814166 -3.489213401320523 -1.390544826051673 0.036058666511643994
605 2.9432019094497743 -1.2070901544269348 1.5494617726478825 -3.488107675372211 -1.390246649210837 0.036001244383729515
606 2.9431698253165153 -1.206771261959578 1.548650534486319 -3.487009961373952 -1.3899514713286307 0.03593769658683311
607 2.943138248656338 -1.2064546122897237 1.5478449217415533 -3.4859202362918276 -1.38965926519787 0.03586807424968625
608 2.9431071725588205 -1.2061401857088698 1.5470449039776624 -3.4848384774995393 -1.3893700039100547 0.035792428241325266
609 2.9430765902464513 -1.2058279626693709 1.5462504510726656 -3.483764662768788 -1.389083660852209 0.03571080917631236
610 2.9430464950696975 -1.2055179237825735 1.5454615332133093 -3.4826987702598196 -1.3888002097035719 0.03562326741983914
611 2.943016880502384 -1.2052100498169853 1.5446781208899407 -3.4816407785121357 -1.3885196244321545 0.03552985309271497
612 2.942987740137356 -1.204904321696478 1.5439001848914646 -3.4805906664353703 -1.3882418792911897 0.035430616076242163
613 2.9429590676824 -1.2046007204985216 1.5431276963003888 -3.479548413300315 -1.387966948815486 0.035325606016980475
614 2.942930856956404 -1.2042992274524504 1.5423606264879477 -3.478513998730102 -1.3876948078177074 0.03521487233140276
615 2.942903101885736 -1.2039998239377578 1.5415989471093066 -3.4774874026915312 -1.3874254313845895 0.03509846421044409
616 2.9428757965008203 -1.2037024914824228 1.5408426300988423 -3.476468605486547 -1.3871587948731074 0.03497643062394619
617 2.9428489349329006 -1.2034072117612622 1.540091647665502 -3.47545758774385 -1.3868948739066052 0.034848820324999474
618 2.9428225114109723 -1.2031139665943136 1.5393459722882328 -3.474454330410653 -1.3866336443708982 0.03471568185418436
619 2.9427965202588693 -1.2028227379452427 1.538605576711485 -3.473458814744564 -1.3863750824103582 0.034577063543714065
620 2.942770955892497 -1.2025335079197788 1.5378704339407858 -3.4724710223056046 -1.386119164423989 0.03443301352148058
621 2.9427458128171935 -1.2022462587641753 1.5371405172383807 -3.4714909349483563 -1.3858658670614992 0.0342835797150058
622 2.942721085625219 -1.201960972863696 1.536415800118943 -3.4705185348142296 -1.3856151672193813 0.0341288098552996
623 2.9426967689933554 -1.2016776327411247 1.535696256345349 -3.4695538043238563 -1.385367042036999 0.033968751480626655
624 2.942672857680611 -1.2013962210553004 1.5349818599245169 -3.468596726169604 -1.3851214688926945 0.033803451940183686
625 2.942649346526023 -1.2011167205996742 1.5342725851033097 -3.4676472833082017 -1.384878425399912 0.03363295839768897
626 2.942626230446552 -1.2008391143008903 1.5335684063644985 -3.4667054589534847 -1.38463788940335 0.03345731783488565
627 2.9426035044350582 -1.2005633852173887 1.532869298422787 -3.4657712365692492 -1.384399838975139 0.033276577054960586
628 2.9425811635583585 -1.2002895165380307 1.532175236220895 -3.4648445998622175 -1.3841642524110538 0.03309078268588032
629 2.942559202955353 -1.2000174915807442 1.5314861949256995 -3.463925532775107 -1.3839311082267587 0.032899981183645705
630 2.942537617835226 -1.199747293791192 1.530802149924432 -3.4630140194798105 -1.3837003851540908 0.03270421883546678
631 2.942516403475704 -1.1994789067414589 1.5301230768209337 -3.4621100443706725 -1.3834720621373828 0.032503541762859384
632 2.9424955552213796 -1.1992123141287594 1.5294489514319627 -3.4612135920578724 -1.3832461183298272 0.03229799592466495
633 2.9424750684820884 -1.1989474997741663 1.5287797497835551 -3.4603246473609004 -1.3830225330898833 0.032087627119994994
634 2.942454938731339 -1.198684447621356 1.52811544810744 -3.4594431953021356 -1.3828012859777288 0.03187248099110161
635 2.9424351615047946 -1.1984231417353766 1.527456022837504 -3.4585692211005172 -1.3825823567517572 0.03165260302617553
636 2.9424157323988007 -1.1981635663014298 1.5268014506063095 -3.457702710165307 -1.3823657253651223 0.031428038562072866
637 2.942396647068956 -1.1979057056236757 1.5261517082416571 -3.4568436480899454 -1.3821513719623288 0.031198832786972105
638 2.9423779012287303 -1.1976495441240516 1.5255067727632026 -3.455992020645997 -1.381939276875874 0.030965030742962474
639 2.9423594906481148 -1.1973950663411106 1.524866621379117 -3.4551478137771823 -1.3817294206229351 0.03072667732856503
640 2.942341411152318 -1.1971422569288774 1.5242312314827968 -3.4543110135934985 -1.3815217839021083 0.030483817301187745
641 2.9423236586204924 -1.1968911006557192 1.5236005806496178 -3.453481606365424 -1.3813163475901957 0.030236495279515732
642 2.9423062289844997 -1.1966415824032355 1.5229746466337362 -3.452659578518204 -1.3811130927390438 0.029984755745837897
643 2.942289118227705 -1.1963936871651615 1.522353407364933 -3.4518449166262206 -1.3809120005724311 0.029728643048311104
644 2.9422723223838068 -1.1961474000462902 1.5217368409455019 -3.451037607407443 -1.3807130524830054 0.029468201403163044
645 2.9422558375356935 -1.1959027062614085 1.5211249256471813 -3.4502376377179544 -1.380516230029272 0.029203474896834947
646 2.9422396598143306 -1.195659591134249 1.520517639908127 -3.4494449945465604 -1.3803215149326313 0.028934507488065198
647 2.9422237853976756 -1.1954180400964565 1.5199149623299277 -3.448659665009469 -1.3801288890744674 0.028661343009914974
648 2.942208210509621 -1.195178038686571 1.51931687167466 -3.447881636345048 -1.3799383344932845 0.028384025171736934
649 2.942192931418959 -1.1949395725490233 1.5187233468619843 -3.447110895908658 -1.3797498333818945 0.02810259756108799
650 2.9421779444383778 -1.1947026274331465 1.5181343669662815 -3.4463474311675526 -1.379563368084653 0.027817103645587225
651 2.9421632459234743 -1.1944671891922003 1.5175499112138247 -3.445591229695855 -1.3793789210947451 0.027527586774719892
652 2.9421488322717964 -1.19423324378241 1.5169699589799932 -3.444842279169602 -1.3791964750515182 0.02723409018158848
653 2.9421346999219034 -1.194000777262019 1.5163944897865218 -3.444100567361858 -1.3790160127378652 0.02693665698461185
654 2.942120845352452 -1.1937697757903547 1.5158234832987867 -3.4433660821378953 -1.3788375170776548 0.026635330189173315
655 2.9421072650813005 -1.1935402256269076 1.5152569193231296 -3.442638811450444 -1.3786609711332074 0.026330152689218622
656 2.9420939556646353 -1.1933121131304227 1.5146947778042166 -3.441918743335005 -1.378486358102822 0.02602116726880472
657 2.9420809136961177 -1.1930854247580047 1.514137038822432 -3.4412058659052285 -1.3783136613183467 0.025708416603600192
658 2.942068135806047 -1.1928601470642348 1.5135836825913067 -3.4405001673483566 -1.3781428642427964 0.025391943262338203
659 2.942055618660549 -1.1926362667003005 1.5130346894549822 -3.4398016359207295 -1.3779739504680169 0.02507178970822287
660 2.942043358960774 -1.1924137704131377 1.512490039885707 -3.4391102599433507 -1.3778069037123928 0.02474799830028979
661 2.942031353442123 -1.1921926450445826 1.5119497144813665 -3.438426027797516 -1.3776417078186032 0.024420611294721648
662 2.9420195988734843 -1.1919728775305392 1.5114136939630447 -3.437748927920502 -1.377478346751418 0.024089670846119578
