lar-deeufba/potential_fields_with_aruco/src/custom_codes/csv_files/csv_to_eps/csv_files/REPFORCE_AAPF_OriON.csv
Index Joint1 Joint2 Joint3 Joint4 Joint5 Joint6
0 0.0 0.0 0.0 0.0 0.0 0.0
1 0.0 0.0 0.0 0.0 0.0 0.0
2 0.0 0.0 0.0 0.0 0.0 0.0
3 0.0 0.0 0.0 0.0 0.0 0.0
4 0.0 0.0 0.0 0.0 0.0 0.0
5 0.0 0.0 0.0 0.0 0.0 0.0
6 0.0 0.0 0.0 0.0 0.0 0.0
7 0.0 0.0 0.0 0.0 0.0 0.0
8 0.0 0.0 0.0 0.0 0.0 0.0
9 0.0 0.0 0.0 0.0 0.0 0.0
10 0.0 0.0 0.0 0.0 0.0 0.0
11 0.0 0.0 0.0 0.0 0.0 0.0
12 0.0 0.0 0.0 0.0 0.0 0.0
13 0.0 0.0 0.0 0.0 0.0 0.0
14 0.0 0.0 0.0 0.0 0.0 0.0
15 0.0 0.0 0.0 0.0 0.0 0.0
16 0.0 0.0 0.0 0.0 0.0 0.0
17 0.0 0.0 0.0 0.0 0.0 0.0
18 0.0 0.0 0.0 0.0 0.0 0.0
19 0.0 0.0 0.0 0.0 0.0 0.0
20 0.0 0.0 0.0 0.0 0.0 0.0
21 0.0 0.0 0.0 0.0 0.0 0.0
22 0.0 0.0 0.0 0.0 0.0 0.0
23 0.0 0.0 0.0 0.0 0.0 0.0
24 0.0 0.0 0.0 0.0 0.0 0.0
25 0.0 0.0 0.0 0.0 0.0 0.0
26 0.0 0.0 0.0 0.0 0.0 0.0
27 0.0 0.0 0.0 0.0 0.0 0.0
28 0.0 0.0 0.0 0.0 0.0 0.0
29 0.0 0.0 0.0 0.0 0.0 0.0
30 0.0 0.0 0.0 0.0 0.0 0.0
31 0.0 0.0 0.0 0.0 0.0 0.0
32 0.0 0.0 0.0 0.0 0.0 0.0
33 0.0 0.0 0.0 0.0 0.0 0.0
34 0.0 0.0 0.0 0.0 0.0 0.0
35 0.0 0.0 0.0 0.0 0.0 0.0
36 0.0 0.0 0.0 0.0 0.0 0.0
37 0.0 0.0 0.0 0.0 0.0 0.0
38 0.0 0.0 0.0 0.0 0.0 0.0
39 0.0 0.0 0.0 0.0 0.0 0.0
40 0.0 0.0 0.0 0.0 0.0 0.0
41 0.0 0.0 0.0 0.0 0.0 0.0
42 0.0 0.0 0.0 0.0 0.0 0.0
43 0.0 0.0 0.0 0.0 0.0 0.0
44 0.0 0.0 0.0 0.0 0.0 0.0
45 0.0 0.0 0.0 0.0 0.0 0.0
46 0.0 0.0 0.0 0.0 0.0 0.0
47 0.0 0.0 0.0 0.0 0.0 0.0
48 0.0 0.0 0.0 0.0 0.0 0.0
49 0.0 0.0 0.0 0.0 0.0 0.0
50 0.0 0.0 0.0 0.0 0.0 0.0
51 -1.5978810387618063e-05 4.0540697251745065e-05 2.4160474354611064e-05 -5.450480427935653e-06 -2.5407142966493035e-06 0.0
52 -1.4726396319114087e-05 4.299316011132993e-05 2.4375794678694248e-05 -6.207920679380058e-06 -1.6476291308127564e-06 0.0
53 1.1774234670860382e-05 7.441926307811644e-05 3.4189399839259007e-05 -1.383997132811114e-05 1.2052224143681787e-05 0.0
54 1.5077990444605307e-05 7.114739128972545e-05 2.733960570797744e-05 -1.514394742025307e-05 1.3283398711230727e-05 0.0
55 1.8357324776896753e-05 6.677270109500168e-05 1.9722646030380967e-05 -1.6315861080124608e-05 1.4351398568686465e-05 0.0
56 1.5030044712740384e-05 6.502486401607497e-05 1.2595566357252816e-05 -1.837753742949731e-05 1.2915458889531743e-05 0.0
57 1.8537160218701003e-05 5.9239858424927556e-05 4.3497003937808705e-06 -1.9242587706787777e-05 1.3900217620102549e-05 0.0
58 2.1795774698761776e-05 5.312037404271678e-05 -3.7494111064637627e-06 -1.9919908784066023e-05 1.4687246664980769e-05 0.0
59 1.8026688297850793e-05 4.965177120929308e-05 -1.1882910489054228e-05 -2.171083187385286e-05 1.3004256739120421e-05 0.0
60 2.1357751257819983e-05 4.33491944370568e-05 -1.9229637825312675e-05 -2.202721029062943e-05 1.3750238660960512e-05 0.0
61 2.4323846649918567e-05 3.7194099018494274e-05 -2.6020254173706582e-05 -2.2189063878450063e-05 1.4303485903568829e-05 0.0
62 -6.281034006063851e-06 2.6581136422333928e-05 -6.0375478322403384e-05 -3.079276800953104e-05 2.025094915273665e-06 0.0
63 2.2805074065133715e-05 2.78594913669311e-05 -3.9273632655875525e-05 -2.361169197989987e-05 1.2983110988873492e-05 0.0
64 -6.657982751672958e-06 1.4771272795157135e-05 -7.566643738951164e-05 -3.2050373340614425e-05 9.618536862468436e-07 0.0
65 -4.172891274108212e-06 1.1171412054072123e-05 -8.00368592766799e-05 -3.215715437125982e-05 1.4618300375257209e-06 0.0
66 -1.9006120614249902e-06 7.748738645007593e-06 -8.403516198137084e-05 -3.219204371272848e-05 1.8640896292554474e-06 0.0
67 -5.218400098579427e-06 3.58293529808023e-07 -9.234792761542149e-05 -3.272088884863177e-05 2.52087200026138e-07 0.0
68 -2.959928846550816e-06 -2.301256058912108e-06 -9.51584092698043e-05 -3.261194244803218e-05 6.89175782299292e-07 0.0
69 -9.00863768896768e-07 -4.783857597442671e-06 -9.769564540788666e-05 -3.246836644166743e-05 1.0464453280570036e-06 0.0
70 9.788853576595773e-07 -7.083590205916563e-06 -9.99776481097357e-05 -3.2298591202151194e-05 1.335766840697695e-06 0.0
71 2.6987194632654513e-06 -9.20097869568418e-06 -0.00010202287650872555 -3.2108799601479374e-05 1.5677077264084957e-06 0.0
72 -8.565549959182606e-07 -1.5338249392468714e-05 -0.0001078472090163238 -3.224681457184498e-05 6.860609704966414e-08 0.0
73 8.962491507684084e-07 -1.6751842797690282e-05 -0.00010901020354968107 -3.2005058865157306e-05 3.6810599998075507e-07 0.0
74 2.5112226455250474e-06 -1.8043508650123286e-05 -0.00011004341864574832 -3.175927967923894e-05 6.210485654617282e-07 0.0
75 4.004705417294291e-06 -1.9216750234614688e-05 -0.00011095594827166826 -3.151099214503341e-05 8.349684889499226e-07 0.0
76 5.3906742357817095e-06 -2.0276408807319723e-05 -0.00011175591062001817 -3.1260909325641785e-05 1.0161400645567276e-06 0.0
77 1.7085626476265521e-06 -2.53420108828037e-05 -0.0001156965673083199 -3.1165882230086366e-05 -3.6391928101616814e-07 0.0
78 3.1592352146626726e-06 -2.5834591085675262e-05 -0.00011587600597191955 -3.090647396452869e-05 -1.0542782989742963e-07 0.0
79 4.518131371388543e-06 -2.627258121204685e-05 -0.00011601746658935527 -3.064975144544727e-05 1.253467892500853e-07 0.0
80 5.794937364574482e-06 -2.66568413467988e-05 -0.00011612026490248766 -3.0394822132810913e-05 3.324697980641921e-07 0.0
81 6.997524889934647e-06 -2.6988804179271263e-05 -0.00011618394513741613 -3.014071540539949e-05 5.192125222093632e-07 0.0
82 8.132250064759934e-06 -2.7270252092702353e-05 -0.00011620848619790717 -2.9886524075946748e-05 6.882017463128099e-07 0.0
83 4.237565394384113e-06 -3.145419203535317e-05 -0.00011862937448526779 -2.964259904058607e-05 -6.458742311240923e-07 0.0
84 4.436797770705769e-06 -4.328323849124269e-05 -0.00012840426826221096 -2.9142579854972997e-05 -2.3275121559774865e-06 0.0
85 -1.8432346322167693e-05 -2.588151215446575e-05 -9.408411381199229e-05 -2.2746265714972705e-05 -8.778119047769695e-06 0.0
86 -1.719034643075219e-05 -2.9595212711388187e-05 -9.724498185450665e-05 -2.253808032255386e-05 -8.975127950439128e-06 0.0
87 -1.882876119759019e-05 -1.1954172627617797e-05 -4.660016941418985e-05 -1.1444741003649007e-05 -7.543007325724759e-06 0.0
88 -1.7533393415486e-05 -1.1920361135987648e-05 -4.735752212978765e-05 -1.1618222552913476e-05 -7.1056808188937765e-06 0.0
89 -1.6320149082371752e-05 -1.1895918004714753e-05 -4.808878680066668e-05 -1.1777040080380102e-05 -6.701413551887828e-06 0.0
90 -1.518021475093907e-05 -1.1886015525680902e-05 -4.878835089721276e-05 -1.191765096318616e-05 -6.327745715935795e-06 0.0
91 -1.410841480570243e-05 -1.1892765890202066e-05 -4.945209833203209e-05 -1.2038134254119665e-05 -5.983048518197008e-06 0.0
92 -1.3101664056283302e-05 -1.1916390510856042e-05 -5.007769506764599e-05 -1.2137833743556805e-05 -5.666110756241053e-06 0.0
93 -1.2157996320835218e-05 -1.1955964842750213e-05 -5.066433390770803e-05 -1.2216986200230886e-05 -5.375896991699996e-06 0.0
94 -1.5172013930724619e-05 -1.2617253434318192e-05 -4.685129241205407e-05 -1.100160831893187e-05 -6.372951593676287e-06 0.0
95 -1.425012267254563e-05 -1.2190914211020717e-05 -4.7599383254307796e-05 -1.1266656170890318e-05 -6.000921515307341e-06 0.0
96 -1.3333542527319808e-05 -1.1886081130184003e-05 -4.824569000111973e-05 -1.1459719530402833e-05 -5.651956804304495e-06 0.0
97 -1.2441695917147164e-05 -1.1679847054580123e-05 -4.8825982601289906e-05 -1.1599948244821587e-05 -5.329014392547361e-06 0.0
98 -1.1587407925073085e-05 -1.1551333458233773e-05 -4.935857025210526e-05 -1.1699926967217133e-05 -5.0331315726322405e-06 0.0
99 -1.0778834318832846e-05 -1.148288732301198e-05 -4.985292724078329e-05 -1.1768227140852449e-05 -4.764183001964982e-06 0.0
100 -1.0020850280409087e-05 -1.1460194370120302e-05 -5.0314211922893527e-05 -1.181091066715286e-05 -4.521360012582785e-06 0.0
101 -9.316046901684297e-06 -1.1471944436852045e-05 -5.0745565968364916e-05 -1.1832421455014101e-05 -4.303474117468075e-06 0.0
102 -8.665442595203203e-06 -1.1509358110321937e-05 -5.1149244354680425e-05 -1.183612282432667e-05 -4.109148289034949e-06 0.0
103 -8.068988106326386e-06 -1.156571392761048e-05 -5.152714296215708e-05 -1.1824629160412856e-05 -3.93693622002247e-06 0.0
104 -7.525923013337853e-06 -1.1635931057855074e-05 -5.188102332968367e-05 -1.1800016449266571e-05 -3.7853953521131825e-06 0.0
105 -2.9510236217003962e-05 7.045264199181847e-06 -3.6501329399180793e-06 -2.3974822194854192e-06 -8.141950872736732e-06 0.0
106 -2.8815095066121947e-05 7.284036319777919e-06 -3.990791773312766e-06 -2.486913164432786e-06 -7.756972013145486e-06 0.0
107 -2.8172384973059128e-05 7.5275317785422106e-06 -4.222487760789145e-06 -2.54294499250106e-06 -7.3917790809059505e-06 0.0
108 -9.064897691036533e-06 -1.1195269132373853e-05 -4.9133165618599454e-05 -1.0981999640409732e-05 -4.046669033741273e-06 0.0
109 -8.534881372081363e-06 -1.1095464516884242e-05 -4.9455765220714634e-05 -1.0983066263854118e-05 -3.851332726294732e-06 0.0
110 -8.05104845726915e-06 -1.1054543850479658e-05 -4.977258804462281e-05 -1.0967084698062844e-05 -3.682031166803652e-06 0.0
111 -7.615045228637078e-06 -1.1056299787824026e-05 -5.008253323291775e-05 -1.0937759763094195e-05 -3.536061483255472e-06 0.0
112 -7.227107043334356e-06 -1.108881605431998e-05 -5.0383929611754276e-05 -1.0897549521431967e-05 -3.4110022147644534e-06 0.0
113 -6.886570593225129e-06 -1.1143492617823767e-05 -5.06753243316124e-05 -1.0848165367906246e-05 -3.304726011546676e-06 0.0
114 -6.5922216652258295e-06 -1.1214226043584927e-05 -5.0955692080710824e-05 -1.0790850561196423e-05 -3.2153825738890445e-06 0.0
115 -6.342525699261233e-06 -1.1296763103599631e-05 -5.122441120675328e-05 -1.0726540584752847e-05 -3.141369441995083e-06 0.0
116 -6.135777299478107e-06 -1.138820863206847e-05 -5.1481163839576696e-05 -1.0655959421954906e-05 -3.0812998190548017e-06 0.0
117 -5.970194920814527e-06 -1.1486658369853995e-05 -5.172582667790624e-05 -1.0579680273618403e-05 -3.0339719095380986e-06 0.0
118 -5.84397907578087e-06 -1.159092821942379e-05 -5.195837735013209e-05 -1.0498165988014776e-05 -2.998341662936653e-06 0.0
119 -5.755346578997577e-06 -1.1700355745768059e-05 -5.2178822892985836e-05 -1.0411797533810845e-05 -2.9734994332859265e-06 0.0
120 -5.7025492258156e-06 -1.1814654838207263e-05 -5.2387149463657425e-05 -1.032089515772004e-05 -2.9586503784280573e-06 0.0
121 -5.683882474382265e-06 -1.1933809017953333e-05 -5.2583289903101275e-05 -1.0225734868102569e-05 -2.95309812469622e-06 0.0
122 -5.697687802101181e-06 -1.205799259861616e-05 -5.2767105363602715e-05 -1.0126561774928343e-05 -2.9562311328616125e-06 0.0
123 -5.74235115128702e-06 -1.2187511787247447e-05 -5.293837759952479e-05 -1.0023601184142162e-05 -2.9675112159598693e-06 0.0
124 -5.816299055900447e-06 -1.232275997795633e-05 -5.3096809124560194e-05 -9.917067975690125e-06 -2.9864637207972234e-06 0.0
125 -5.917993505389861e-06 -1.2464183088743562e-05 -5.324202903023558e-05 -9.807174574978533e-06 -3.0126689614017748e-06 0.0
126 -8.764284077147976e-06 -3.5547611143575915e-05 -0.00010199802185075406 -1.7568262376742486e-05 -8.088118500013812e-06 0.0
127 -8.884899904270613e-06 -3.566392931744824e-05 -0.00010210649669118792 -1.739946571329818e-05 -8.130921054669464e-06 0.0
128 -9.028534111149437e-06 -3.5796699612017144e-05 -0.00010220400211681683 -1.7227263919611144e-05 -8.18010286731293e-06 0.0
129 -9.193509527738913e-06 -3.594453403152658e-05 -0.00010228905783119435 -1.7052041815357416e-05 -8.234923232965093e-06 0.0
130 -9.378260866235832e-06 -3.610651855042764e-05 -0.00010236042549198907 -1.687419388079333e-05 -8.294806819814797e-06 0.0
131 -9.581301287653756e-06 -3.62820545312726e-05 -0.00010241705376490939 -1.6694131923202366e-05 -8.359297692257036e-06 0.0
132 -9.801198642566129e-06 -3.647074559302186e-05 -0.00010245804466315611 -1.6512289708142855e-05 -8.428025545747078e-06 0.0
133 -1.0036558855601992e-05 -3.667231623648484e-05 -0.00010248263438620727 -1.6329125335674164e-05 -8.500680582142351e-06 0.0
134 -1.028601460668587e-05 -3.6886552656440724e-05 -0.0001024901837128896 -1.6145121842537774e-05 -8.576994484148376e-06 0.0
135 -1.0548217967158115e-05 -3.711325908733551e-05 -0.00010248017439784368 -1.5960786339016528e-05 -8.65672569438021e-06 0.0
136 -1.0821836018559336e-05 -3.7352225087476894e-05 -0.00010245220904869029 -1.5776647891172487e-05 -8.73964774470864e-06 0.0
137 -1.1105548750090852e-05 -3.760320061705911e-05 -0.0001024060127082657 -1.559325430535136e-05 -8.825539772074772e-06 0.0
138 -1.1398048724047082e-05 -3.786587678852181e-05 -0.00010234143490501649 -1.541116794486215e-05 -8.914178639872595e-06 0.0
139 -1.1698042137014715e-05 -3.813987089134493e-05 -0.00010225845132219812 -1.5230960698405005e-05 -9.005332289818826e-06 0.0
140 -1.200425100331747e-05 -3.842471480695381e-05 -0.00010215716451589406 -1.5053208220122003e-05 -9.098754099783315e-06 0.0
141 -1.2315416256970107e-05 -3.871984629495738e-05 -0.00010203780331442298 -1.4878483568497188e-05 -9.194178133684422e-06 0.0
142 -1.2630301616987014e-05 -3.902460289170901e-05 -0.00010190072067999251 -1.4707350383519977e-05 -9.291315250748544e-06 0.0
143 -1.2947698093467086e-05 -3.933821834397709e-05 -0.00010174638992349311 -1.4540355757003315e-05 -9.389850099986056e-06 0.0
144 -1.3266429031793144e-05 -3.965982162181574e-05 -0.00010157539924635665 -1.437802296834989e-05 -9.489439065695709e-06 0.0
145 -1.3585355601483556e-05 -3.998843862541336e-05 -0.00010138844464726813 -1.4220844275843779e-05 -9.589709253113459e-06 0.0
146 -1.3903345966890579e-05 -4.032292773304887e-05 -0.00010118634387466521 -1.4069263628231165e-05 -9.690229928405905e-06 0.0
147 -1.4219263860897858e-05 -4.0661959691846536e-05 -0.0001009700457594033 -1.3923660125934342e-05 -9.79050158855223e-06 0.0
148 -1.4532205838169186e-05 -4.100449328261147e-05 -0.00010074047691585517 -1.3784410103647461e-05 -9.890152920418177e-06 0.0
149 -1.4841304939180568e-05 -4.1349344751166755e-05 -0.00010049862557806934 -1.3651834948599333e-05 -9.98876169612282e-06 0.0
150 -1.5145742282722238e-05 -4.169522373991533e-05 -0.00010024553360825921 -1.3526196646687317e-05 -1.0085867158919677e-05 0.0
151 -1.5444757075380566e-05 -4.2040766426654615e-05 -9.998228572777409e-05 -1.3407694671427246e-05 -1.0180981773793845e-05 0.0
152 -1.573765516754977e-05 -4.238456699293457e-05 -9.970999688294088e-05 -1.3296464367316233e-05 -1.0273602713463115e-05 0.0
153 -1.6023816149729348e-05 -4.272520784950855e-05 -9.942979846549888e-05 -1.3192576910474591e-05 -1.0363223200223536e-05 0.0
154 -1.6302698901962207e-05 -4.3061288534687564e-05 -9.914282397788262e-05 -1.3096040848013472e-05 -1.0449343633159316e-05 0.0
155 -1.657384547681456e-05 -4.339145285302211e-05 -9.88501946449735e-05 -1.3006805131071804e-05 -1.0531482294979171e-05 0.0
156 -1.6836883206144622e-05 -4.371441362490683e-05 -9.855300541021876e-05 -1.292476347390827e-05 -1.0609185351773477e-05 0.0
157 -1.7091524966427218e-05 -4.402897436005529e-05 -9.825231170331151e-05 -1.2849759801840153e-05 -1.0682035830232624e-05 0.0
158 4.878745135761556e-06 -1.908240976706503e-05 -5.2895718576020255e-05 -6.638013693110967e-06 -1.3480410403914786e-06 0.0
159 4.667062286044556e-06 -1.9167101532356674e-05 -5.288843561075968e-05 -6.6035315199591e-06 -1.351593489892341e-06 0.0
160 4.45913288472331e-06 -1.9244795823812334e-05 -5.288054426970523e-05 -6.571557353734106e-06 -1.349697128232827e-06 0.0
161 4.253656300499825e-06 -1.9317293085972834e-05 -5.287275081470612e-05 -6.5424335195531815e-06 -1.3432480533337046e-06 0.0
162 4.050616746228926e-06 -1.9384756335686906e-05 -5.2865179522248876e-05 -6.516055278187999e-06 -1.3324805462607005e-06 0.0
163 3.8500017295748205e-06 -1.944730180044396e-05 -5.285789462550294e-05 -6.492303876853259e-06 -1.3176167136769011e-06 0.0
164 3.6517955584536972e-06 -1.9505023589148257e-05 -5.285090872133741e-05 -6.471050727672111e-06 -1.2988753194881962e-06 0.0
165 3.4559760020359887e-06 -1.9558009761856144e-05 -5.284418951793727e-05 -6.45216088050085e-06 -1.2764770811734382e-06 0.0
166 3.2625131033321905e-06 -1.9606352214470793e-05 -5.28376654833607e-05 -6.435495868601118e-06 -1.250647450405713e-06 0.0
167 3.0713694068504487e-06 -1.9650152171492654e-05 -5.283123074255436e-05 -6.420915999494448e-06 -1.221617639034999e-06 0.0
168 2.8825010640546815e-06 -1.9689522620684963e-05 -5.282474943536377e-05 -6.408282160300021e-06 -1.1896244579036873e-06 0.0
169 2.695859429183492e-06 -1.972458868014026e-05 -5.2818059663402055e-05 -6.397457204362445e-06 -1.154909389348697e-06 0.0
170 2.511392871239108e-06 -1.9755486628670658e-05 -5.2810977101529255e-05 -6.388306982805588e-06 -1.1177172023427077e-06 0.0
171 2.3290486135357493e-06 -1.9782362132925675e-05 -5.280329831858075e-05 -6.380701080419719e-06 -1.078294333534449e-06 0.0
172 2.148774476496659e-06 -1.980536805401608e-05 -5.279480383426173e-05 -6.374513310082609e-06 -1.0368871918952215e-06 0.0
173 1.970520447132831e-06 -1.982466210187174e-05 -5.278526092978222e-05 -6.369622014034315e-06 -9.937404948197594e-07 0.0
174 1.7942400334648228e-06 -1.9840404519055574e-05 -5.277442622552149e-05 -6.365910214129967e-06 -9.490957059830189e-07 0.0
175 1.619891386925142e-06 -1.9852755911183263e-05 -5.276204803762426e-05 -6.363265647024377e-06 -9.03189617390838e-07 0.0
176 1.4474381928086238e-06 -1.98618752936544e-05 -5.2747868525533226e-05 -6.361580714361693e-06 -8.562530977841519e-07 0.0
177 1.2768503399801014e-06 -1.9867918390270863e-05 -5.273162564318966e-05 -6.360752372639733e-06 -8.08510015175105e-07 0.0
178 1.1081043878043577e-06 -1.9871036195433024e-05 -5.271305490745599e-05 -6.360681982600705e-06 -7.601763314448737e-07 0.0
179 9.411838518299239e-07 -1.9871373795505575e-05 -5.2691890997947664e-05 -6.361275133812326e-06 -7.114593605160983e-07 0.0
180 7.760793310693105e-07 -1.9869069434661402e-05 -5.266786920277714e-05 -6.362441456544583e-06 -6.625571777466183e-07 0.0
181 9.013619505450897e-07 7.553203233752263e-06 -3.2639273453746018e-06 5.056558464105468e-07 3.598255342610375e-06 0.0
182 6.657144181282927e-07 7.666271152804095e-06 -3.2339752530955858e-06 5.340987725986786e-07 3.598426725595274e-06 0.0
183 4.3125013845049365e-07 7.7764635110673e-06 -3.2039504132625977e-06 5.624139482107552e-07 3.5963492304425195e-06 0.0
184 1.9807705204619568e-07 7.883695397790777e-06 -3.173480574524694e-06 5.906225821048917e-07 3.5919261518491577e-06 0.0
185 -3.3685599410660124e-08 7.987867811673479e-06 -3.1422557910621034e-06 6.187381500609689e-07 3.5850701967528984e-06 0.0
186 -2.639096126612846e-07 8.088875995557523e-06 -3.1100134213224953e-06 6.467684489825717e-07 3.5757045115388547e-06 0.0
187 -4.924597317207511e-07 8.186615359550934e-06 -3.076527157501122e-06 6.747171145031538e-07 3.5637632961620238e-06 0.0
188 -7.191952364551315e-07 8.280985643052438e-06 -3.041599016881362e-06 7.025847427639321e-07 3.5491921188296334e-06 0.0
189 -9.439712913023185e-07 8.371893792852804e-06 -3.0050535060969374e-06 7.303697204801842e-07 3.53194801341462e-06 0.0
190 -1.166640112725917e-06 8.459255906608395e-06 -2.966733377265526e-06 7.580688401501242e-07 3.5119994188406584e-06 0.0
191 -1.3870519980544729e-06 8.542998496873942e-06 -2.92649654880643e-06 7.856777570474235e-07 3.4893260030636894e-06 0.0
192 -1.605056246709762e-06 8.62305926177106e-06 -2.884213877335788e-06 8.131913296863656e-07 3.463918402289759e-06 0.0
193 -1.8205019963053137e-06 8.699387497712392e-06 -2.8397675507040675e-06 8.406038744072902e-07 3.4357778974622784e-06 0.0
194 -2.033238989850941e-06 8.77194425254315e-06 -2.7930499337585976e-06 8.679093565887442e-07 3.404916043900281e-06 0.0
195 1.9076906824158365e-05 -1.4191188018288886e-05 -4.286608375733774e-05 -5.042072959973474e-06 5.211673200294121e-06 0.0
196 1.8853712895830375e-05 -1.3996856288456517e-05 -4.291316721648261e-05 -5.028125726878568e-06 5.328689429048881e-06 0.0
197 1.862881599898914e-05 -1.3809505243640163e-05 -4.2950404074907744e-05 -5.013877506153147e-06 5.439191015932311e-06 0.0
198 1.8402631792603424e-05 -1.3628962520362813e-05 -4.2977904662387644e-05 -4.999323200674732e-06 5.543280733508086e-06 0.0
199 1.8175529282105934e-05 -1.345507241894303e-05 -4.299570802449126e-05 -4.984455671778908e-06 5.6410413093840715e-06 0.0
200 1.794784202990071e-05 -1.3287689709958918e-05 -4.300380763989304e-05 -4.969266784239862e-06 5.732544297582473e-06 0.0
201 1.7719876271537998e-05 -1.3126674926106471e-05 -4.300217000454588e-05 -4.953748095279422e-06 5.817856566170179e-06 0.0
202 1.7491916757707744e-05 -1.2971890856409036e-05 -4.299074805312059e-05 -4.9378913066862045e-06 5.89704497793467e-06 0.0
203 1.7264230928917393e-05 -1.2823200002188035e-05 -4.296949083808632e-05 -4.921688560174475e-06 5.970179703929012e-06 0.0
204 1.7037071871431735e-05 -1.2680462795289376e-05 -4.2938350492549807e-05 -4.905132629827876e-06 6.03733650461075e-06 0.0
205 1.6810680385731923e-05 -1.2543536415835399e-05 -4.289728721910217e-05 -4.888217047674956e-06 6.098598232931158e-06 0.0
206 1.658528641187828e-05 -1.2412274078264269e-05 -4.2846272841882e-05 -4.870936186372979e-06 6.154055752446253e-06 0.0
207 1.6361109991885376e-05 -1.2286524680652445e-05 -4.278529331062126e-05 -4.853285314792911e-06 6.20380841688858e-06 0.0
208 1.6138361901692418e-05 -1.2166132733771304e-05 -4.2714350437838034e-05 -4.835260636764389e-06 6.247964222220276e-06 0.0
209 1.5917244050189217e-05 -1.2050938503636462e-05 -4.2633463072280245e-05 -4.816859319510686e-06 6.286639715330339e-06 0.0
210 1.5697949716812194e-05 -1.1940778315148716e-05 -4.2542667855114073e-05 -4.798079515810886e-06 6.319959723197438e-06 0.0
211 1.548066368006972e-05 -1.1835484975404051e-05 -4.244201966431333e-05 -4.778920382273458e-06 6.34805695095339e-06 0.0
212 1.526556227521565e-05 -1.1734888283914457e-05 -4.233159182300165e-05 -4.759382095024208e-06 6.371071485654116e-06 0.0
213 1.5052813408852561e-05 -1.1638815603792717e-05 -4.221147612605108e-05 -4.739465863417951e-06 6.389150233783529e-06 0.0
214 1.4842576550548582e-05 -1.1547092473289114e-05 -4.208178272378673e-05 -4.719173941948396e-06 6.402446313888526e-06 0.0
215 1.4635002715873455e-05 -1.1459543241245536e-05 -4.194263989056843e-05 -4.698509640269748e-06 6.411118420741067e-06 0.0
216 3.276578850749403e-05 6.3999613469403505e-06 -2.440753326364035e-06 8.491518579002732e-07 1.0931116187160896e-05 0.0
217 3.251421494329883e-05 6.554049562585958e-06 -2.3204109041398367e-06 8.937868370157764e-07 1.094131412965472e-05 0.0
218 3.2263966044698174e-05 6.6965310339405145e-06 -2.1962747048156052e-06 9.372708160257498e-07 1.0945207163494017e-05 0.0
219 3.201524334349599e-05 6.827992253797584e-06 -2.068129014623445e-06 9.796498378834744e-07 1.0943087313059657e-05 0.0
220 3.176824654223264e-05 6.948950454301412e-06 -1.9358737216363723e-06 1.0209538386382735e-06 1.0935241327118453e-05 0.0
221 3.152317105710934e-05 7.0598729713816e-06 -1.7994925672526804e-06 1.061201609177092e-06 1.0921951994661328e-05 0.0
222 3.1280206262140145e-05 7.16119087725411e-06 -1.6590305001447332e-06 1.1004043296577147e-06 1.0903498871874598e-05 0.0
223 3.1039534247355745e-05 7.253308503074695e-06 -1.5145775198007245e-06 1.1385680774669334e-06 1.0880158601224043e-05 0.0
224 3.0801328956539484e-05 7.336610023598335e-06 -1.366257131058934e-06 1.175695598804859e-06 1.085220495167218e-05 0.0
225 3.0565755606935314e-05 7.411463949080666e-06 -1.2142180633690164e-06 1.2117875533473306e-06 1.0819908671905055e-05 0.0
226 3.0325505203444283e-05 7.4823803108461195e-06 -1.0574764772552897e-06 1.2477311418011578e-06 1.0783125232286695e-05 0.0
227 3.0088434243523034e-05 7.5454027351692745e-06 -8.969962631562243e-07 1.2826402253198705e-06 1.0742414850414827e-05 0.0
228 2.985471354471289e-05 7.600767462510838e-06 -7.331184759155304e-07 1.3164853630854154e-06 1.0698040849456135e-05 0.0
229 2.9624495207282346e-05 7.648739859690403e-06 -5.661458968739451e-07 1.349246411680647e-06 1.0650265518516365e-05 0.0
230 2.9397914700211394e-05 7.689602996635546e-06 -3.963567186708601e-07 1.3809098720084672e-06 1.059934841115358e-05 0.0
231 1.236051306369104e-05 -1.791127642187541e-05 -2.992564170675791e-05 -5.157802351546943e-06 2.3156247635632105e-06 0.0
232 1.2239339474427946e-05 -1.7794074338153027e-05 -2.9604791465005323e-05 -5.132299206797628e-06 2.3138791198316044e-06 0.0
233 1.2121990431340962e-05 -1.768264151164038e-05 -2.9282058075170546e-05 -5.107529328808862e-06 2.3096594192651242e-06 0.0
234 1.2008301311704326e-05 -1.7576775435966644e-05 -2.8958113648276743e-05 -5.083524399065789e-06 2.303186263469241e-06 0.0
235 1.1898157748688546e-05 -1.747626546067764e-05 -2.8633495817219074e-05 -5.060305751293689e-06 2.2946683071164668e-06 0.0
236 1.1791479571732508e-05 -1.7380898790187048e-05 -2.8308649633370485e-05 -5.037887742588772e-06 2.2843039156527475e-06 0.0
237 1.1688209304295232e-05 -1.729046438393583e-05 -2.7983956161320204e-05 -5.016280007936773e-06 2.2722822285039094e-06 0.0
238 1.1588303964648571e-05 -1.720475545819879e-05 -2.7659751882709712e-05 -4.995488959118502e-06 2.2587838289725455e-06 0.0
239 1.1491729259039902e-05 -1.712357105786467e-05 -2.733634175939442e-05 -4.97551877365569e-06 2.2439811591054073e-06 0.0
240 1.1398455505810945e-05 -1.7046717011190603e-05 -2.701400793370119e-05 -4.956372041007572e-06 2.228038773943345e-06 0.0
241 1.1308454810094238e-05 -1.6974006476265596e-05 -2.669301543798032e-05 -4.938050179696257e-06 2.211113499088194e-06 0.0
242 1.1221699140294769e-05 -1.6905260217891758e-05 -2.6373615864629842e-05 -4.920553702450656e-06 2.193354534425035e-06 0.0
243 1.1138159053223755e-05 -1.6840306706629503e-05 -2.6056049654871143e-05 -4.9038823814510875e-06 2.1749035322928085e-06 0.0
244 1.1057802884289508e-05 -1.677898210037855e-05 -2.574054746085376e-05 -4.888035348691202e-06 2.155894668413486e-06 0.0
245 1.098059626967223e-05 -1.6721130148015833e-05 -2.542733089412752e-05 -4.873011154858368e-06 2.1364547170731834e-06 0.0
246 1.090650190410205e-05 -1.666660204085601e-05 -2.5116612875324036e-05 -4.858807802258088e-06 2.1167031374254306e-06 0.0
247 1.0835479464482842e-05 -1.661525622870723e-05 -2.4808597731892527e-05 -4.845422761993914e-06 2.096752174674441e-06 0.0
248 1.0767485648916314e-05 -1.6566958211480025e-05 -2.450348114375707e-05 -4.8328529820500375e-06 2.076706977824617e-06 0.0
249 1.0702474294674619e-05 -1.6521580313595205e-05 -2.420145000438687e-05 -4.8210948905495255e-06 2.0566657343222085e-06 0.0
250 1.0699847633542742e-05 -1.384494795928261e-05 -2.046912931554248e-05 -4.061080931796601e-06 2.2905848144347887e-06 0.0
251 1.0636846986295786e-05 -1.3802112867183001e-05 -2.0189181385573583e-05 -4.048665125115264e-06 2.2694474707212615e-06 0.0
252 1.0576660790781205e-05 -1.3762149640143834e-05 -1.991267928642235e-05 -4.0371020583204464e-06 2.2484642265125504e-06 0.0
253 1.0519256210957981e-05 -1.3724952707607228e-05 -1.963977600022545e-05 -4.026387998268402e-06 2.2277159054925457e-06 0.0
254 1.0464592502687079e-05 -1.3690420099662408e-05 -1.937061520316512e-05 -4.0165180938867375e-06 2.207276368091393e-06 0.0
255 1.0412622976876728e-05 -1.3658453598433649e-05 -1.9105330551388095e-05 -4.0074864698245604e-06 2.1872128993540186e-06 0.0
256 1.0363296456216335e-05 -1.3628958838150358e-05 -1.8844045353334384e-05 -3.999286320492751e-06 2.167586562293009e-06 0.0
257 1.0316558368258012e-05 -1.3601845351585096e-05 -1.8586872479681948e-05 -3.9919099982656345e-06 2.148452524540822e-06 0.0
258 1.0272351576596909e-05 -1.3577026566610281e-05 -1.833391441752433e-05 -3.9853490931951774e-06 2.129860364302103e-06 0.0
259 1.02306170225959e-05 -1.3554419759516973e-05 -1.8085263411313443e-05 -3.97959450364764e-06 2.111854360117933e-06 0.0
260 1.0191294229202146e-05 -1.3533945972743556e-05 -1.784100165601721e-05 -3.974636498375027e-06 2.0944737677568115e-06 0.0
261 1.0154321703522375e-05 -1.3515529904592816e-05 -1.7601201522298018e-05 -3.970464771050249e-06 2.0777530866026158e-06 0.0
262 1.0119637264246493e-05 -1.3499099777887945e-05 -1.7365925802291685e-05 -3.967068488466041e-06 2.0617223171765353e-06 0.0
263 1.0087178312505981e-05 -1.3484587193645404e-05 -1.7135227969784734e-05 -3.96443633357798e-06 2.0464072108757153e-06 0.0
264 1.0056882059431106e-05 -1.3471926974900243e-05 -1.6909152451539037e-05 -3.962556544452898e-06 2.031829512596064e-06 0.0
265 1.0028685719911893e-05 -1.3461057004922186e-05 -1.6687734908098296e-05 -3.961416950027497e-06 2.0180071966078485e-06 0.0
266 1.0002526679404699e-05 -1.3451918063238897e-05 -1.647100252315387e-05 -3.9610050034148694e-06 2.004954695840734e-06 0.0
267 9.978342638751952e-06 -1.344445366217489e-05 -1.6258974300829488e-05 -3.961307813341996e-06 1.9926831245930456e-06 0.0
268 9.956071740657857e-06 -1.3438609886008696e-05 -1.6051661370264817e-05 -3.9623121741633084e-06 1.9812004945892733e-06 0.0
269 9.935652680531243e-06 -1.3434335234348982e-05 -1.5849067296787538e-05 -3.9640045947796684e-06 1.9705119242592434e-06 0.0
270 9.917024803750428e-06 -1.3431580470916162e-05 -1.5651188398824525e-05 -3.966371326696456e-06 1.96061984108985e-06 0.0
271 9.900128190939648e-06 -1.343029847857818e-05 -1.5458014069568498e-05 -3.969398391377798e-06 1.951524176898099e-06 0.0
272 9.884903732522325e-06 -1.3430444121219527e-05 -1.526952710230822e-05 -3.9730716069948485e-06 1.9432225558875856e-06 0.0
273 9.871293193582972e-06 -1.343197411280503e-05 -1.5085704018253471e-05 -3.9773766146203435e-06 1.9357104753724407e-06 0.0
274 9.859239269903454e-06 -1.3434846893822955e-05 -1.4906515395634065e-05 -3.982298903886233e-06 1.928981479080979e-06 0.0
275 9.848685635921308e-06 -1.3439022515162831e-05 -1.4731926198854484e-05 -3.987823838098954e-06 1.9230273229832895e-06 0.0
276 9.839576985269277e-06 -1.3444462529367399e-05 -1.4561896106486672e-05 -3.9939366787867795e-06 1.91783813362008e-06 0.0
277 9.831859064489844e-06 -1.3451129889122634e-05 -1.4396379836932324e-05 -4.000622609644706e-06 1.9134025589424376e-06 0.0
278 9.825478700469106e-06 -1.3458988852781368e-05 -1.4235327470637961e-05 -4.007866759834192e-06 1.90970791170502e-06 0.0
279 9.82038382209268e-06 -1.3468004896670994e-05 -1.407868476781824e-05 -4.015654226592613e-06 1.9067403054842456e-06 0.0
280 9.816523476595329e-06 -1.3478144633899125e-05 -1.3926393480720857e-05 -4.023970097106266e-06 1.9044847834217378e-06 0.0
281 9.813847841045776e-06 -1.3489375739349328e-05 -1.377839165955646e-05 -4.032799469603079e-06 1.902925439817688e-06 0.0
282 9.812308229384413e-06 -1.3501666880539826e-05 -1.3634613951301233e-05 -4.042127473623123e-06 1.9020455347219918e-06 0.0
283 9.81185709540834e-06 -1.35149876540138e-05 -1.3494991890680275e-05 -4.051939289430536e-06 1.9018276016906376e-06 0.0
284 9.812448032076058e-06 -1.352930852692175e-05 -1.3359454182719786e-05 -4.062220166533579e-06 1.9022535488916206e-06 0.0
285 9.814035767485227e-06 -1.3544600783463368e-05 -1.3227926976357389e-05 -4.072955441286647e-06 1.9033047537597429e-06 0.0
286 9.81657615785496e-06 -1.3560836475856156e-05 -1.3100334128675662e-05 -4.084130553551798e-06 1.9049621514107902e-06 0.0
287 9.820026177827456e-06 -1.3577988379511265e-05 -1.2976597459416373e-05 -4.09573106240455e-06 1.9072063170360077e-06 0.0
288 9.82434390838401e-06 -1.359602995210329e-05 -1.285663699550215e-05 -4.10774266087293e-06 1.910017542504536e-06 0.0
289 9.829488522651196e-06 -1.3614935296234062e-05 -1.2740371205371752e-05 -4.1201511897045474e-06 1.9133759074068665e-06 0.0
290 9.835420269858668e-06 -1.3634679125407469e-05 -1.2627717223004133e-05 -4.1329426501626525e-06 1.9172613447762576e-06 0.0
291 9.842100457689142e-06 -1.3655236733039815e-05 -1.251859106156341e-05 -4.146103215854879e-06 1.9216537017262527e-06 0.0
292 9.849491433246961e-06 -1.3676583964251903e-05 -1.24129078166594e-05 -4.159619243604999e-06 1.9265327952426133e-06 0.0
293 9.857556562854493e-06 -1.3698697190200032e-05 -1.231058185927213e-05 -4.1734772833809325e-06 1.9318784633676225e-06 0.0
294 9.866260210870664e-06 -1.3721553284721037e-05 -1.2211527018430246e-05 -4.187664087296746e-06 1.9376706120112145e-06 0.0
295 9.875567717709899e-06 -1.3745129603079111e-05 -1.2115656753778922e-05 -4.202166617709081e-06 1.9438892576207155e-06 0.0
296 9.885445377226596e-06 -1.3769403962619743e-05 -1.202288431820982e-05 -4.216972054432293e-06 1.9505145659364114e-06 0.0
297 9.895860413615465e-06 -1.3794354625149731e-05 -1.1933122910758332e-05 -4.232067801098905e-06 1.957526887054943e-06 0.0
298 9.906780957965864e-06 -1.3819960280875543e-05 -1.1846285819997574e-05 -4.247441490694025e-06 1.96490678701675e-06 0.0
299 9.918176024594164e-06 -1.384620003374623e-05 -1.1762286558186641e-05 -4.26308099029449e-06 1.9726350761273583e-06 0.0
300 9.930015487268884e-06 -1.3873053388061134e-05 -1.1681038986449325e-05 -4.278974405045382e-06 1.9806928342159493e-06 0.0
301 9.94227005542874e-06 -1.3900500236212783e-05 -1.1602457431273192e-05 -4.295110081407154e-06 1.989061433026544e-06 0.0
302 9.954911250487052e-06 -1.3928520847448805e-05 -1.1526456792633534e-05 -4.311476609708223e-06 1.9977225559308025e-06 0.0
303 9.967911382302132e-06 -1.3957095857545866e-05 -1.1452952644058543e-05 -4.3280628260379926e-06 2.006658215143146e-06 0.0
304 9.981243525886995e-06 -1.3986206259299174e-05 -1.1381861324951292e-05 -4.344857813515739e-06 2.0158507666111986e-06 0.0
305 9.994881498421113e-06 -1.401583339374162e-05 -1.1313100025499337e-05 -4.3618509029714635e-06 2.0252829227471644e-06 0.0
306 1.0008799836619921e-05 -1.4045958942012194e-05 -1.124658686449376e-05 -4.3790316730735995e-06 2.0349377631577104e-06 0.0
307 1.0022973774509791e-05 -1.4076564917805692e-05 -1.1182240960387788e-05 -4.396389949939663e-06 2.0447987435220638e-06 0.0
308 1.0037379221648907e-05 -1.4107633660337554e-05 -1.1119982495916917e-05 -4.413915806263702e-06 2.054849702760763e-06 0.0
309 1.0051992741828637e-05 -1.4139147827769558e-05 -1.1059732776604278e-05 -4.431599559995475e-06 2.065074868629603e-06 0.0
310 1.006679153228375e-05 -1.4171090391044291e-05 -1.100141428346568e-05 -4.44943177260419e-06 2.075458861866273e-06 0.0
311 1.0081753403434703e-05 -1.4203444628084198e-05 -1.0944950720226202e-05 -4.467403246959643e-06 2.0859866990098927e-06 0.0
312 1.393038297876065e-07 -1.0132031433441062e-05 1.2728910793831331e-05 -2.9883558802560023e-06 -2.982516580847467e-06 0.0
313 1.5002571691463523e-07 -1.0136040408812699e-05 1.2742364988977382e-05 -3.0080265514917065e-06 -2.9533434118867404e-06 0.0
314 1.6065172864886675e-07 -1.0140087027329382e-05 1.2755763201790776e-05 -3.0275585407721844e-06 -2.9243406295593035e-06 0.0
315 1.7114040109569202e-07 -1.0144199411790808e-05 1.2768848766756416e-05 -3.0469579758228048e-06 -2.895501422889088e-06 0.0
316 1.8146459060000708e-07 -1.014840043130555e-05 1.2781450455975745e-05 -3.06622932910507e-06 -2.8668228707591698e-06 0.0
317 1.9160713998816913e-07 -1.0152708817455845e-05 1.2793457183066283e-05 -3.085375857859082e-06 -2.838304603635844e-06 0.0
318 2.0155786095197126e-07 -1.0157140106280098e-05 1.2804800128729987e-05 -3.1043999500623174e-06 -2.80994789224031e-06 0.0
319 2.1131142839979452e-07 -1.0161707405259314e-05 1.28154400977018e-05 -3.123303391347737e-06 -2.7817550271491072e-06 0.0
320 2.2086590850413048e-07 -1.0166422002065449e-05 1.2825358570909886e-05 -3.1420875676889896e-06 -2.7537288970895573e-06 0.0
321 2.302217279884329e-07 -1.0171293838370515e-05 1.2834551371303814e-05 -3.160753617095229e-06 -2.7258727031552876e-06 0.0
322 2.3938095111838897e-07 -1.0176331872807846e-05 1.2843024179937402e-05 -3.1793025415297962e-06 -2.698189766102801e-06 0.0
323 2.4834677153425127e-07 -1.0181544355210782e-05 1.2850789362556861e-05 -3.1977352882202447e-06 -2.670683397438175e-06 0.0
324 2.5712315424417553e-07 -1.0186939031195518e-05 1.2857863724683822e-05 -3.2160528076748447e-06 -2.6433568142378716e-06 0.0
325 2.6571458267666737e-07 -1.0192523292871209e-05 1.2864266924653176e-05 -3.2342560941379515e-06 -2.6162130839557e-06 0.0
326 2.741258793178841e-07 -1.0198304288390466e-05 1.2870020352943537e-05 -3.2523462129154106e-06 -2.589255089783542e-06 0.0
327 2.8236207795673733e-07 -1.0204289000378891e-05 1.2875146341991857e-05 -3.2703243179588945e-06 -2.5624855100890627e-06 0.0
328 2.904283321849582e-07 -1.0210484301048909e-05 1.2879667610256042e-05 -3.288191662277925e-06 -2.5359068074796607e-06 0.0
329 2.983298494212968e-07 -1.0216896989995635e-05 1.2883606872324219e-05 -3.3059496031129383e-06 -2.509521224431848e-06 0.0
330 3.060718429583735e-07 -1.022353381923614e-05 1.2886986566743588e-05 -3.323599603315469e-06 -2.483330783378859e-06 0.0
331 3.1365949678288295e-07 -1.0230401508933994e-05 1.2889828667316054e-05 -3.341143230011393e-06 -2.457337289804709e-06 0.0
332 3.2109793949539434e-07 -1.023750675638582e-05 1.2892154553588092e-05 -3.3585821513439628e-06 -2.431542337342976e-06 0.0
333 3.283922247550263e-07 -1.0244856240188115e-05 1.2893984923326894e-05 -3.3759181318843142e-06 -2.4059473141883086e-06 0.0
334 3.3554731644227917e-07 -1.025245662100092e-05 1.2895339734786188e-05 -3.3931530271405507e-06 -2.3805534103419983e-06 0.0
335 3.4256807727092665e-07 -1.0260314539951646e-05 1.289623817011002e-05 -3.410288777481269e-06 -2.355361625359695e-06 0.0
336 3.494592599533031e-07 -1.026843661543995e-05 1.2896698613735702e-05 -3.4273274017031915e-06 -2.330372776371069e-06 0.0
337 3.562255002872046e-07 -1.0276829438896114e-05 1.2896738641441077e-05 -3.4442709904094322e-06 -2.305587506211205e-06 0.0
338 3.628713117141741e-07 -1.0285499569891359e-05 1.289637501693852e-05 -3.461121699318525e-06 -2.281006291552346e-06 0.0
339 3.694010810278404e-07 -1.0294453530884574e-05 1.2895623693814537e-05 -3.4778817425902416e-06 -2.2566294509584873e-06 0.0
340 3.7581906500081816e-07 -1.0303697801805841e-05 1.2894499821248586e-05 -3.4945533862289637e-06 -2.2324571528088307e-06 0.0
341 3.821293877609415e-07 -1.0313238814616768e-05 1.2893017752393329e-05 -3.5111389416074097e-06 -2.208489423052957e-06 0.0
342 3.8833603879179853e-07 -1.032308294794368e-05 1.2891191054615824e-05 -3.5276407591402145e-06 -2.184726152772136e-06 0.0
343 3.944428714638869e-07 -1.033323652184638e-05 1.2889032521030056e-05 -3.544061222126882e-06 -2.161167105529632e-06 0.0
344 4.004536020242153e-07 -1.0343705792763229e-05 1.2886554182908842e-05 -3.560402740776811e-06 -2.1378119244987725e-06 0.0
345 4.063718089877329e-07 -1.0354496948656241e-05 1.2883767322679929e-05 -3.576667746423931e-06 -2.114660139362035e-06 0.0
346 4.1220093288525006e-07 -1.0365616104368184e-05 1.2880682487293304e-05 -3.5928586859347685e-06 -2.0917111729774605e-06 0.0
347 4.1794427633010335e-07 -1.0377069297195636e-05 1.2877309501802834e-05 -3.608978016311012e-06 -2.0689643478110306e-06 0.0
348 4.2360500437211963e-07 -1.0388862482675915e-05 1.2873657483051208e-05 -3.625028199485855e-06 -2.0464188921355053e-06 0.0
349 4.291861451112403e-07 -1.0401001530582521e-05 1.2869734853375196e-05 -3.641011697311986e-06 -2.0240739459975398e-06 0.0
350 4.3469059054684956e-07 -1.0413492221120091e-05 1.2865549354270783e-05 -3.6569309667379567e-06 -2.0019285669557906e-06 0.0
351 4.401210976410298e-07 -1.0426340241310029e-05 1.2861108059972951e-05 -3.672788455169372e-06 -1.9799817355936553e-06 0.0
352 4.454802895761087e-07 -1.0439551181554767e-05 1.2856417390918815e-05 -3.6885865960103336e-06 -1.9582323608107908e-06 0.0
353 4.5077065718874325e-07 -1.045313053237035e-05 1.2851483127070242e-05 -3.7043278043808395e-06 -1.9366792848981013e-06 0.0
354 4.5599456056356804e-07 -1.0467083681275305e-05 1.2846310421077412e-05 -3.7200144730051604e-06 -1.91532128840116e-06 0.0
355 4.6115423077122976e-07 -1.0481415909824718e-05 1.2840903811272693e-05 -3.7356489682664546e-06 -1.8941570947773897e-06 0.0
356 4.662517717363982e-07 -1.0496132390778691e-05 1.2835267234485098e-05 -3.751233626422693e-06 -1.873185374852465e-06 0.0
357 4.712891622223806e-07 -1.0511238185394075e-05 1.2829404038671608e-05 -3.766770749978959e-06 -1.8524047510816002e-06 0.0
358 4.762682579197466e-07 -1.0526738240829598e-05 1.2823316995360627e-05 -3.782262604211259e-06 -1.831813801621426e-06 0.0
359 4.811907936272784e-07 -1.0542637387654638e-05 1.2817008311907992e-05 -3.7977114138371573e-06 -1.8114110642183277e-06 0.0
360 4.860583855145255e-07 -1.0558940337452205e-05 1.2810479643565848e-05 -3.813119359828389e-06 -1.7911950399189719e-06 0.0
361 4.908725334554429e-07 -1.057565168050729e-05 1.2803732105366516e-05 -3.828488576360878e-06 -1.7711641966089386e-06 0.0
362 4.956346234240504e-07 -1.0592775883573313e-05 1.279676628382404e-05 -3.8438211478979355e-06 -1.7513169723852012e-06 0.0
363 5.00345929942853e-07 -1.0610317287707287e-05 1.2789582248458668e-05 -3.859119106401777e-06 -1.7316517787682177e-06 0.0
364 5.050076185762203e-07 -1.0628280106167696e-05 1.2782179563149335e-05 -3.874384428669526e-06 -1.7121670037593243e-06 0.0
365 5.032245128070382e-07 -1.0738443635716685e-05 1.2573113807846776e-05 -3.908378802610826e-06 -1.6911252776112932e-06 0.0
366 5.066584899506364e-07 -1.083036969078346e-05 1.2428223842056344e-05 -3.937619309182552e-06 -1.6706281861073819e-06 0.0
367 5.134640067181222e-07 -1.0908872264747744e-05 1.2327903555127466e-05 -3.963267418246065e-06 -1.6505078075883374e-06 0.0
368 5.086634411831729e-07 -1.0958844913011137e-05 1.2258777189460417e-05 -3.979759498677949e-06 -1.6427361185440182e-06 0.0
369 5.05489667121128e-07 -1.1003512152573067e-05 1.2211334240090861e-05 -3.994886573479862e-06 -1.6350582605572456e-06 0.0
370 5.034161117754053e-07 -1.1044614038766163e-05 1.2179113687362858e-05 -4.00908424958321e-06 -1.6274376291721972e-06 0.0
371 5.021070718570681e-07 -1.1083414790794408e-05 1.2157528924441088e-05 -4.022672147493839e-06 -1.6198419881793247e-06 0.0
372 5.01347274305618e-07 -1.1120822530413025e-05 1.2143310385944515e-05 -4.035880703706714e-06 -1.612244242627029e-06 0.0
373 5.009981689064433e-07 -1.1157481650759764e-05 1.213412151339418e-05 -4.04887310393854e-06 -1.604622382797765e-06 0.0
374 5.009703277286643e-07 -1.1193842998341942e-05 1.212829021038618e-05 -4.061762592771006e-06 -1.5969590471373397e-06 0.0
375 5.012057872355167e-07 -1.1230216548375125e-05 1.2124619154341639e-05 -4.074625799307873e-06 -1.589240938113611e-06 0.0
376 5.01666652484093e-07 -1.126681055277875e-05 1.2122250906735816e-05 -4.087512814582362e-06 -1.5814582122056842e-06 0.0
377 5.023277084553541e-07 -1.1303760399973656e-05 1.2120571573953695e-05 -4.100454710887964e-06 -1.573603904138356e-06 0.0
378 5.031716261612677e-07 -1.1341149743495817e-05 1.2119141816346501e-05 -4.1134690928005586e-06 -1.5656734119869004e-06 0.0
379 5.041858627478498e-07 -1.137902587459483e-05 1.2117647366531345e-05 -4.12656415825337e-06 -1.5576640515620693e-06 0.0
380 5.053606728436915e-07 -1.1417410840848683e-05 1.2115863514747698e-05 -4.13974164530194e-06 -1.549574678917806e-06 0.0
381 5.06687850102117e-07 -1.1456309439929887e-05 1.2113629615432011e-05 -4.152998953273239e-06 -1.5414053751917336e-06 0.0
382 5.081599478942139e-07 -1.1495714929963579e-05 1.2110830792740558e-05 -4.166330656859431e-06 -1.5331571861427898e-06 0.0
383 5.097698129756319e-07 -1.1535613079270335e-05 1.2107384820471605e-05 -4.179729576809075e-06 -1.5248319084306897e-06 0.0
384 5.115103218751521e-07 -1.157598501391634e-05 1.2103232721542789e-05 -4.193187528724663e-06 -1.5164319151461253e-06 0.0
385 5.133742468560769e-07 -1.161680919894797e-05 1.2098332040574115e-05 -4.2066958395783055e-06 -1.507960013917478e-06 0.0
386 5.153542030290781e-07 -1.1658062798391913e-05 1.209265203659932e-05 -4.220245697656345e-06 -1.499419331845908e-06 0.0
387 5.174426447141932e-07 -1.1699722592182974e-05 1.2086170254087947e-05 -4.2338283838755095e-06 -1.4908132224268642e-06 0.0
388 5.196318901953888e-07 -1.1741765579062302e-05 1.2078870082509681e-05 -4.247435419283042e-06 -1.4821451904384973e-06 0.0
389 5.219141613895407e-07 -1.1784169358570026e-05 1.207073902417614e-05 -4.261058653901275e-06 -1.4734188314925484e-06 0.0
390 5.242816298676927e-07 -1.1826912359070676e-05 1.2061767468960162e-05 -4.274690315011093e-06 -1.464637783547887e-06 0.0
391 5.267264639280513e-07 -1.1869973959729904e-05 1.2051947831256553e-05 -4.288323027820201e-06 -1.4558056881884292e-06 0.0
392 5.292408735681007e-07 -1.1913334540573879e-05 1.2041273945404266e-05 -4.301949817720904e-06 -1.4469261598784532e-06 0.0
393 5.318171516060313e-07 -1.1956975484806462e-05 1.2029740645175521e-05 -4.3155641006363145e-06 -1.4380027617425777e-06 0.0
394 5.344477101025037e-07 -1.2000879150395333e-05 1.2017343474043471e-05 -4.329159666005293e-06 -1.4290389866882282e-06 0.0
395 5.371251118027543e-07 -1.2045028822788924e-05 1.200407848811899e-05 -4.342730655555631e-06 -1.4200382429066581e-06 0.0
396 5.398420966660463e-07 -1.2089408656956055e-05 1.1989942124521677e-05 -4.356271540017693e-06 -1.4110038429646552e-06 0.0
397 5.425916037519048e-07 -1.2134003614319472e-05 1.197493111576292e-05 -4.369777095219861e-06 -1.4019389958409968e-06 0.0
398 5.45366788839723e-07 -1.2178799398306232e-05 1.1959042436305756e-05 -4.383242378507242e-06 -1.3928468013766953e-06 0.0
399 5.481610382055443e-07 -1.2223782390934105e-05 1.1942273271470375e-05 -4.396662706074367e-06 -1.3837302467012046e-06 0.0
400 5.509679789898027e-07 -1.226893959194361e-05 1.1924621001716606e-05 -4.410033631559463e-06 -1.3745922042723364e-06 0.0
401 5.537814865760771e-07 -1.2314258561359739e-05 1.1906083197372427e-05 -4.423350926082321e-06 -1.3654354312296353e-06 0.0
402 5.565956893752973e-07 -1.235972736593677e-05 1.1886657620338685e-05 -4.4366105597954655e-06 -1.3562625698115887e-06 0.0
403 5.594049713771573e-07 -1.240533452965287e-05 1.1866342230334842e-05 -4.449808684944873e-06 -1.3470761486287848e-06 0.0
404 5.622039727955966e-07 -1.2451068988235246e-05 1.1845135193982646e-05 -4.462941620390593e-06 -1.3378785846195904e-06 0.0
405 5.649875891005835e-07 -1.2496920047574671e-05 1.1823034895554565e-05 -4.476005837508588e-06 -1.3286721855435327e-06 0.0
406 5.67750968694313e-07 -1.2542877345820088e-05 1.1800039948573245e-05 -4.488997947380688e-06 -1.3194591528914648e-06 0.0
407 5.704895094597642e-07 -1.2588930818906025e-05 1.1776149207711433e-05 -4.501914689172935e-06 -1.3102415851113234e-06 0.0
408 5.731988543802148e-07 -1.2635070669247049e-05 1.175136178062594e-05 -4.5147529196008474e-06 -1.3010214810652057e-06 0.0
409 5.758748864029294e-07 -1.2681287337334713e-05 1.1725677039480472e-05 -4.527509603383623e-06 -1.2918007436474035e-06 0.0
410 5.785137226978559e-07 -1.2727571475978461e-05 1.1699094632004653e-05 -4.540181804593821e-06 -1.2825811835047343e-06 0.0
411 5.811117084405661e-07 -1.2773913926944751e-05 1.1671614491994795e-05 -4.552766678814754e-06 -1.2733645228107929e-06 0.0
412 5.836654102316899e-07 -1.282030569976777e-05 1.1643236849199443e-05 -4.56526146602575e-06 -1.264152399053941e-06 0.0
413 5.861716092488886e-07 -1.2866737952517366e-05 1.1613962238569183e-05 -4.577663484140256e-06 -1.2549463688060839e-06 0.0
414 5.886272942132734e-07 -1.2913201974333229e-05 1.1583791508857465e-05 -4.589970123130437e-06 -1.2457479114454172e-06 0.0
415 5.910296542404442e-07 -1.2959689169549454e-05 1.15527258305755e-05 -4.602178839677245e-06 -1.2365584328113434e-06 0.0
416 5.933760716352863e-07 -1.300619104324879e-05 1.1520766703314416e-05 -4.614287152290805e-06 -1.2273792687743157e-06 0.0
417 5.956641146807048e-07 -1.3052699188105362e-05 1.1487915962442802e-05 -4.626292636852367e-06 -1.2182116887068321e-06 0.0
418 5.978915304621103e-07 -1.3099205272384619e-05 1.1454175785200053e-05 -4.638192922533013e-06 -1.209056898845221e-06 0.0
419 6.000562377627835e-07 -1.3145701028986677e-05 1.1419548696197768e-05 -4.649985688050023e-06 -1.1999160455342785e-06 0.0
420 6.021563200588227e-07 -1.319217824542892e-05 1.138403757234481e-05 -4.6616686582254685e-06 -1.1907902183492367e-06 0.0
421 6.041900186373301e-07 -1.3238628754674334e-05 1.1347645647212308e-05 -4.6732396008152075e-06 -1.1816804530913582e-06 0.0
422 6.061557258568787e-07 -1.3285044426723797e-05 1.1310376514851532e-05 -4.6846963235803545e-06 -1.17258773465509e-06 0.0
423 6.080519785652649e-07 -1.3331417160897834e-05 1.1272234133075906e-05 -4.696036671576127e-06 -1.1635129997660166e-06 0.0
424 6.098774516863997e-07 -1.337773887874269e-05 1.1233222826219176e-05 -4.707258524635908e-06 -1.1544571395899747e-06 0.0
425 6.116309519846967e-07 -1.3424001517500901e-05 1.1193347287380104e-05 -4.718359795030441e-06 -1.1454210022147174e-06 0.0
426 6.133114120137137e-07 -1.3470197024094838e-05 1.1152612580163088e-05 -4.729338425284759e-06 -1.13640539500609e-06 0.0
427 6.149178842527706e-07 -1.3516317349577051e-05 1.1111024139920954e-05 -4.740192386137475e-06 -1.1274110868414758e-06 0.0
428 6.164495354340341e-07 -1.3562354444005267e-05 1.1068587774510288e-05 -4.750919674628313e-06 -1.1184388102236865e-06 0.0
429 6.17905641060846e-07 -1.3608300251705583e-05 1.102530966456465e-05 -4.76151831230184e-06 -1.1094892632788566e-06 0.0
430 6.19285580116493e-07 -1.3654146706893018e-05 1.0981196363290257e-05 -4.771986343517173e-06 -1.1005631116423466e-06 0.0
431 6.205888299622362e-07 -1.3699885729618053e-05 1.0936254795794135e-05 -4.782321833853523e-06 -1.091660990236645e-06 0.0
432 6.218149614217e-07 -1.3745509222016423e-05 1.0890492257945925e-05 -4.792522868604037e-06 -1.0827835049456751e-06 0.0
433 6.229636340487038e-07 -1.3791009064837194e-05 1.0843916414783982e-05 -4.802587551350117e-06 -1.0739312341898762e-06 0.0
434 6.240345915742162e-07 -1.3836377114233098e-05 1.0796535298463777e-05 -4.8125140026109884e-06 -1.0651047304066044e-06 0.0
435 6.250276575288548e-07 -1.388160519879191e-05 1.0748357305762566e-05 -4.82230035856194e-06 -1.0563045214402087e-06 0.0
436 6.259427310353244e-07 -1.3926685116796911e-05 1.0699391195139037e-05 -4.831944769817652e-06 -1.0475311118465468e-06 0.0
437 6.267797827671939e-07 -1.3971608633701373e-05 1.0649646083357837e-05 -4.841445400275969e-06 -1.0387849841159299e-06 0.0
438 6.275388510669608e-07 -1.4016367479807864e-05 1.0599131441680665e-05 -4.8508004260195206e-06 -1.0300665998195859e-06 0.0
439 6.282200382202225e-07 -1.4060953348139838e-05 1.0547857091635138e-05 -4.860008034271571e-06 -1.0213764006831973e-06 0.0
440 6.288235068790715e-07 -1.4105357892499809e-05 1.049583320036294e-05 -4.869066422404679e-06 -1.012714809592326e-06 0.0
441 6.293494766300423e-07 -1.4149572725704786e-05 1.0443070275557375e-05 -4.877973796999593e-06 -1.0040822315335192e-06 0.0
442 6.297982207013466e-07 -1.419358941799417e-05 1.0389579159996249e-05 -4.886728372953344e-06 -9.954790544751182e-07 0.0
443 6.301700628035969e-07 -1.4237399495604633e-05 1.0335371025676879e-05 -4.895328372635353e-06 -9.8690565019179e-07 0.0
444 6.30465374099406e-07 -1.4280994439507891e-05 1.0280457367561945e-05 -4.90377202509065e-06 -9.783623750362617e-07 0.0
445 6.306845702967002e-07 -1.4324365684306977e-05 1.0224849996946149e-05 -4.912057565289558e-06 -9.698495706619377e-07 0.0
446 6.308281088602511e-07 -1.4367504617289357e-05 1.0168561034449707e-05 -4.920183233423633e-06 -9.613675646999388e-07 0.0
447 6.30896486337288e-07 -1.4410402577633919e-05 1.0111602902650095e-05 -4.928147274247716e-06 -9.529166713936609e-07 0.0
448 6.308902357922225e-07 -1.4453050855769988e-05 1.005398831836174e-05 -4.935947936468013e-06 -9.44497192194097e-07 0.0
449 6.308099243462721e-07 -1.4495440692887326e-05 9.995730284573314e-06 -4.943583472176438e-06 -9.36109416318787e-07 0.0
450 6.306561508168409e-07 -1.4537563280595156e-05 9.936842082055474e-06 -4.951052136331311e-06 -9.277536212775475e-07 0.0
451 6.304295434540049e-07 -1.4579409760730979e-05 9.877337260647368e-06 -4.958352186285114e-06 -9.194300733671333e-07 0.0
452 6.301307577686578e-07 -1.4620971225316866e-05 9.81722963023744e-06 -4.965481881359333e-06 -9.111390281379207e-07 0.0
453 6.297604744493097e-07 -1.4662238716663776e-05 9.756533251448941e-06 -4.972439482467026e-06 -9.028807308347221e-07 0.0
454 6.293193973640232e-07 -1.4703203227624172e-05 9.69526242604209e-06 -4.979223251783854e-06 -8.946554168139623e-07 0.0
455 6.288082516434129e-07 -1.4743855701990581e-05 9.633431687050707e-06 -4.985831452467433e-06 -8.864633119396e-07 0.0
456 6.282277818423544e-07 -1.4784187035042862e-05 9.57105578866117e-06 -4.992262348426373e-06 -8.783046329594227e-07 0.0
457 6.275787501765998e-07 -1.4824188074241777e-05 9.508149695852628e-06 -4.998514204138857e-06 -8.701795878638567e-07 0.0
458 6.268619348313087e-07 -1.4863849620068947e-05 9.444728573812476e-06 -5.004585284521284e-06 -8.620883762290633e-07 0.0
459 6.260781283398771e-07 -1.4903162427014848e-05 9.38080777713886e-06 -5.010473854848025e-06 -8.540311895454913e-07 0.0
460 6.25228136028475e-07 -1.4942117204711299e-05 9.316402838851168e-06 -5.016178180721654e-06 -8.460082115340874e-07 0.0
461 6.243127745258218e-07 -1.498070461921127e-05 9.251529459218892e-06 -5.02169652809499e-06 -8.380196184508627e-07 0.0
462 6.233328703347354e-07 -1.501891529441278e-05 9.186203494429472e-06 -5.0270271633444365e-06 -8.30065579381457e-07 0.0
463 6.2228925846309e-07 -1.5056739813627761e-05 9.120440945108203e-06 -5.032168353395183e-06 -8.221462565268989e-07 0.0
464 6.211827811131408e-07 -1.509416872129441e-05 9.054257944708807e-06 -5.03711836589832e-06 -8.142618054813277e-07 0.0
465 6.200142864263323e-07 -1.5131192524831456e-05 8.987670747791414e-06 -5.0418754694596185e-06 -8.06412375502887e-07 0.0
466 6.187846272818644e-07 -1.5167801696634331e-05 8.920695718203035e-06 -5.046437933920336e-06 -7.985981097786605e-07 0.0
467 6.174946601475848e-07 -1.5203986676209757e-05 8.853349317181209e-06 -5.05080403068925e-06 -7.908191456842979e-07 0.0
468 6.161452439815954e-07 -1.5239737872448859e-05 8.785648091394907e-06 -5.054972033126122e-06 -7.83075615039031e-07 0.0
469 6.147372391824661e-07 -1.5275045666035737e-05 8.717608660941424e-06 -5.0589402169759685e-06 -7.753676443568611e-07 0.0
470 6.132715065870925e-07 -1.5309900411989592e-05 8.649247707316794e-06 -5.062706860853613e-06 -7.67695355094285e-07 0.0
471 6.117489065147628e-07 -1.5344292442337535e-05 8.580581961377288e-06 -5.066270246777816e-06 -7.60058863895037e-07 0.0
472 6.101702978559635e-07 -1.5378212068915963e-05 8.511628191308563e-06 -5.0696286607544284e-06 -7.52458282832291e-07 0.0
473 6.085365372043309e-07 -1.5411649586297125e-05 8.442403190620063e-06 -5.072780393407565e-06 -7.448937196487421e-07 0.0
474 6.068484780313959e-07 -1.5444595274837723e-05 8.372923766182428e-06 -5.075723740657837e-06 -7.373652779945822e-07 0.0
475 6.051069699024279e-07 -1.5477039403845713e-05 8.303206726324811e-06 -5.07845700444651e-06 -7.298730576637139e-07 0.0
476 6.033128577320115e-07 -1.5508972234862463e-05 8.23326886900775e-06 -5.080978493504546e-06 -7.224171548284939e-07 0.0
477 6.014669810789603e-07 -1.554038402505542e-05 8.163126970089752e-06 -5.083286524165065e-06 -7.14997662272859e-07 0.0
478 5.995701734793376e-07 -1.5571265030717618e-05 8.09279777170309e-06 -5.085379421217872e-06 -7.076146696239668e-07 0.0
479 5.976232618161051e-07 -1.5601605510868813e-05 8.022297970755785e-06 -5.087255518804395e-06 -7.002682635825402e-07 0.0
480 5.956270657255668e-07 -1.563139573095523e-05 7.951644207573393e-06 -5.0889131613517705e-06 -6.92958528151514e-07 0.0
481 5.935823970382461e-07 -1.5660625966640758e-05 7.880853054699073e-06 -5.0903507045437845e-06 -6.856855448633847e-07 0.0
482 5.914900592547386e-07 -1.568928650768697e-05 7.80994100586343e-06 -5.0915665163275025e-06 -6.784493930057007e-07 0.0
483 5.893508470547815e-07 -1.571736766191444e-05 7.738924465142085e-06 -5.092558977953044e-06 -6.712501498448658e-07 0.0
484 5.871655458391174e-07 -1.5744859759241675e-05 7.667819736312248e-06 -5.093326485045043e-06 -6.640878908479421e-07 0.0
485 5.849349313027824e-07 -1.5771753155795043e-05 7.59664301242322e-06 -5.093867448703369e-06 -6.569626899024421e-07 0.0
486 5.826597690402043e-07 -1.5798038238084232e-05 7.525410365594238e-06 -5.094180296631108e-06 -6.498746195335168e-07 0.0
487 5.803408141796732e-07 -1.5823705427237638e-05 7.454137737050112e-06 -5.0942634742876794e-06 -6.428237511188528e-07 0.0
488 5.779788110476606e-07 -1.5848745183290634e-05 7.382840927410168e-06 -5.094115446064486e-06 -6.358101551006189e-07 0.0
489 5.755744928619318e-07 -1.5873148009522128e-05 7.311535587237475e-06 -5.093734696481215e-06 -6.28833901194269e-07 0.0
490 5.731285814524467e-07 -1.5896904456831368e-05 7.240237207863522e-06 -5.093119731399964e-06 -6.218950585940562e-07 0.0
491 5.706417870091477e-07 -1.592000512815026e-05 7.168961112494402e-06 -5.092269079255147e-06 -6.149936961749655e-07 0.0
492 5.681148078567162e-07 -1.5942440682883767e-05 7.097722447610998e-06 -5.091181292296465e-06 -6.081298826905459e-07 0.0
493 5.655483302541797e-07 -1.5964201841372228e-05 7.026536174670174e-06 -5.0898549478425194e-06 -6.013036869667646e-07 0.0
494 5.629430282202305e-07 -1.5985279389368937e-05 6.955417062116435e-06 -5.08828864954256e-06 -5.945151780910741e-07 0.0
495 5.602995633820176e-07 -1.6005664182526994e-05 6.884379677709874e-06 -5.0864810286439065e-06 -5.87764425596891e-07 0.0
496 5.576185848475667e-07 -1.6025347150887975e-05 6.813438381178836e-06 -5.0844307452623185e-06 -5.81051499642861e-07 0.0
497 5.549007291012867e-07 -1.604431930336673e-05 6.742607317202041e-06 -5.082136489652978e-06 -5.743764711865889e-07 0.0
498 5.521466199203091e-07 -1.6062571732225263e-05 6.671900408726271e-06 -5.079596983479369e-06 -5.67739412153005e-07 0.0
499 5.493568683131012e-07 -1.60800956175296e-05 6.601331350623601e-06 -5.07681098107767e-06 -5.611403955964033e-07 0.0
500 5.465320724778866e-07 -1.6096882231582815e-05 6.530913603692818e-06 -5.073777270714033e-06 -5.545794958564058e-07 0.0
501 5.436728177806355e-07 -1.6112922943328335e-05 6.460660389007245e-06 -5.070494675832326e-06 -5.480567887074442e-07 0.0
502 5.40779676752558e-07 -1.612820922271658e-05 6.390584682612952e-06 -5.0669620562897864e-06 -5.415723515012772e-07 0.0
503 5.378532091052379e-07 -1.61427326450299e-05 6.320699210576847e-06 -5.063178309578397e-06 -5.351262633026572e-07 0.0
504 5.348939617632857e-07 -1.6156484895158317e-05 6.251016444388201e-06 -5.059142372029264e-06 -5.287186050177351e-07 0.0
505 5.31902468914154e-07 -1.6169457771821443e-05 6.18154859671214e-06 -5.054853219997972e-06 -5.223494595148386e-07 0.0
506 5.28879252073317e-07 -1.618164319172994e-05 6.112307617495631e-06 -5.050309871028465e-06 -5.160189117377789e-07 0.0
507 5.25824820165555e-07 -1.6193033193681323e-05 6.043305190424974e-06 -5.045511384993316e-06 -5.097270488110225e-07 0.0
508 5.227396696195718e-07 -1.6203619942584342e-05 5.974552729732874e-06 -5.040456865208155e-06 -5.034739601372185e-07 0.0
509 5.196242844776721e-07 -1.621339573340705e-05 5.90606137735277e-06 -5.035145459518307e-06 -4.972597374861254e-07 0.0
510 5.164791365179053e-07 -1.6222352995042872e-05 5.83784200041838e-06 -5.0295763613554745e-06 -4.910844750754298e-07 0.0
511 5.133046853886619e-07 -1.6230484294090303e-05 5.769905189103466e-06 -5.023748810762676e-06 -4.849482696430807e-07 0.0
512 5.10101378755024e-07 -1.6237782338541227e-05 5.70226125479932e-06 -5.017662095385499e-06 -4.788512205110753e-07 0.0
513 5.06869652456371e-07 -1.6244239981373392e-05 5.634920228624095e-06 -5.011315551427957e-06 -4.7279342964050465e-07 0.0
514 5.036099306740302e-07 -1.62498502240428e-05 5.567891860259447e-06 -5.00470856457126e-06 -4.6677500167800644e-07 0.0
515 5.003226261088604e-07 -1.6254606219871998e-05 5.501185617108637e-06 -4.99784057085397e-06 -4.6079604399337604e-07 0.0
516 4.970081401676352e-07 -1.625850127733031e-05 5.434810683769769e-06 -4.9907110575119705e-06 -4.54856666708452e-07 0.0
517 4.936668631577969e-07 -1.6261528863202657e-05 5.368775961817452e-06 -4.983319563776975e-06 -4.48956982717216e-07 0.0
518 4.902991744902938e-07 -1.6263682605643295e-05 5.303090069886032e-06 -4.975665681632204e-06 -4.43097107696974e-07 0.0
519 4.869054428891224e-07 -1.6264956297111823e-05 5.237761344046487e-06 -4.967749056524129e-06 -4.372771601109207e-07 0.0
520 4.834860266073788e-07 -1.6265343897188217e-05 5.172797838469206e-06 -4.959569388029142e-06 -4.314972612019561e-07 0.0
521 4.800412736495894e-07 -1.6264839535264484e-05 5.1082073263642455e-06 -4.951126430474206e-06 -4.257575349777327e-07 0.0
522 4.765715219990863e-07 -1.6263437513110803e-05 5.04399730119065e-06 -4.942419993510682e-06 -4.2005810818721285e-07 0.0
523 4.7307709985010335e-07 -1.6261132307313603e-05 4.980174978125497e-06 -4.933449942640434e-06 -4.1439911028873167e-07 0.0
524 4.6955832584387843e-07 -1.6257918571584136e-05 4.916747295783602e-06 -4.924216199693682e-06 -4.087806734097483e-07 0.0
525 4.6601550930882895e-07 -1.6253791138936208e-05 4.853720918178261e-06 -4.914718743258084e-06 -4.0320293229822855e-07 0.0
526 4.6244895050380944e-07 -1.6248745023730945e-05 4.791102236913575e-06 -4.904957609058382e-06 -3.9766602426592167e-07 0.0
527 4.5885894086352684e-07 -1.624277542358858e-05 4.728897373597896e-06 -4.894932890286655e-06 -3.921700891238532e-07 0.0
528 4.5524576324659367e-07 -1.6235877721165466e-05 4.667112182469068e-06 -4.884644737882446e-06 -3.867152691098845e-07 0.0
529 4.5160969218509147e-07 -1.6228047485796736e-05 4.60575225321983e-06 -4.874093360763197e-06 -3.813017088087249e-07 0.0
530 4.4795099413517507e-07 -1.6219280475003474e-05 4.544822914014925e-06 -4.863279026004466e-06 -3.759295550646219e-07 0.0
531 4.442699277288112e-07 -1.6209572635864938e-05 4.484329234687404e-06 -4.852202058970317e-06 -3.7059895688675717e-07 0.0
532 4.4056674402499e-07 -1.6198920106255455e-05 4.42427603010542e-06 -4.840862843393852e-06 -3.653100653479671e-07 0.0
533 4.3684168676256657e-07 -1.6187319215947244e-05 4.364667863697118e-06 -4.829261821408383e-06 -3.6006303347621013e-07 0.0
534 4.330949926107063e-07 -1.61747664875786e-05 4.305509051124988e-06 -4.817399493529242e-06 -3.548580161401835e-07 0.0
535 4.2932689142034835e-07 -1.6161258637489386e-05 4.246803664097393e-06 -4.805276418586996e-06 -3.4969516992814134e-07 0.0
536 4.255376064726162e-07 -1.614679257642433e-05 4.188555534307591e-06 -4.792893213612463e-06 -3.4457465302135493e-07 0.0
537 4.2172735472784555e-07 -1.613136541010541e-05 4.130768257489842e-06 -4.780250553674102e-06 -3.3949662506122203e-07 0.0
538 4.178963470714216e-07 -1.6114974439675002e-05 4.073445197581508e-06 -4.767349171668531e-06 -3.344612470113898e-07 0.0
539 4.140447885578899e-07 -1.6097617162011432e-05 4.016589490981475e-06 -4.754189858065013e-06 -3.294686810146525e-07 0.0
540 4.1017287865292665e-07 -1.607929126991829e-05 3.960204050894687e-06 -4.740773460604477e-06 -3.2451909024490537e-07 0.0
541 4.062808114723848e-07 -1.605999465219015e-05 3.904291571752328e-06 -4.727100883954316e-06 -3.196126387546697e-07 0.0
542 4.0236877601921825e-07 -1.6039725393556613e-05 3.8488545336979245e-06 -4.713173089319762e-06 -3.147494913180962e-07 0.0
543 3.9843695641611085e-07 -1.601848177450655e-05 3.7938952071303498e-06 -4.698991094012778e-06 -3.099298132704131e-07 0.0
544 3.94485532136625e-07 -1.5996262270996076e-05 3.7394156572924416e-06 -4.684555970979936e-06 -3.051537703431142e-07 0.0
545 3.9051467823101283e-07 -1.5973065554041824e-05 3.685417748898173e-06 -4.66986884829001e-06 -3.004215284963994e-07 0.0
546 3.8652456554980563e-07 -1.5948890489202366e-05 3.6319031507879872e-06 -4.654930908582584e-06 -2.957332537480847e-07 0.0
547 3.825153609630696e-07 -1.5923736135951448e-05 3.578873340603196e-06 -4.639743388479225e-06 -2.9108911199992763e-07 0.0
548 3.7848722757604926e-07 -1.589760174694529e-05 3.52632960947185e-06 -4.6243075779581465e-06 -2.864892688613941e-07 0.0
549 3.744403249399952e-07 -1.5870486767186873e-05 3.4742730666968e-06 -4.608624819693812e-06 -2.819338894714885e-07 0.0
550 3.703748092600935e-07 -1.5842390833091055e-05 3.4227046444389733e-06 -4.5926965083629135e-06 -2.7742313831833214e-07 0.0
551 3.662908335982735e-07 -1.5813313771453253e-05 3.371625102386481e-06 -4.576524089918094e-06 -2.729571790574358e-07 0.0
552 3.62188548071788e-07 -1.5783255598324916e-05 3.3210350324040814e-06 -4.560109060830653e-06 -2.685361743286524e-07 0.0
553 3.5806810004824103e-07 -1.5752216517799737e-05 3.2709348631538286e-06 -4.5434529673040585e-06 -2.6416028557187623e-07 0.0
554 3.5392963433440786e-07 -1.5720196920713007e-05 3.221324864681691e-06 -4.5265574044591936e-06 -2.59829672842575e-07 0.0
555 3.4977329336266014e-07 -1.568719738325921e-05 3.1722051529618927e-06 -4.509424015493476e-06 -2.555444946262267e-07 0.0
556 3.4559921737159054e-07 -1.5653218665529555e-05 3.1235756943943796e-06 -4.492054490814745e-06 -2.513049076530024e-07 0.0
557 3.414075445825435e-07 -1.5618261709973908e-05 3.0754363102487825e-06 -4.4744505671516e-06 -2.4711106671241124e-07 0.0
558 3.3719841137078325e-07 -1.558232763979103e-05 3.0277866810478306e-06 -4.4566140266419905e-06 -2.429631244685581e-07 0.0
559 3.329719524337651e-07 -1.554541775724984e-05 2.980626350888153e-06 -4.4385466959010605e-06 -2.3886123127552714e-07 0.0
560 3.2878524508021834e-07 -1.5507431382478613e-05 2.934429298963348e-06 -4.420230898872474e-06 -2.3479489111628874e-07 0.0
561 3.2473202536424816e-07 -1.5468258425598315e-05 2.8899013607959547e-06 -4.401654216292634e-06 -2.307470305313202e-07 0.0
562 3.208009509319648e-07 -1.5428054134643598e-05 2.8467823480834322e-06 -4.382865896911073e-06 -2.267211348485995e-07 0.0
563 3.1698179292011544e-07 -1.5386933357519e-05 2.8048846016534567e-06 -4.363902096571034e-06 -2.2272028971761763e-07 0.0
564 3.1326530421311154e-07 -1.5344982433109573e-05 2.76407153881294e-06 -4.3447897418515055e-06 -2.1874723141571375e-07 0.0
565 3.096431096943846e-07 -1.5302267578856306e-05 2.7242425462346257e-06 -4.325549251078855e-06 -2.1480438821829752e-07 0.0
566 3.0610761340517954e-07 -1.525884080073979e-05 2.6853223491694223e-06 -4.306196448853581e-06 -2.1089391489922152e-07 0.0
567 3.0265191893546694e-07 -1.5214744053422369e-05 2.6472535358906756e-06 -4.286743911976427e-06 -2.070177219014702e-07 0.0
568 2.9926976034783777e-07 -1.5170012165955503e-05 2.6099913043926745e-06 -4.267201914895183e-06 -2.0317750032482534e-07 0.0
569 2.9595544162938655e-07 -1.5124674897565728e-05 2.573499773006023e-06 -4.247579093347635e-06 -1.9937474358427006e-07 0.0
570 2.9270378316177554e-07 -1.5078758381000411e-05 2.537749390771629e-06 -4.227882909884083e-06 -1.9561076637821084e-07 0.0
571 2.895100740586399e-07 -1.5032286135106388e-05 2.502715120597585e-06 -4.208119980219595e-06 -1.9188672144815568e-07 0.0
572 2.8637002947907245e-07 -1.4985279774695505e-05 2.468375165044041e-06 -4.1882963019056834e-06 -1.88203614497019e-07 0.0
573 2.8327975221832293e-07 -1.4937759507871349e-05 2.4347100728648925e-06 -4.168417414497e-06 -1.845623175489644e-07 0.0
574 2.8023569801893625e-07 -1.4889744484260626e-05 2.4017021125426206e-06 -4.148488511712979e-06 -1.8096358097189954e-07 0.0
575 2.772346441512247e-07 -1.4841253038749541e-05 2.3693348329203683e-06 -4.128514519987895e-06 -1.7740804433831636e-07 0.0
576 2.742736608893375e-07 -1.4792302862050616e-05 2.3375927548639622e-06 -4.108500153506683e-06 -1.73896246267076e-07 0.0
577 2.713500855721232e-07 -1.4742911120085342e-05 2.3064611546318012e-06 -4.088449952805436e-06 -1.7042863336273775e-07 0.0
578 2.684614989839115e-07 -1.4693094537603923e-05 2.2759259113926656e-06 -4.068368311896503e-06 -1.6700556835013333e-07 0.0
579 2.6560570382736874e-07 -1.4642869456843842e-05 2.2459733995900905e-06 -4.048259497388996e-06 -1.6362733748696257e-07 0.0
580 2.6278070508838867e-07 -1.4592251878796075e-05 2.2165904126394565e-06 -4.028127662034174e-06 -1.6029415732614882e-07 0.0
581 2.599846921197357e-07 -1.454125749236745e-05 2.1877641085093746e-06 -4.007976854391824e-06 -1.5700618088950076e-07 0.0
582 2.5721602228644753e-07 -1.4489901695142168e-05 2.1594819705763774e-06 -3.987811025804071e-06 -1.5376350330785793e-07 0.0
583 2.5447320603288967e-07 -1.4438199608321975e-05 2.13173177913992e-06 -3.967634035502488e-06 -1.5056616697655473e-07 0.0
584 2.517548932497997e-07 -1.4386166087650602e-05 2.1045015903687994e-06 -3.947449654426086e-06 -1.4741416626856052e-07 0.0
585 2.4905986082502603e-07 -1.4333815731570831e-05 2.077779720439252e-06 -3.927261568149242e-06 -1.4430745184526934e-07 0.0
586 2.4638700127653037e-07 -1.4281162887493593e-05 2.051554733286413e-06 -3.907073379200479e-06 -1.4124593459988847e-07 0.0
587 2.4373531237490295e-07 -1.4228221656778261e-05 2.0258154308863586e-06 -3.88688860896332e-06 -1.382294892651453e-07 0.0
588 2.4110388766957544e-07 -1.417500589884755e-05 2.000550845302289e-06 -3.8667106992943886e-06 -1.352579577146069e-07 0.0
589 2.384919078432914e-07 -1.412152923472309e-05 1.975750231969687e-06 -3.846543013949962e-06 -1.3233115198335423e-07 0.0
590 2.358986328201755e-07 -1.4067805050181579e-05 1.951403063853954e-06 -3.826388839884651e-06 -1.2944885703325856e-07 0.0
591 2.3332339456797525e-07 -1.4013846498665352e-05 1.927499026226783e-06 -3.8062513884649907e-06 -1.2661083328315859e-07 0.0
592 2.3076559053118716e-07 -1.3959666504042888e-05 1.9040280118807846e-06 -3.7861337966283475e-06 -1.2381681892525343e-07 0.0
593 2.2822467764236005e-07 -1.3905277763274942e-05 1.8809801166696485e-06 -3.7660391280049218e-06 -1.2106653204554002e-07 0.0
594 2.2570016686205884e-07 -1.3850692749032308e-05 1.8583456352831001e-06 -3.7459703740175663e-06 -1.1835967256503463e-07 0.0
595 2.231916182034419e-07 -1.3795923712288478e-05 1.8361150572018255e-06 -3.725930454966928e-06 -1.1569592401663345e-07 0.0
596 2.2069863619657786e-07 -1.3740982684904177e-05 1.8142790627950978e-06 -3.70592222110734e-06 -1.1307495517263606e-07 0.0
597 2.1822086575791753e-07 -1.3685881482213048e-05 1.7928285195320115e-06 -3.685948453716557e-06 -1.1049642153465244e-07 0.0
598 2.1575798842815848e-07 -1.3630631705613993e-05 1.7717544782907347e-06 -3.6660118661611495e-06 -1.0795996669818158e-07 0.0
599 2.1330971894787217e-07 -1.3575244745172392e-05 1.7510481697510001e-06 -3.6461151049583626e-06 -1.0546522360217556e-07 0.0
600 2.108758021398824e-07 -1.3519731782228462e-05 1.7307010008662797e-06 -3.6262607508340065e-06 -1.0301181567393631e-07 0.0
601 2.0845601007369796e-07 -1.3464103792014307e-05 1.710704551405973e-06 -3.6064513197769658e-06 -1.0059935787766805e-07 0.0
602 2.0605013948645642e-07 -1.3408371546276231e-05 1.691050570565585e-06 -3.5866892640893327e-06 -9.82274576752134e-08 0.0
603 2.0365800943871906e-07 -1.3352545615898274e-05 1.6717309736462434e-06 -3.5669769734310277e-06 -9.589571590622009e-08 0.0
604 2.0127945918266862e-07 -1.3296636373527956e-05 1.6527378387962534e-06 -3.5473167758592746e-06 -9.360372759520433e-08 0.0
605 1.9891434622743196e-07 -1.3240653996198498e-05 1.63406340381833e-06 -3.5277109388612743e-06 -9.135108269070983e-08 0.0
606 1.9656254458120245e-07 -1.3184608467946072e-05 1.6157000630403416e-06 -3.508161670379697e-06 -8.91373667432527e-08 0.0
607 1.9422394315606795e-07 -1.312850958241934e-05 1.5976403642487194e-06 -3.4886711198302423e-06 -8.69621615267967e-08 0.0
608 1.918984443204722e-07 -1.3072366945479974e-05 1.5798770056843923e-06 -3.4692413791109287e-06 -8.482504560880967e-08 0.0
609 1.8958596258794636e-07 -1.3016189977789668e-05 1.562402833101464e-06 -3.4498744836018746e-06 -8.272559487268108e-08 0.0
610 1.8728642342713447e-07 -1.2959987917384005e-05 1.5452108368867558e-06 -3.4305724131557003e-06 -8.066338299747503e-08 0.0
611 1.8499976218487906e-07 -1.2903769822228526e-05 1.528294149243467e-06 -3.4113370930772456e-06 -7.863798189779978e-08 0.0
612 1.8272592311109878e-07 -1.2847544572759427e-05 1.511646041430734e-06 -3.3921703950934724e-06 -7.664896212755114e-08 0.0
613 1.8046485847635615e-07 -1.2791320874402564e-05 1.4952599210687588e-06 -3.3730741383115933e-06 -7.469589325055685e-08 0.0
614 1.7821652777453425e-07 -1.2735107260073218e-05 1.4791293294990794e-06 -3.3540500901664024e-06 -7.277834418068368e-08 0.0
615 1.7598089700161655e-07 -1.2678912092652285e-05 1.4632479392072448e-06 -3.3350999673554566e-06 -7.089588349437871e-08 0.0
616 1.7375793800496202e-07 -1.262274356744213e-05 1.44760955129915e-06 -3.316225436763253e-06 -6.904807971756951e-08 0.0
617 1.7154762789587355e-07 -1.256660971459458e-05 1.4322080930396459e-06 -3.2974281163721654e-06 -6.723450158929651e-08 0.0
618 1.693499485205282e-07 -1.251051840151817e-05 1.4170376154419165e-06 -3.2787095761624047e-06 -6.545471830378503e-08 0.0
619 1.6716488598246074e-07 -1.245447733525592e-05 1.4020922909167758e-06 -3.260071338998424e-06 -6.370829973316568e-08 0.0
620 1.6499243021413284e-07 -1.2398494064839573e-05 1.387366410972887e-06 -3.2415148815036876e-06 -6.199481663178918e-08 0.0
621 1.6283257458916078e-07 -1.234257598361673e-05 1.3728543839709634e-06 -3.2230416349227407e-06 -6.031384082481306e-08 0.0
622 1.6068531557701053e-07 -1.2286730331549076e-05 1.358550732931009e-06 -3.204652985970232e-06 -5.866494538066249e-08 0.0
623 1.5855065243109158e-07 -1.2230964197485076e-05 1.3444500933897153e-06 -3.186350277667843e-06 -5.704770477024703e-08 0.0
624 1.5642858690940426e-07 -1.2175284521404268e-05 1.3305472113065896e-06 -3.1681348101685143e-06 -5.546169501332639e-08 0.0
625 1.5431912302457604e-07 -1.2119698096632742e-05 1.3168369410215202e-06 -3.1500078415677614e-06 -5.3906493813064333e-08 0.0
626 1.5222226682059862e-07 -1.2064211572031443e-05 1.3033142432572909e-06 -3.1319705887027755e-06 -5.238168067973482e-08 0.0
627 1.5013802617268279e-07 -1.2008831454155916e-05 1.2899741831699432e-06 -3.1140242279389136e-06 -5.088683704473743e-08 0.0
628 1.480664106090711e-07 -1.1953564109387876e-05 1.2768119284434159e-06 -3.096169895943817e-06 -4.9421546365389114e-08 0.0
629 1.4600743115164502e-07 -1.1898415766037216e-05 1.2638227474306223e-06 -3.0784086904487543e-06 -4.7985394221533694e-08 0.0
630 1.439611001756702e-07 -1.184339251641893e-05 1.2510020073328574e-06 -3.060741670998709e-06 -4.657796840395318e-08 0.0
631 1.4192743128336468e-07 -1.1788500318898112e-05 1.2383451724269375e-06 -3.0431698596891193e-06 -4.51988589962754e-08 0.0
632 1.3990643919278016e-07 -1.1733744999909051e-05 1.2258478023290327e-06 -3.0256942418912835e-06 -4.3847658449997536e-08 0.0
633 1.3789813963898787e-07 -1.1679132255946645e-05 1.2135055502986843e-06 -3.008315766965858e-06 -4.25239616536176e-08 0.0
634 1.3590254928690544e-07 -1.1624667655529303e-05 1.2013141615824587e-06 -2.9910353489643433e-06 -4.122736599614606e-08 0.0
635 1.339196856542753e-07 -1.1570356641134545e-05 1.1892694717939673e-06 -2.9738538673189914e-06 -3.9957471425506756e-08 0.0
636 1.319495670441194e-07 -1.1516204531107728e-05 1.1773674053314817e-06 -2.9567721675212604e-06 -3.8713880502113964e-08 0.0
637 1.29992212483932e-07 -1.1462216521543333e-05 1.1656039738287963e-06 -2.9397910617888645e-06 -3.7496198448487684e-08 0.0
638 1.280476416749619e-07 -1.1408397688139769e-05 1.1539752746429585e-06 -2.922911329721598e-06 -3.6304033193989675e-08 0.0
639 1.26115874944706e-07 -1.1354752988027372e-05 1.1424774893729317e-06 -2.90613371894607e-06 -3.513699541678051e-08 0.0
640 1.2419693320765116e-07 -1.1301287261571519e-05 1.131106882411169e-06 -2.8894589457498703e-06 -3.399469858155991e-08 0.0
641 1.2229083792953402e-07 -1.1248005234147976e-05 1.119859799527389e-06 -2.8728876957044544e-06 -3.2876758974549303e-08 0.0
642 1.2039761109688448e-07 -1.1194911517894482e-05 1.1087326664810586e-06 -2.8564206242779464e-06 -3.1782795735252496e-08 0.0
643 1.1851727518997673e-07 -1.1142010613435336e-05 1.0977219876654874e-06 -2.8400583574369946e-06 -3.0712430885602376e-08 0.0
644 1.1664985315980707e-07 -1.1089306911582893e-05 1.0868243447778699e-06 -2.82380149223894e-06 -2.9665289356345303e-08 0.0
645 1.1479536840760153e-07 -1.1036804695013667e-05 1.07603639551841e-06 -2.8076505974135622e-06 -2.8640999011183966e-08 0.0
646 1.1295384476618958e-07 -1.098450813992024e-05 1.0653548723155515e-06 -2.7916062139349648e-06 -2.7639190668895954e-08 0.0
647 1.1112530648510013e-07 -1.0932421317638603e-05 1.0547765810784248e-06 -2.7756688555834483e-06 -2.665949812293544e-08 0.0
648 1.0930977821663586e-07 -1.0880548196254027e-05 1.0442983999720018e-06 -2.759839009498354e-06 -2.5701558159367084e-08 0.0
649 1.0750728500337552e-07 -1.08288926421821e-05 1.0339172782176965e-06 -2.744117136721036e-06 -2.476501057305397e-08 0.0
650 1.057178522673081e-07 -1.0777458421726156e-05 1.0236302349197173e-06 -2.728503672728217e-06 -2.3849498182063962e-08 0.0
651 1.0394150580027941e-07 -1.0726249202615161e-05 1.0134343579094444e-06 -2.712999027957152e-06 -2.2954666840437144e-08 0.0
652 1.0217827175446394e-07 -1.0675268555516159e-05 1.0033268026162692e-06 -2.6976035883208198e-06 -2.2080165449732533e-08 0.0
653 1.0042817663395685e-07 -1.0624519955527344e-05 9.933047909573858e-07 -2.6823177157149743e-06 -2.1225645969070636e-08 0.0
654 9.869124728727897e-08 -1.0574006783648403e-05 9.833656102483706e-07 -2.6671417485162006e-06 -2.0390763423751725e-08 0.0
655 9.696751089928519e-08 -1.0523732328230363e-05 9.735066121349797e-07 -2.6520760020715933e-06 -1.957517591295364e-08 0.0
656 9.525699498460161e-08 -1.0473699786403948e-05 9.637252115434414e-07 -2.6371207691798767e-06 -1.8778544615901183e-08 0.0
657 9.355972737979896e-08 -1.0423912265487896e-05 9.540188856501045e-07 -2.6222763205643966e-06 -1.8000533797367128e-08 0.0
658 9.187573623551676e-08 -1.0374372784377825e-05 9.443851728675349e-07 -2.6075429053382915e-06 -1.724081081217985e-08 0.0
659 9.020505001010777e-08 -1.0325084274913683e-05 9.348216718513323e-07 -2.5929207514611592e-06 -1.6499046108298568e-08 0.0
660 8.854769746087448e-08 -1.0276049583229396e-05 9.253260405206027e-07 -2.5784100661885195e-06 -1.5774913229656013e-08 0.0
661 8.690370763693573e-08 -1.0227271471081682e-05 9.158959950985924e-07 -2.5640110365130273e-06 -1.506808881760073e-08 0.0
