lar-deeufba/potential_fields_with_aruco/src/custom_codes/csv_files/csv_to_eps/csv_files/REPFORCE_AAPF_OriOFF.csv
Index Joint1 Joint2 Joint3 Joint4 Joint5 Joint6
0 0.0 0.0 0.0 0.0 0.0 0.0
1 0.0 0.0 0.0 0.0 0.0 0.0
2 0.0 0.0 0.0 0.0 0.0 0.0
3 0.0 0.0 0.0 0.0 0.0 0.0
4 0.0 0.0 0.0 0.0 0.0 0.0
5 0.0 0.0 0.0 0.0 0.0 0.0
6 0.0 0.0 0.0 0.0 0.0 0.0
7 0.0 0.0 0.0 0.0 0.0 0.0
8 0.0 0.0 0.0 0.0 0.0 0.0
9 0.0 0.0 0.0 0.0 0.0 0.0
10 0.0 0.0 0.0 0.0 0.0 0.0
11 0.0 0.0 0.0 0.0 0.0 0.0
12 0.0 0.0 0.0 0.0 0.0 0.0
13 0.0 0.0 0.0 0.0 0.0 0.0
14 0.0 0.0 0.0 0.0 0.0 0.0
15 0.0 0.0 0.0 0.0 0.0 0.0
16 0.0 0.0 0.0 0.0 0.0 0.0
17 0.0 0.0 0.0 0.0 0.0 0.0
18 0.0 0.0 0.0 0.0 0.0 0.0
19 0.0 0.0 0.0 0.0 0.0 0.0
20 0.0 0.0 0.0 0.0 0.0 0.0
21 0.0 0.0 0.0 0.0 0.0 0.0
22 0.0 0.0 0.0 0.0 0.0 0.0
23 0.0 0.0 0.0 0.0 0.0 0.0
24 0.0 0.0 0.0 0.0 0.0 0.0
25 0.0 0.0 0.0 0.0 0.0 0.0
26 0.0 0.0 0.0 0.0 0.0 0.0
27 0.0 0.0 0.0 0.0 0.0 0.0
28 0.0 0.0 0.0 0.0 0.0 0.0
29 0.0 0.0 0.0 0.0 0.0 0.0
30 0.0 0.0 0.0 0.0 0.0 0.0
31 0.0 0.0 0.0 0.0 0.0 0.0
32 0.0 0.0 0.0 0.0 0.0 0.0
33 0.0 0.0 0.0 0.0 0.0 0.0
34 0.0 0.0 0.0 0.0 0.0 0.0
35 0.0 0.0 0.0 0.0 0.0 0.0
36 0.0 0.0 0.0 0.0 0.0 0.0
37 0.0 0.0 0.0 0.0 0.0 0.0
38 0.0 0.0 0.0 0.0 0.0 0.0
39 0.0 0.0 0.0 0.0 0.0 0.0
40 0.0 0.0 0.0 0.0 0.0 0.0
41 0.0 0.0 0.0 0.0 0.0 0.0
42 0.0 0.0 0.0 0.0 0.0 0.0
43 0.0 0.0 0.0 0.0 0.0 0.0
44 0.0 0.0 0.0 0.0 0.0 0.0
45 0.0 0.0 0.0 0.0 0.0 0.0
46 0.0 0.0 0.0 0.0 0.0 0.0
47 0.0 0.0 0.0 0.0 0.0 0.0
48 0.0 0.0 0.0 0.0 0.0 0.0
49 0.0 0.0 0.0 0.0 0.0 0.0
50 0.0 0.0 0.0 0.0 0.0 0.0
51 0.0 0.0 0.0 0.0 0.0 0.0
52 0.0 0.0 0.0 0.0 0.0 0.0
53 0.0 0.0 0.0 0.0 0.0 0.0
54 0.0 0.0 0.0 0.0 0.0 0.0
55 0.0 0.0 0.0 0.0 0.0 0.0
56 0.0 0.0 0.0 0.0 0.0 0.0
57 0.0 0.0 0.0 0.0 0.0 0.0
58 0.0 0.0 0.0 0.0 0.0 0.0
59 0.0 0.0 0.0 0.0 0.0 0.0
60 0.0 0.0 0.0 0.0 0.0 0.0
61 0.0 0.0 0.0 0.0 0.0 0.0
62 0.0 0.0 0.0 0.0 0.0 0.0
63 0.0 0.0 0.0 0.0 0.0 0.0
64 0.0 0.0 0.0 0.0 0.0 0.0
65 0.0 0.0 0.0 0.0 0.0 0.0
66 0.0 0.0 0.0 0.0 0.0 0.0
67 0.0 0.0 0.0 0.0 0.0 0.0
68 0.0 0.0 0.0 0.0 0.0 0.0
69 0.0 0.0 0.0 0.0 0.0 0.0
70 0.0 0.0 0.0 0.0 0.0 0.0
71 0.0 0.0 0.0 0.0 0.0 0.0
72 0.0 0.0 0.0 0.0 0.0 0.0
73 0.0 0.0 0.0 0.0 0.0 0.0
74 0.0 0.0 0.0 0.0 0.0 0.0
75 0.0 0.0 0.0 0.0 0.0 0.0
76 0.0 0.0 0.0 0.0 0.0 0.0
77 0.0 0.0 0.0 0.0 0.0 0.0
78 0.0 0.0 0.0 0.0 0.0 0.0
79 0.0 0.0 0.0 0.0 0.0 0.0
80 0.0 0.0 0.0 0.0 0.0 0.0
81 0.0 0.0 0.0 0.0 0.0 0.0
82 0.0 0.0 0.0 0.0 0.0 0.0
83 0.0 0.0 0.0 0.0 0.0 0.0
84 0.0 0.0 0.0 0.0 0.0 0.0
85 0.0 0.0 0.0 0.0 0.0 0.0
86 0.0 0.0 0.0 0.0 0.0 0.0
87 0.0 0.0 0.0 0.0 0.0 0.0
88 0.0 0.0 0.0 0.0 0.0 0.0
89 0.0 0.0 0.0 0.0 0.0 0.0
90 0.0 0.0 0.0 0.0 0.0 0.0
91 0.0 0.0 0.0 0.0 0.0 0.0
92 0.0 0.0 0.0 0.0 0.0 0.0
93 0.0 0.0 0.0 0.0 0.0 0.0
94 0.0 0.0 0.0 0.0 0.0 0.0
95 0.0 0.0 0.0 0.0 0.0 0.0
96 0.0 0.0 0.0 0.0 0.0 0.0
97 0.0 0.0 0.0 0.0 0.0 0.0
98 0.0 0.0 0.0 0.0 0.0 0.0
99 0.0 0.0 0.0 0.0 0.0 0.0
100 0.0 0.0 0.0 0.0 0.0 0.0
101 0.0 0.0 0.0 0.0 0.0 0.0
102 0.0 0.0 0.0 0.0 0.0 0.0
103 0.0 0.0 0.0 0.0 0.0 0.0
104 0.0 0.0 0.0 0.0 0.0 0.0
105 0.0 0.0 0.0 0.0 0.0 0.0
106 0.0 0.0 0.0 0.0 0.0 0.0
107 0.0 0.0 0.0 0.0 0.0 0.0
108 0.0 0.0 0.0 0.0 0.0 0.0
109 0.0 0.0 0.0 0.0 0.0 0.0
110 -9.430385667760439e-05 -0.0014004084055582817 -0.0032220382991103276 -0.0006309341844389326 -4.759792448223708e-05 0.0
111 -9.259895047906901e-05 -0.0013722265802826959 -0.0032358159751204795 -0.0006483646656723287 -4.3359815686418044e-05 0.0
112 -9.006022786270069e-05 -0.001350229877373548 -0.003245554257421048 -0.0006615624537855938 -3.95854105160106e-05 0.0
113 -8.701652401581235e-05 -0.0013330853158014565 -0.0032527269101990095 -0.0006716756847965019 -3.620619208092804e-05 0.0
114 -8.369444034619328e-05 -0.0013196868616383844 -0.0032582347530639155 -0.0006795319617251515 -3.3160372539571065e-05 0.0
115 -8.024854360165755e-05 -0.0013091485249018342 -0.0032626360850887327 -0.0006857304545216205 -3.0394640884445245e-05 0.0
116 -7.678295155335634e-05 -0.0013007766713776208 -0.0032662826669451177 -0.0006907066955547968 -2.7864230461202727e-05 0.0
117 -7.33666214236262e-05 -0.0012940366573719936 -0.0032694001629054847 -0.0006947783590348495 -2.5532188234668882e-05 0.0
118 -7.004411284669357e-05 -0.0012885208543693023 -0.003272136059056223 -0.0006981778060930423 -2.3368334100588545e-05 0.0
119 -6.684313328086295e-05 -0.0012839208845577498 -0.003274588517662917 -0.000701075375293541 -2.1348167984939997e-05 0.0
120 -6.37798114940961e-05 -0.0012800047703893742 -0.0032768239975376943 -0.0007035961541919908 -1.9451850711072378e-05 0.0
121 -6.08623741572753e-05 -0.001276598731910507 -0.003278888193560978 -0.0007058321220848389 -1.7663311356187767e-05 0.0
122 -5.80937035395538e-05 -0.0012735729909912493 -0.003280812953153332 -0.0007078509809046016 -1.5969494624266925e-05 0.0
123 -5.547311298501756e-05 -0.0012708308588265669 -0.0032826207327896987 -0.0007097026005524307 -1.4359742072092098e-05 0.0
124 -5.299757646446627e-05 -0.001268300431423325 -0.003284327523861651 -0.0007114237362071738 -1.2825292266019037e-05 0.0
125 -5.066257762823254e-05 -0.0012659283150640783 -0.0032859448080907556 -0.0007130414882425026 -1.1358882124147242e-05 0.0
126 -4.8462693964780454e-05 -0.0012636749101660877 -0.0032874808857619995 -0.0007145758439712493 -9.954431935789192e-06 0.0
127 -4.6391996745959834e-05 -0.0012615108799815555 -0.0032889417909810355 -0.0007160415471143194 -8.606798220092168e-06 0.0
128 -4.44443230089343e-05 -0.0012594145139086643 -0.003290331930213608 -0.0007174494740454248 -7.311580791089306e-06 0.0
129 -4.2613458759948636e-05 -0.0012573697628819637 -0.0032916545324746457 -0.0007188076476389237 -6.064972663502253e-06 0.0
130 -4.089326067871358e-05 -0.0012553647777959651 -0.003292911969550144 -0.0007201219845597523 -4.863643530640225e-06 0.0
131 -3.927773530242268e-05 -0.0012533908233990179 -0.0032941059854909235 -0.0007213968463370804 -3.7046493765875813e-06 0.0
132 -3.776108888636587e-05 -0.001251441471865772 -0.0032952378621544758 -0.0007226354459196865 -2.5853623264374516e-06 0.0
133 -3.63377571125431e-05 -0.0012495120043731313 -0.0032963085393069207 -0.0007238401477453829 -1.5034161047418448e-06 0.0
134 -3.5002421016213335e-05 -0.0012475989671941092 -0.003297318702224337 -0.000725012689321923 -4.566634943608226e-07 0.0
135 -3.375001355132791e-05 -0.0012456998424790631 -0.003298268845918866 -0.0007261543449385922 5.568569983577899e-07 0.0
136 -3.257571986046637e-05 -0.0012438128041085555 -0.003299159322472343 -0.0007272660466984225 1.5389474249528196e-06 0.0
137 -3.147497337257267e-05 -0.0012419365366236267 -0.0032999903761098104 -0.0007283484740634011 2.4912712746542296e-06 0.0
138 -3.044344919675998e-05 -0.0012400701009144563 -0.003300762169338783 -0.0007294021201606339 3.415370215707517e-06 0.0
139 -2.9477055825245284e-05 -0.0012382128345673686 -0.0033014748025517525 -0.0007304273409285439 4.31267766135985e-06 0.0
140 -2.8571925842239027e-05 -0.0012363642779031892 -0.003302128328825804 -0.0007314243915841134 5.184529893273516e-06 0.0
141 -2.7724406115853133e-05 -0.0012345241190640694 -0.0033027227651774463 -0.0007323934537149406 6.032175299016906e-06 0.0
142 -2.693104779758149e-05 -0.0012326921532286698 -0.00330325810118796 -0.0007333346554325012 6.856782146029167e-06 0.0
143 -2.61885963480441e-05 -0.001230868252311874 -0.0033037343056674965 -0.0007342480863840609 7.659445212462582e-06 0.0
144 -2.5493981734116342e-05 -0.0012290523424504608 -0.0033041513318470693 -0.0007351338089498062 8.441191518033626e-06 0.0
145 -2.4844308891806134e-05 -0.0012272443872754413 -0.0033045091214580708 -0.0007359918666050662 9.202985339546064e-06 0.0
146 -2.4236848513929383e-05 -0.0012254443754897758 -0.003304807607964634 -0.0007368222901717863 9.945732651621351e-06 0.0
147 -2.366902819739781e-05 -0.001223652311653077 -0.003305046719145583 -0.000737625102495138 1.0670285099892829e-05 0.0
148 -2.3138423968154367e-05 -0.0012218682093585189 -0.0033052263791726907 -0.000738400321942223 1.1377443588861128e-05 0.0
149 -2.2642752190441292e-05 -0.0012200920861967566 -0.0033053465102952616 -0.0007391479650174676 1.2067961547717708e-05 0.0
150 -2.2179861859241532e-05 -0.001218323960057153 -0.003305407034214208 -0.0007398680483136269 1.2742547923236541e-05 0.0
151 -2.1747727269639256e-05 -0.001216563846431402 -0.003305407873208869 -0.0007405605899615294 1.3401869938094437e-05 0.0
152 -2.1344441053329632e-05 -0.0012148117564699397 -0.0033053489510652258 -0.0007412256107003907 1.4046555644923628e-05 0.0
153 -2.0968207570436127e-05 -0.001213067695604612 -0.0033052301938431266 -0.0007418631346599448 1.4677196300245205e-05 0.0
154 -2.06173366434259e-05 -0.0012113316625980434 -0.003305051530511977 -0.0007424731899229556 1.5294348577804424e-05 0.0
155 -2.029023761921298e-05 -0.0012096036489148293 -0.0033048128934781745 -0.0007430558089198767 1.5898536637299813e-05 0.0
156 -1.9985413745261897e-05 -0.0012078836383357917 -0.00330451421902281 -0.000743611028694806 1.649025406175871e-05 0.0
157 -1.9701456845476874e-05 -0.001206171606755699 -0.0033041554476645647 -0.0007441388910725569 1.7069965674743995e-05 0.0
158 -2.8852805344715206e-05 0.0004480664777729452 -0.00020255679086370474 -0.00023414848535499572 4.402565749814447e-05 0.0
159 -2.8023516047122612e-05 0.00046023706893175755 -0.0001912725441287843 -0.0002341967019070582 4.507210593258674e-05 0.0
160 -2.7129012580035552e-05 0.00047088919331591633 -0.0001831626487609587 -0.00023483017729846028 4.612858889947777e-05 0.0
161 -2.6199246267672915e-05 0.0004803541770837176 -0.00017740080360857072 -0.00023586916608705049 4.7180382243011724e-05 0.0
162 -2.525706993667409e-05 0.0004888924164493143 -0.0001733421788035999 -0.0002371755766662179 4.821639345054706e-05 0.0
163 -2.4319450316055748e-05 0.000496702463237386 -0.00017049863251432606 -0.0002386461702359811 4.92284968416873e-05 0.0
164 -2.3398650212714893e-05 0.0005039328610193074 -0.00016850740673286026 -0.00024020501432205955 5.021088496927301e-05 0.0
165 -2.2503266638208906e-05 0.0005106933463232235 -0.00016710214541467227 -0.00024179685532926045 5.1159518606490836e-05 0.0
166 -2.163909233085928e-05 0.000517064279725607 -0.00016608888573755315 -0.00024338179435310066 5.207168641795981e-05 0.0
167 -2.0809806488270484e-05 0.0005231041408550519 -0.00016532721654333315 -0.0002449311933672904 5.294566269295177e-05 0.0
168 -2.001751612652315e-05 0.0005288552922492482 -0.00016471593649131772 -0.0002464246043802241 5.3780445959257136e-05 0.0
169 -1.926317367658641e-05 0.0005343483225552047 -0.00016418234218230966 -0.0002478475011544662 5.4575561740119195e-05 0.0
170 -1.854689534916432e-05 0.0005396052755799385 -0.00016367432789459225 -0.000249189621078338 5.533091504988203e-05 0.0
171 -1.7868201626158195e-05 0.0005446420287714864 -0.00016315461078465657 -0.00025044376217360736 5.604668090383673e-05 0.0
172 -1.7226197536993247e-05 0.0005494700334258604 -0.00016259653778095522 -0.0002516049153876746 5.672322358566983e-05 0.0
173 -1.661970686696696e-05 0.0005540975814542978 -0.00016198105683320942 -0.0002526696417053619 5.736103750141986e-05 0.0
174 -1.6047371400839974e-05 0.0005585307238373099 -0.00016129453857975962 -0.00025363562683716425 5.796070413573896e-05 0.0
175 -1.5507723793204868e-05 0.0005627739343512509 -0.00016052721543096537 -0.00025450136402676166 5.852286095570072e-05 0.0
176 -1.4999240646535034e-05 0.0005668305878507797 -0.00015967206677419408 -0.000255265928882438 5.904817913733544e-05 0.0
177 -1.4520380799976548e-05 0.0005707033040239373 -0.00015872402525656638 -0.0002559288200461139 5.953734777834218e-05 0.0
178 -1.406961261047746e-05 0.0005743941938349778 -0.00015767941336164773 -0.0002564898467947104 5.999106285832699e-05 0.0
179 -1.3645433071755917e-05 0.0005779050357415075 -0.0001565355446589531 -0.00025694904998142457 6.0410019658140065e-05 0.0
180 -1.3246380904212841e-05 0.0005812374013343545 -0.00015529044246804933 -0.0002573066465799372 6.0794907687024434e-05 0.0
181 -1.2871045210112303e-05 0.0005843927446138867 -0.0001539426420121307 -0.00025756299087980163 6.114640741746286e-05 0.0
182 -1.2518070882067854e-05 0.0005873724651605278 -0.00015249105177751756 -0.0002577185473854442 6.146518831415878e-05 0.0
183 -1.2186161648403145e-05 0.0005901779525870754 -0.00015093485674341775 -0.0002577738719085091 6.175190778139687e-05 0.0
184 -1.1874081410600092e-05 0.0005928106175832201 -0.0001492734511379001 -0.0002577295983706567 6.200721075480508e-05 0.0
185 -1.1580654357963716e-05 0.0005952719133628423 -0.00014750639195242732 -0.0002575864295661719 6.223172973823407e-05 0.0
186 -1.130476421755754e-05 0.0005975633502439885 -0.00014563336700307628 -0.00025734513065409553 6.242608514140059e-05 0.0
187 -1.1045352903349762e-05 0.0005996865053141158 -0.00014365417314857377 -0.0002570065245182911 6.259088581399209e-05 0.0
188 -1.0801418758274364e-05 0.000601643028575177 -0.00014156870157100578 -0.0002565714883943695 6.27267297013245e-05 0.0
189 0.0011831280969688965 -0.0010156531232999014 -0.0023478982944696793 -0.00047994782179244387 0.0004578676371659553 0.0
190 -1.1966411218215253e-05 -0.0023879671577015514 -0.004630969858802375 -0.0008163611608752536 -2.1904869213031947e-05 0.0
191 -1.2687654139674679e-05 -0.0023509388723103922 -0.004670557518389056 -0.0008449848649721249 -1.6240992640023435e-05 0.0
192 -1.3390743878916517e-05 -0.002322325328790973 -0.004695215679296342 -0.0008648705993286586 -1.2124525089558105e-05 0.0
193 -1.406850624996102e-05 -0.0023005482807191705 -0.004710813635638434 -0.00087879169604256 -9.116888753181274e-06 0.0
194 -1.4715192284478039e-05 -0.0022840955052821324 -0.004720813998544571 -0.0008886087489448303 -6.900207254827068e-06 0.0
195 -1.532731792501997e-05 -0.0022716798896460343 -0.00472728557795121 -0.0008955806563101593 -5.245907059476562e-06 0.0
196 -1.5903389727698694e-05 -0.002262272373043933 -0.004731486943589941 -0.0009005672484513599 -3.990399332316838e-06 0.0
197 -1.6443372092553832e-05 -0.002255080250544305 -0.004734200038106649 -0.0009041610355378758 -3.0169423575792207e-06 0.0
198 -1.694819065815826e-05 -0.0022495071400675435 -0.004735921428192259 -0.0009067734647709728 -2.2423891380342346e-06 0.0
199 -1.741934931017772e-05 -0.002245111320073334 -0.004736973138757649 -0.0009086920426161858 -1.607612324780839e-06 0.0
200 -1.7858660737163883e-05 -0.002241569083902755 -0.004737567979877806 -0.0009101186530831204 -1.0706280514437154e-06 0.0
201 -1.8268067915577224e-05 -0.002238644955729361 -0.0047378488721229696 -0.0009111955830578183 -6.016742579718939e-07 0.0
202 -1.8649531638431348e-05 -0.002236168531032626 -0.004737913078144054 -0.0009120233923613323 -1.7969440487463498e-07 0.0
203 -1.900496334489927e-05 -0.0022340169504610347 -0.004737827491375906 -0.0009126732952161448 2.101720592797467e-07 0.0
204 -1.9336187779953373e-05 -0.0022321018681456008 -0.004737638500876121 -0.0009131958001845309 5.783794953152759e-07 0.0
205 -1.9644924627515487e-05 -0.002230359875828066 -0.004737378485048778 -0.000913626772037805 9.322518971133574e-07 0.0
206 -1.993278179881561e-05 -0.002228745523551391 -0.004737070159462355 -0.0009139917019540198 1.276891917061308e-06 0.0
207 -2.0201255592334632e-05 -0.0022272262619735116 -0.0047367295284223895 -0.0009143087243301736 1.615828237848243e-06 0.0
208 -2.0451734681464958e-05 -0.0022257787922734073 -0.0047363679105961705 -0.0009145907524440524 1.951476357949084e-06 0.0
209 -2.0685506044365546e-05 -0.0022243864397904997 -0.004735993340777412 -0.0009148469924273413 2.2854663630949986e-06 0.0
210 -2.090376170272291e-05 -0.002223037268464451 -0.004735611545966424 -0.000915084017493137 2.618875905106825e-06 0.0
211 -2.1107605613889027e-05 -0.0022217227293866463 -0.004735226628123587 -0.0009153065305667492 2.9523956506063206e-06 0.0
212 -2.1298060357638502e-05 -0.0022204366934129222 -0.004734841543296944 -0.0009155179058659334 3.2864466406891606e-06 0.0
213 -2.147607343822735e-05 -0.002219174759389152 -0.004734458438619173 -0.0009157205735497438 3.621263421678467e-06 0.0
214 -2.164252312819501e-05 -0.00221793375986181 -0.004734078889704903 -0.0009159162929094651 3.956952825360564e-06 0.0
215 -2.1798223839509357e-05 -0.0022167114081238872 -0.004733704068057602 -0.0009161063463830429 4.2935354371863805e-06 0.0
216 -2.1943931039314475e-05 -0.002215506046314641 -0.004733334859198091 -0.0009162916773228925 4.630974765591176e-06 0.0
217 -2.2080345742216705e-05 -0.0022143164657155985 -0.004732971946052919 -0.0009164729878096237 4.969197681798491e-06 0.0
218 -2.22081186165479e-05 -0.002213141778592444 -0.004732615867831753 -0.0009166508080892965 5.30810867030763e-06 0.0
219 -2.2327853742214753e-05 -0.0022119813268184105 -0.004732267061602666 -0.0009168255458611437 5.647599697035085e-06 0.0
220 -2.2440112055535554e-05 -0.0022108346167312126 -0.004731925891651111 -0.0009169975212609292 5.9875569797446664e-06 0.0
221 -2.2545414512936635e-05 -0.002209701272692658 -0.004731592670212946 -0.0009171669916920032 6.327865573530862e-06 0.0
222 -2.264424500191594e-05 -0.0022085810039769583 -0.0047312676721167615 -0.0009173341694527345 6.668412419358177e-06 0.0
223 -2.2737053023961804e-05 -0.0022074735811554638 -0.004730951145126507 -0.0009174992342537098 7.0090883153546735e-06 0.0
224 -2.2824256171201843e-05 -0.002206378819245244 -0.004730643317248847 -0.0009176623421105349 7.349789136580934e-06 0.0
225 -2.2906242415583054e-05 -0.0022052965656748683 -0.004730344401898589 -0.0009178236316664271 7.690416533815509e-06 0.0
226 -2.2983372227210843e-05 -0.0022042266916804513 -0.004730054601552667 -0.0009179832286923592 8.030878274228744e-06 0.0
227 -2.3055980536425382e-05 -0.0022031690861444224 -0.004729774110337722 -0.0009181412492949681 8.371088338800772e-06 0.0
228 -2.3124378552501267e-05 -0.0022021236511740967 -0.004729503115865457 -0.0009182978022081207 8.710966857284074e-06 0.0
229 -2.3188855450514508e-05 -0.0022010902989197836 -0.004729241800537249 -0.0009184529904344812 9.050439937321678e-06 0.0
230 -2.3249679936692812e-05 -0.0022000689492763536 -0.004728990342474254 -0.0009186069124258567 9.389439427262987e-06 0.0
231 -2.3307101701529836e-05 -0.0021990595282151615 -0.004728748916183246 -0.0009187596629360106 9.727902640105893e-06 0.0
232 -2.3361352769163072e-05 -0.0021980619665660653 -0.004728517693035771 -0.0009189113336406827 1.0065772057439049e-05 0.0
233 -2.3412648750662493e-05 -0.0021970761991214525 -0.004728296841615311 -0.0009190620135918686 1.0402995026250993e-05 0.0
234 -2.3461190008289292e-05 -0.0021961021639710704 -0.004728086527971073 -0.0009192117895539134 1.0739523457230471e-05 0.0
235 -2.3507162737158846e-05 -0.0021951398020027095 -0.004727886915805532 -0.0009193607462551077 1.1075313530222978e-05 0.0
236 -2.35507399703257e-05 -0.002194189056522604 -0.004727698166614806 -0.0009195089665786052 1.141032541039053e-05 0.0
237 -2.3592082512659185e-05 -0.0021932498729625442 -0.0047275204397955 -0.000919656531709674 1.1744522977268524e-05 0.0
238 -2.3631339808686202e-05 -0.0021923221986502018 -0.004727353892727355 -0.0009198035212512463 1.2077873567824375e-05 0.0
239 -2.36686507490232e-05 -0.0021914059826259307 -0.004727198680838561 -0.0009199500133163433 1.2410347734011927e-05 0.0
240 -2.3704144419770033e-05 -0.002190501175493945 -0.004727054957658362 -0.0009200960846034584 1.2741919014831036e-05 0.0
241 -2.373794079889703e-05 -0.002189607729299261 -0.0047269228748603965 -0.0009202418104592711 1.3072563722606987e-05 0.0
242 -2.3770151403374885e-05 -0.0021887255974242332 -0.004726802582299126 -0.0009203872649317791 1.3402260743001095e-05 0.0
243 -2.380087989048396e-05 -0.0021878547345000414 -0.004726694228041009 -0.000920532520816131 1.373099134818395e-05 0.0
244 -2.383022261656783e-05 -0.0021869950963300513 -0.004726597958391749 -0.0009206776496947538 1.4058739022480947e-05 0.0
245 -2.385826915622213e-05 -0.0021861466398224207 -0.004726513917920328 -0.0009208227219729814 1.4385489299817711e-05 0.0
246 -2.388510278468583e-05 -0.0021853093229303473 -0.004726442249480632 -0.0009209678069110512 1.4711229612269267e-05 0.0
247 -2.391080092605757e-05 -0.0021844831045985027 -0.004726383094230995 -0.0009211129726531253 1.5035949149022344e-05 0.0
248 -2.3935435569717955e-05 -0.0021836679447147503 -0.004726336591652126 -0.0009212582862538079 1.5359638725090982e-05 0.0
249 -2.3959073657207767e-05 -0.002182863804066273 -0.004726302879563587 -0.0009214038137025567 1.5682290659154107e-05 0.0
250 -2.398177744166232e-05 -0.0021820706442995615 -0.0047262820941390785 -0.0009215496199462675 1.6003898659898736e-05 0.0
251 -2.4003604821702707e-05 -0.0021812884278837982 -0.004726274369920648 -0.0009216957689102396 1.6324457720304833e-05 0.0
252 -2.4024609651605318e-05 -0.0021805171180771877 -0.0047262798398320415 -0.0009218423235177759 1.6643964019339043e-05 0.0
253 -2.4044842029446384e-05 -0.002179756678895999 -0.004726298635191136 -0.0009219893457084665 1.6962414830522852e-05 0.0
254 -2.4064348564724578e-05 -0.0021790070750859524 -0.004726330885721745 -0.0009221368964554018 1.7279808436941494e-05 0.0
255 -2.4083172626961648e-05 -0.002178268272095824 -0.004726376719564673 -0.0009222850357813137 1.7596144052212394e-05 0.0
256 -2.4101354576595056e-05 -0.0021775402360530056 -0.004726436263288216 -0.0009224338227738126 1.7911421747021413e-05 0.0
257 -2.4118931979425476e-05 -0.0021768229337408977 -0.004726509641898125 -0.0009225833155997675 1.8225642380830386e-05 0.0
258 -2.4135939805802538e-05 -0.002176116332577934 -0.004726596978847068 -0.0009227335715189206 1.8538807538392307e-05 0.0
259 -2.41524106155824e-05 -0.0021754204005981336 -0.0047266983960435995 -0.0009228846468967663 1.8850919470750414e-05 0.0
260 -2.416837472990176e-05 -0.0021747351064330773 -0.004726814013860842 -0.0009230365972168197 1.9161981040399926e-05 0.0
261 -2.4183860390710343e-05 -0.002174060419295162 -0.004726943951144646 -0.0009231894770922301 1.9471995670310262e-05 0.0
262 -2.4198893908881125e-05 -0.002173396308962089 -0.004727088325221502 -0.000923343340276868 1.9780967296559475e-05 0.0
263 -2.421349980177807e-05 -0.0021727427457623972 -0.004727247251906177 -0.0009234982396759241 2.0088900324309644e-05 0.0
264 -2.4227700920962618e-05 -0.0021720997005620375 -0.00472742084550894 -0.0009236542273559908 2.039579958689646e-05 0.0
265 -2.424151857078414e-05 -0.002171467144752002 -0.0047276092188426955 -0.0009238113545547311 2.0701670307806464e-05 0.0
266 -2.425497261847911e-05 -0.002170845050236638 -0.0047278124832297475 -0.0009239696716901606 2.1006518065356522e-05 0.0
267 -2.4268081596405775e-05 -0.002170233389422988 -0.004728030748508422 -0.0009241292283695132 2.1310348759854432e-05 0.0
268 -2.4280862796945235e-05 -0.0021696321352107275 -0.00472826412303956 -0.0009242900733978329 2.161316858310497e-05 0.0
269 -2.4293332360599782e-05 -0.0021690412609829 -0.004728512713712684 -0.0009244522547861714 2.1914983990063825e-05 0.0
270 -2.430550535778909e-05 -0.002168460740597261 -0.004728776625952131 -0.0009246158197595423 2.2215801672504584e-05 0.0
271 -2.4317395864795453e-05 -0.002167890548378239 -0.004729055963723051 -0.0009247808147646029 2.2515628534548312e-05 0.0
272 -2.4329017034217573e-05 -0.0021673306591095017 -0.004729350829537197 -0.0009249472854770433 2.2814471669936804e-05 0.0
273 -2.4340381160421843e-05 -0.002166781048026981 -0.004729661324458711 -0.0009251152768088009 2.3112338340910134e-05 0.0
274 -2.4351499740241957e-05 -0.002166241690812436 -0.004729987548109705 -0.000925284832915007 2.3409235958593287e-05 0.0
275 -2.4362383529371495e-05 -0.0021657125635874456 -0.004730329598675816 -0.0009254559972007618 2.370517206476335e-05 0.0
276 -2.437304259466558e-05 -0.002165193642907859 -0.004730687572911699 -0.0009256288123277207 2.4000154314923094e-05 0.0
277 -2.4383486362686558e-05 -0.0021646849057585997 -0.004731061566146379 -0.0009258033202204941 2.429419046257777e-05 0.0
278 -2.439372366478325e-05 -0.0021641863295488698 -0.00473145167228863 -0.0009259795620729106 2.458728834462193e-05 0.0
279 -2.4403762778891133e-05 -0.0021636978921076677 -0.004731857983832216 -0.00092615757835411 2.4879455867779862e-05 0.0
280 -2.4413611468363957e-05 -0.0021632195716796854 -0.004732280591861156 -0.000926337408814505 2.5170700995994258e-05 0.0
281 -2.4423277017962985e-05 -0.002162751346921416 -0.004732719586054886 -0.0009265190924916212 2.5461031738735696e-05 0.0
282 -2.4432766267300262e-05 -0.0021622931968976393 -0.004733175054693425 -0.0009267026677157997 2.5750456140122814e-05 0.0
283 -2.4442085641830745e-05 -0.0021618451010781085 -0.0047336470846625275 -0.0009268881721158091 2.603898226883918e-05 0.0
284 -2.4451241181627607e-05 -0.0021614070393344703 -0.004734135761458723 -0.0009270756426243362 2.6326618208763015e-05 0.0
285 -2.446023856809606e-05 -0.002160978991937492 -0.0047346411691944566 -0.0009272651154833863 2.6613372050258397e-05 0.0
286 -2.4469083148730088e-05 -0.0021605609395544292 -0.004735163390603092 -0.0009274566262495815 2.6899251882103636e-05 0.0
287 -2.4477779960101614e-05 -0.0021601528632466094 -0.004735702507043968 -0.0009276502097993924 2.7184265783991627e-05 0.0
288 -2.4486333749178893e-05 -0.002159754744467269 -0.004736258598507457 -0.0009278459003342701 2.746842181956765e-05 0.0
289 -2.44947489931142e-05 -0.00215936656505945 -0.004736831743619899 -0.0009280437313857034 2.7751728029967728e-05 0.0
290 -2.4503029917591014e-05 -0.002158988307254206 -0.004737422019648703 -0.0009282437358202243 2.8034192427822696e-05 0.0
291 -2.4511180513844615e-05 -0.002158619953668865 -0.004738029502507252 -0.0009284459458443067 2.831582299169379e-05 0.0
292 -2.4519204554472922e-05 -0.0021582614873054792 -0.004738654266759961 -0.0009286503930092427 2.8596627660903228e-05 0.0
293 -2.4527105608056545e-05 -0.0021579128915494 -0.004739296385627186 -0.0009288571082159281 2.8876614330754513e-05 0.0
294 -2.4534887052772584e-05 -0.0021575741501680674 -0.0047399559309903045 -0.0009290661217196028 2.915579084807472e-05 0.0
295 -2.4542552088983145e-05 -0.00215724524730976 -0.004740632973396561 -0.0009292774631345275 2.9434165007103108e-05 0.0
296 -2.4550103750930228e-05 -0.002156926167502668 -0.0047413275820641625 -0.0009294911614386235 2.9711744545661558e-05 0.0
297 -2.455754491759066e-05 -0.00215661689565392 -0.004742039824887143 -0.0009297072449780322 2.9988537141606925e-05 0.0
298 -2.4564878322704715e-05 -0.002156317417048815 -0.004742769768440409 -0.0009299257414716633 3.0264550409554523e-05 0.0
299 -2.4572106564126566e-05 -0.0021560277173501 -0.004743517477984633 -0.0009301466780156599 3.053979189782191e-05 0.0
300 -2.4579232112464787e-05 -0.002155747782597422 -0.004744283017471244 -0.0009303700810878341 3.081426908560634e-05 0.0
301 -2.4586257319097204e-05 -0.002155477599206788 -0.004745066449547397 -0.0009305959765520722 3.108798938037448e-05 0.0
302 -2.4593184423621184e-05 -0.0021552171539701774 -0.004745867835560867 -0.0009308243896626635 3.136096011543121e-05 0.0
303 -2.4600015560733083e-05 -0.0021549664340552305 -0.004746687235565058 -0.0009310553450686223 3.16331885476827e-05 0.0
304 -2.4606752766643796e-05 -0.0021547254270050313 -0.004747524708323912 -0.0009312888668179441 3.190468185554949e-05 0.0
305 -2.4613397984995667e-05 -0.0021544941207379273 -0.004748380311316827 -0.0009315249783618335 3.217544713704909e-05 0.0
306 -2.461995307236252e-05 -0.0021542725035475032 -0.004749254100743643 -0.0009317637025588973 3.244549140801354e-05 0.0
307 -2.4626419803341172e-05 -0.0021540605641025574 -0.004750146131529504 -0.0009320050616792865 3.2714821600446286e-05 0.0
308 -2.463279987530145e-05 -0.0021538582914472216 -0.004751056457329818 -0.0009322490774088124 3.298344456098905e-05 0.0
309 -2.4639094912727352e-05 -0.0021536656750011157 -0.004751985130535133 -0.0009324957708530123 3.325136704952732e-05 0.0
310 -2.464530647131857e-05 -0.002153482704559567 -0.004752932202276078 -0.0009327451625412023 3.351859573787834e-05 0.0
311 -2.4651436041731393e-05 -0.0021533093702939213 -0.004753897722428208 -0.0009329972724304713 3.378513720859606e-05 0.0
312 -2.4657485053082848e-05 -0.0021531456627519254 -0.004754881739616892 -0.0009332521199096385 3.40509979538544e-05 0.0
313 -2.466345487616906e-05 -0.002152991572858164 -0.004755884301222209 -0.0009335097238032008 3.4316184374432213e-05 0.0
314 -2.466934682648093e-05 -0.002152847091914551 -0.004756905453383763 -0.0009337701023752184 3.458070277876126e-05 0.0
315 -2.4675162166972034e-05 -0.0021527122116009167 -0.004757945241005567 -0.0009340332733331841 3.484455938205955e-05 0.0
316 -2.4680902110639577e-05 -0.002152586923975645 -0.004759003707760817 -0.0009342992538318342 3.5107760305524425e-05 0.0
317 -2.4686567822912215e-05 -0.0021524712214763416 -0.004760080896096743 -0.0009345680604769606 3.537031157559774e-05 0.0
318 -2.4692160423855508e-05 -0.0021523650969206523 -0.00476117684723939 -0.000934839709329148 3.5632219123281484e-05 0.0
319 -2.46976809902242e-05 -0.002152268543507023 -0.00476229160119838 -0.0009351142159075098 3.5893488783516256e-05 0.0
320 -2.4703130557366527e-05 -0.002152181554815632 -0.004763425196771694 -0.0009353915951933713 3.6154126294600943e-05 0.0
321 -2.470851012097912e-05 -0.002152104124809303 -0.0047645776715503916 -0.0009356718616339269 3.641413729766771e-05 0.0
322 -2.4713820638726412e-05 -0.0021520362478345215 -0.00476574906192332 -0.0009359550291458515 3.667352733619913e-05 0.0
323 -2.471906303177477e-05 -0.0021519779186225186 -0.0047669394030818565 -0.0009362411111188987 3.6932301855575845e-05 0.0
324 -2.472423818616478e-05 -0.002151929132290359 -0.004768148729024501 -0.0009365301204194347 3.71904662026767e-05 0.0
325 -2.4729346954127334e-05 -0.0021518898843421634 -0.004769377072561587 -0.0009368220693939652 3.744802562549856e-05 0.0
326 -2.4734390155269197e-05 -0.0021518601706703245 -0.004770624465319906 -0.0009371169698726237 3.7704985272821504e-05 0.0
327 -2.47393685776884e-05 -0.0021518399875568254 -0.0047718909377472574 -0.0009374148331725994 3.796135019389138e-05 0.0
328 -2.4744282979004794e-05 -0.0021518293316746167 -0.0047731765191170615 -0.0009377156701015607 3.821712533813454e-05 0.0
329 -2.4749134087303316e-05 -0.0021518282000889976 -0.004774481237532882 -0.0009380194909610329 3.8472315554902704e-05 0.0
330 -2.4753922602023433e-05 -0.0021518365902591314 -0.004775805119932964 -0.0009383263055497445 3.872692559323165e-05 0.0
331 -2.4758649194768773e-05 -0.002151854500039599 -0.0047771481920946875 -0.0009386361231669176 3.898096010162343e-05 0.0
332 -2.4763314510071957e-05 -0.0021518819276819547 -0.004778510478639041 -0.0009389489526155595 3.923442362785133e-05 0.0
333 -2.4767919166073382e-05 -0.002151918871836445 -0.004779892003035046 -0.0009392648022056849 3.948732061878185e-05 0.0
334 -2.4772463755178037e-05 -0.0021519653315536773 -0.004781292787604135 -0.0009395836797575277 3.9739655420212156e-05 0.0
335 -2.477694884465854e-05 -0.0021520213062864394 -0.004782712853524539 -0.0009399055926047069 3.999143227671749e-05 0.0
336 -2.478137497719032e-05 -0.0021520867958915255 -0.004784152220835555 -0.0009402305475973436 4.0242655331522025e-05 0.0
337 -2.4785742671368065e-05 -0.0021521618006316474 -0.004785610908441915 -0.0009405585511051773 4.049332862637616e-05 0.0
338 -2.479005242218313e-05 -0.002152246321177394 -0.004787088934117961 -0.0009408896090206068 4.074345610144105e-05 0.0
339 -2.47943047014436e-05 -0.0021523403586092634 -0.004788586314511904 -0.0009412237267617199 4.099304159519353e-05 0.0
340 -2.4798499958184602e-05 -0.0021524439144197595 -0.004790103065149998 -0.0009415609092752791 4.124208884433006e-05 0.0
341 -2.480263861904123e-05 -0.002152556990515524 -0.0047916392004406835 -0.0009419011610396804 4.1490601483684376e-05 0.0
342 -2.480672108858134e-05 -0.0021526795892195644 -0.004793194733678678 -0.0009422444860678557 4.173858304615088e-05 0.0
343 -2.481074774962063e-05 -0.0021528117132735315 -0.00479476967704905 -0.0009425908879101596 4.1986036962615674e-05 0.0
344 -2.4814718963508482e-05 -0.002152953365840063 -0.004796364041631242 -0.0009429403696572077 4.223296656189266e-05 0.0
345 -2.4818635070405123e-05 -0.0021531045505051925 -0.004797977837403049 -0.0009432929339426804 4.2479375070658896e-05 0.0
346 -2.482249638950818e-05 -0.002153265271280802 -0.004799611073244542 -0.0009436485829460925 4.272526561340729e-05 0.0
347 -2.4826303219295114e-05 -0.002153435532607181 -0.004801263756942013 -0.000944007318395531 4.297064121238705e-05 0.0
348 -2.4830055837715156e-05 -0.0021536153393556 -0.004802935895191772 -0.0009443691415703433 4.3215504787560186e-05 0.0
349 -2.48337545023843e-05 -0.002153804696831022 -0.0048046274936040115 -0.0009447340533037947 4.345985915655027e-05 0.0
350 -2.4837399450754154e-05 -0.0021540036107748077 -0.004806338556706529 -0.00094510205398569 4.370370703459989e-05 0.0
351 -2.4840990900271144e-05 -0.002154212087367522 -0.004808069087948469 -0.0009454731435649566 4.394705103452528e-05 0.0
352 -2.4844529048508854e-05 -0.0021544301332318003 -0.004809819089704013 -0.0009458473215522005 4.418989366667985e-05 0.0
353 -2.4848014073312028e-05 -0.0021546577554353128 -0.00481158856327599 -0.0009462245870222002 4.44322373389017e-05 0.0
354 -2.4851446132905866e-05 -0.002154894961493744 -0.004813377508899454 -0.0009466049386163854 4.467408435647655e-05 0.0
355 -2.485482536599489e-05 -0.0021551417593738825 -0.004815185925745256 -0.0009469883745452791 4.4915436922097656e-05 0.0
356 -2.485815189187933e-05 -0.0021553981574968027 -0.004817013811923503 -0.0009473748925908767 4.5156297135809134e-05 0.0
357 -2.4861425810523287e-05 -0.0021556641647410123 -0.004818861164486996 -0.000947764490109025 4.539666699497281e-05 0.0
358 -2.4864647202622025e-05 -0.002155939790445844 -0.004820727979434658 -0.000948157164031726 4.5636548394216656e-05 0.0
359 -2.4867816129694276e-05 -0.002156225044414734 -0.0048226142517148385 -0.0009485529108694349 4.5875943125382435e-05 0.0
360 -2.4870932634118934e-05 -0.002156519936918719 -0.004824519975228614 -0.0009489517267132917 4.61148528774762e-05 0.0
361 -2.4873996739198018e-05 -0.002156824478699915 -0.00482644514283306 -0.000949353607237347 4.635327923661417e-05 0.0
362 -2.4877008449194218e-05 -0.0021571386809751225 -0.004828389746344404 -0.0009497585477007177 4.659122368596373e-05 0.0
363 -2.4879967749363494e-05 -0.0021574625554395144 -0.0048303537765412 -0.0009501665429497215 4.68286876056833e-05 0.0
364 -2.488287460599757e-05 -0.002157796114270322 -0.00483233722316741 -0.0009505775874199845 4.706567227285852e-05 0.0
365 -2.4885728966430943e-05 -0.0021581393701307033 -0.0048343400749354115 -0.0009509916751384731 4.73021788614327e-05 0.0
366 -2.4888530759082002e-05 -0.0021584923361736242 -0.004836362319529041 -0.0009514087997255354 4.753820844213081e-05 0.0
367 -2.4891279893443806e-05 -0.0021588550260458386 -0.0048384039436064835 -0.0009518289543968667 4.777376198238858e-05 0.0
368 -2.4893976260094165e-05 -0.002159227453891904 -0.0048404649328031716 -0.0009522521319654661 4.800884034627312e-05 0.0
369 -2.489661973071388e-05 -0.002159609634358409 -0.004842545271734603 -0.0009526783248435155 4.824344429438325e-05 0.0
370 -2.4899210158062688e-05 -0.0021600015825980804 -0.004844644943999125 -0.0009531075250442744 4.847757448377604e-05 0.0
371 -2.490174737599075e-05 -0.002160403314274162 -0.004846763932180634 -0.0009535397241838829 4.871123146785469e-05 0.0
372 -2.490423119941007e-05 -0.00216081484556478 -0.004848902217851278 -0.0009539749134831668 4.8944415696277345e-05 0.0
373 -2.4906661424295253e-05 -0.0021612361931673996 -0.004851059781574025 -0.000954413083769374 4.9177127514840965e-05 0.0
374 -2.490903782764058e-05 -0.0021616673743033808 -0.004853236602905231 -0.000954854225477897 4.9409367165377286e-05 0.0
375 -2.491136016746051e-05 -0.0021621084067226025 -0.004855432660397153 -0.0009552983286539469 4.964113478562519e-05 0.0
376 -2.4913628182755342e-05 -0.002162559308708242 -0.004857647931600372 -0.0009557453829541723 4.9872430409102015e-05 0.0
377 -2.491584159346821e-05 -0.002163020099081528 -0.004859882393066203 -0.0009561953776482788 5.010325396498132e-05 0.0
378 -2.4918000100463184e-05 -0.0021634907972066663 -0.004862136020348999 -0.0009566483016205701 5.033360527794549e-05 0.0
379 -2.4920103385468072e-05 -0.0021639714229958447 -0.004864408788008448 -0.0009571041433714738 5.056348406804683e-05 0.0
380 -2.492215111106141e-05 -0.002164461996914303 -0.004866700669611764 -0.0009575628910190144 5.079288995054303e-05 0.0
381 -2.4924142920605462e-05 -0.00216496253998551 -0.0048690116377358775 -0.0009580245323002691 5.102182243574705e-05 0.0
382 -2.492607843819475e-05 -0.002165473073796445 -0.004871341663969511 -0.0009584890545727543 5.1250280928857446e-05 0.0
383 -2.4927957268610117e-05 -0.002165993620502943 -0.004873690718915239 -0.0009589564448158046 5.147826472978331e-05 0.0
384 -2.4929778997277584e-05 -0.00216652420283516 -0.00487605877219146 -0.0009594266896318877 5.170577303295504e-05 0.0
385 -2.4931543190190594e-05 -0.0021670648441031457 -0.004878445792434317 -0.0009598997752478878 5.19328049271382e-05 0.0
386 -2.493324939385738e-05 -0.0021676155682024776 -0.0048808517472995975 -0.0009603756875163668 5.215935939523525e-05 0.0
387 -2.4934897135219858e-05 -0.0021681763996200046 -0.004883276603464505 -0.000960854411916763 5.238543531408209e-05 0.0
388 -2.4936485921610898e-05 -0.002168747363439739 -0.004885720326629432 -0.0009613359335565586 5.261103145422173e-05 0.0
389 -2.4938015240668347e-05 -0.0021693284853487728 -0.004888182881519642 -0.0009618202371724165 5.2836146479687606e-05 0.0
390 -2.4939484560266938e-05 -0.0021699197916433227 -0.004890664231886874 -0.0009623073071312662 5.30607789477684e-05 0.0
391 -2.4940893328424287e-05 -0.0021705213092349544 -0.0048931643405109694 -0.0009627971274313574 5.3284927308769404e-05 0.0
392 -2.4942240973246355e-05 -0.0021711330656567704 -0.00489568316920131 -0.0009632896817032692 5.350858990575456e-05 0.0
393 -2.494352690282042e-05 -0.0021717550890698466 -0.00489822067879833 -0.0009637849532108896 5.3731764974293604e-05 0.0
394 -2.4944750505140623e-05 -0.002172387408269669 -0.004900776829174838 -0.0009642829248523345 5.395445064218643e-05 0.0
395 -2.494591114801842e-05 -0.002173030052692715 -0.004903351579237392 -0.0009647835791608658 5.417664492918825e-05 0.0
396 -2.494700817898196e-05 -0.0021736830524232004 -0.00490594488692754 -0.0009652868983057193 5.43983457467165e-05 0.0
397 -2.4948040925180412e-05 -0.002174346438199859 -0.004908556709223016 -0.0009657928640929304 5.4619550897554584e-05 0.0
398 -2.494900869329147e-05 -0.0021750202414228467 -0.004911187002138906 -0.0009663014579661218 5.484025807554351e-05 0.0
399 -2.4949910769407985e-05 -0.002175704494160833 -0.004913835720728682 -0.000966812661007209 5.506046486525864e-05 0.0
400 -2.495074641894394e-05 -0.002176399229158104 -0.004916502819085231 -0.0009673264539371183 5.528016874168089e-05 0.0
401 -2.4951514886508963e-05 -0.002177104479841867 -0.004919188250341814 -0.0009678428171164307 5.5499367069859546e-05 0.0
402 -2.495221539580562e-05 -0.002177820280329625 -0.004921891966672939 -0.0009683617305460011 5.571805710455815e-05 0.0
403 -2.4952847149506924e-05 -0.0021785466654367005 -0.004924613919295192 -0.0009688831738675301 5.593623598989301e-05 0.0
404 -2.4953409329141488e-05 -0.0021792836706838797 -0.004927354058467966 -0.0009694071263640894 5.615390075895666e-05 0.0
405 -2.495390109496501e-05 -0.00218003133230515 -0.004930112333494212 -0.0009699335669606329 5.6371048333438136e-05 0.0
406 -2.4954321585830717e-05 -0.0021807896872556 -0.004932888692720982 -0.0009704624742244249 5.6587675523222706e-05 0.0
407 -2.495466991906203e-05 -0.0021815587732194348 -0.00493568308354005 -0.0009709938263654664 5.680377902598484e-05 0.0
408 -2.4954945190317282e-05 -0.0021823386286181135 -0.004938495452388397 -0.0009715276012368633 5.701935542676764e-05 0.0
409 -2.4955146473447372e-05 -0.0021831292926186227 -0.004941325744748611 -0.000972063776335145 5.723440119755064e-05 0.0
410 -2.495527282035008e-05 -0.002183930805141887 -0.004944173905149295 -0.0009726023288005669 5.744891269680848e-05 0.0
411 -2.495532326082863e-05 -0.002184743206871298 -0.004947039877165311 -0.0009731432354173413 5.7662886169049855e-05 0.0
412 -2.4955296802446668e-05 -0.0021855665392614297 -0.004949923603418052 -0.000973686472613846 5.787631774434485e-05 0.0
413 -2.4955192430356034e-05 -0.002186400844546799 -0.004952825025575584 -0.0009742320164627948 5.808920343785231e-05 0.0
414 -2.4955009107143527e-05 -0.002187246165750873 -0.004955744084352702 -0.000974779842681334 5.830153914931542e-05 0.0
415 -2.495474577268141e-05 -0.00218810254669515 -0.004958680719511029 -0.0009753299266311462 5.851332066255361e-05 0.0
416 -2.495440134393292e-05 -0.002188970032008387 -0.004961634869858884 -0.0009758822433184654 5.872454364494619e-05 0.0
417 -2.4953974714808808e-05 -0.0021898486671360277 -0.004964606473251237 -0.0009764367673940783 5.8935203646885356e-05 0.0
418 -2.4953464755962437e-05 -0.0021907384983497046 -0.0049675954665894684 -0.0009769934731532696 5.914529610123726e-05 0.0
419 -2.4952870314627675e-05 -0.002191639572756948 -0.004970601785821148 -0.0009775523345357299 5.9354816322769684e-05 0.0
420 -2.4952190214421123e-05 -0.0021925519383110383 -0.004973625365939679 -0.0009781133251254102 5.956375950757554e-05 0.0
421 -2.495142325516205e-05 -0.0021934756438209855 -0.004976666140983928 -0.0009786764181503507 5.9772120732477865e-05 0.0
422 -2.495056821265973e-05 -0.0021944107389617017 -0.004979724044037689 -0.000979241586482438 5.997989495442306e-05 0.0
423 -2.4949623838528234e-05 -0.00219535727428429 -0.004982799007229224 -0.0009798088026371594 6.018707700985749e-05 0.0
424 -2.494858885996566e-05 -0.002196315301226568 -0.0049858909617305925 -0.0009803780387732674 6.039366161408793e-05 0.0
425 -2.4947461979556908e-05 -0.002197284872123667 -0.00498899983775693 -0.00098094926669242 6.059964336062273e-05 0.0
426 -2.494624187503976e-05 -0.0021982660402188776 -0.004992125564565754 -0.0009815224578387884 6.080501672050958e-05 0.0
427 -2.494492719910397e-05 -0.0021992588596746 -0.004995268070456059 -0.0009820975832985966 6.100977604163882e-05 0.0
428 -2.4943516579140427e-05 -0.0022002633855835057 -0.004998427282767436 -0.0009826746137996329 6.121391554805099e-05 0.0
429 -2.4942008617023242e-05 -0.002201279673979871 -0.005001603127879021 -0.0009832535197106898 6.141742933920691e-05 0.0
430 -2.494040188886336e-05 -0.0022023077818510875 -0.0050047955312084915 -0.000983834271040992 6.162031138925727e-05 0.0
431 -2.493869494476124e-05 -0.0022033477671493306 -0.0050080044172108665 -0.0009844168374395512 6.18225555462877e-05 0.0
432 -2.4936886308559497e-05 -0.002204399688803412 -0.00501122970937729 -0.0009850011881944894 6.202415553154772e-05 0.0
433 -2.4934974477582854e-05 -0.002205463606730878 -0.005014471330233712 -0.0009855872922322937 6.222510493865884e-05 0.0
434 -2.493295792237703e-05 -0.0022065395818502208 -0.005017729201339522 -0.0009861751181170493 6.242539723280856e-05 0.0
435 -2.4930835086438344e-05 -0.002207627676093316 -0.005021003243286053 -0.0009867646340496058 6.262502574992477e-05 0.0
436 -2.4928604385929178e-05 -0.002208727952418042 -0.005024293375695026 -0.0009873558078666992 6.282398369583341e-05 0.0
437 -2.49262642093923e-05 -0.0022098404748211245 -0.005027599517216934 -0.0009879486070400257 6.302226414539534e-05 0.0
438 -2.492381291748762e-05 -0.0022109653083511468 -0.005030921585529323 -0.0009885429986752714 6.321986004161576e-05 0.0
439 -2.4921248842652787e-05 -0.002212102519121799 -0.0050342594973349485 -0.0009891389495110666 6.341676419475268e-05 0.0
440 -2.49185702888348e-05 -0.002213252174325287 -0.005037613168359923 -0.0009897364259179268 6.361296928138591e-05 0.0
441 -2.4915775531146803e-05 -0.0022144143422460016 -0.005040982513351745 -0.0009903353938971189 6.380846784348481e-05 0.0
442 -2.491286281558418e-05 -0.002215589092274383 -0.005044367446077187 -0.0009909358190794662 6.400325228742832e-05 0.0
443 -2.490983035865411e-05 -0.002216776494920978 -0.00504776787932022 -0.0009915376667241399 6.419731488304269e-05 0.0
444 -2.490667634707911e-05 -0.002217976621830756 -0.005051183724879693 -0.000992140901717347 6.439064776257639e-05 0.0
445 -2.490339893742896e-05 -0.002219189545797645 -0.005054614893567058 -0.0009927454885710026 6.458324291968357e-05 0.0
446 -2.489999625577979e-05 -0.002220415340779257 -0.005058061295203908 -0.0009933513914213306 6.477509220837122e-05 0.0
447 -2.4896466397360057e-05 -0.002221654081911872 -0.005061522838619503 -0.0009939585740274268 6.496618734192716e-05 0.0
448 -2.489280742617093e-05 -0.002222905845525696 -0.005064999431648138 -0.0009945669997697374 6.515651989182514e-05 0.0
449 -2.4889017374606543e-05 -0.002224170709160286 -0.0050684909811264285 -0.000995176631648505 6.534608128661076e-05 0.0
450 -2.4885094243087136e-05 -0.0022254487515802404 -0.005071997392890517 -0.000995787432282154 6.55348628107529e-05 0.0
451 -2.4881035999638967e-05 -0.002226740052791208 -0.005075518571773207 -0.0009963993639056136 6.572285560348519e-05 0.0
452 -2.4876840579513124e-05 -0.0022280446940560247 -0.005079054421600927 -0.0009970123883685858 6.591005065760971e-05 0.0
453 -2.4872505884760032e-05 -0.002229362757911207 -0.005082604845190671 -0.0009976264671337587 6.609643881828534e-05 0.0
454 -2.4868029783807155e-05 -0.0022306943281836687 -0.005086169744346753 -0.0009982415612749406 6.628201078178398e-05 0.0
455 -2.4863410111025745e-05 -0.0022320394900076893 -0.005089749019857599 -0.000998857631475177 6.646675709423027e-05 0.0
456 -2.4858644666295916e-05 -0.0022333983298421754 -0.005093342571492238 -0.0009994746380247493 6.66506681502991e-05 0.0
457 -2.4853731214534987e-05 -0.002234770935488187 -0.005096950297996867 -0.0010000925408191587 6.683373419190641e-05 0.0
458 -2.4848667485249063e-05 -0.0022361573961067454 -0.005100572097091238 -0.001000711299357031 6.70159453068559e-05 0.0
459 -2.484345117204374e-05 -0.0022375578022369013 -0.005104207865464894 -0.001001330872737947 6.719729142746936e-05 0.0
460 -2.4838079932162534e-05 -0.0022389722458141087 -0.005107857498773376 -0.0010019512196602336 6.737776232917678e-05 0.0
461 -2.4832551385956755e-05 -0.0022404008201889385 -0.0051115208916342825 -0.001002572298418663 6.755734762909263e-05 0.0
462 -2.4826863116400785e-05 -0.002241843620145994 -0.005115197937623198 -0.001003194066902105 6.773603678455009e-05 0.0
463 -2.4821012668559532e-05 -0.002243300741923192 -0.0051188885292695495 -0.0010038164825911097 6.791381909161415e-05 0.0
464 -2.481499754905768e-05 -0.002244772283231347 -0.005122592558052296 -0.0010044395025554102 6.809068368355822e-05 0.0
465 -2.4808815225529854e-05 -0.00224625834327406 -0.00512630991439554 -0.001005063083451371 6.826661952931518e-05 0.0
466 -2.4802463126077182e-05 -0.002247759022767919 -0.005130040487664037 -0.0010056871815193676 6.844161543188993e-05 0.0
467 -2.47959386386732e-05 -0.0022492744239630646 -0.005133784166158529 -0.0010063117525810769 6.861566002674965e-05 0.0
468 -2.4789239110595333e-05 -0.0022508046506640083 -0.005137540837110967 -0.001006936752036715 6.878874178017275e-05 0.0
469 -2.4782361847827388e-05 -0.0022523498082508754 -0.00514131038667965 -0.001007562134862194 6.896084898756576e-05 0.0
470 -2.4775304114432343e-05 -0.002253910003700932 -0.005145092699944221 -0.001008187855606211 6.913196977175603e-05 0.0
471 -2.4768063131950653e-05 -0.0022554853456104667 -0.005148887660900523 -0.0010088138683872604 6.930209208123322e-05 0.0
472 -2.4760636078725695e-05 -0.0022570759442170655 -0.005152695152455278 -0.0010094401268905511 6.947120368837393e-05 0.0
473 -2.475302008928772e-05 -0.002258681911422218 -0.005156515056420763 -0.001010066584364881 6.963929218760965e-05 0.0
474 -2.474521225364415e-05 -0.0022603033608142604 -0.005160347253509222 -0.0010106931936194117 6.98063449935859e-05 0.0
475 -2.4737209616626422e-05 -0.0022619404076917493 -0.005164191623327195 -0.0010113199070203621 6.997234933925307e-05 0.0
476 -2.4729009177163745e-05 -0.0022635931690872238 -0.00516804804436975 -0.001011946676487635 7.013729227394417e-05 0.0
477 -2.4720607887574618e-05 -0.0022652617637912457 -0.005171916394014467 -0.0010125734534913483 7.030116066140369e-05 0.0
478 -2.471200265282958e-05 -0.002266946312377029 -0.00517579654851539 -0.001013200189048281 7.046394117777156e-05 0.0
479 -2.4703190329802243e-05 -0.0022686469372252263 -0.005179688382996788 -0.0010138268337182676 7.062562030954351e-05 0.0
480 -2.4694167726491656e-05 -0.0022703637625493714 -0.005183591771446725 -0.001014453337600445 7.078618435147091e-05 0.0
481 -2.468493160124368e-05 -0.002272096914421539 -0.005187506586710596 -0.0010150796503294848 7.094561940443697e-05 0.0
482 -2.4675478661937093e-05 -0.0022738465207985687 -0.005191432700484365 -0.001015705721071671 7.110391137327607e-05 0.0
483 -2.466580556515708e-05 -0.0022756127115486466 -0.005195369983307762 -0.0010163314985209273 7.126104596456086e-05 0.0
484 -2.465590891536375e-05 -0.0022773956184783278 -0.005199318304557289 -0.0010169569308947518 7.141700868433684e-05 0.0
485 -2.464578526401904e-05 -0.0022791953753600615 -0.005203277532439051 -0.0010175819659300374 7.157178483581732e-05 0.0
486 -2.463543110869819e-05 -0.0022810121179601037 -0.005207247533981428 -0.0010182065508788126 7.172535951703373e-05 0.0
487 -2.462484289220421e-05 -0.0022828459840669763 -0.005211228175027596 -0.0010188306325038805 7.187771761842737e-05 0.0
488 -2.461401700161015e-05 -0.0022846971135202965 -0.0052152193202278955 -0.0010194541570743736 7.202884382041968e-05 0.0
489 -2.460294976735163e-05 -0.0022865656482402054 -0.005219220833031976 -0.0010200770703611814 7.217872259089647e-05 0.0
490 -2.4591637462222083e-05 -0.0022884517322571876 -0.005223232575680827 -0.0010206993176323084 7.232733818268108e-05 0.0
491 -2.458007630040618e-05 -0.002290355511742473 -0.005227254409198578 -0.0010213208436480987 7.247467463092579e-05 0.0
492 -2.4568262436450913e-05 -0.002292277135038862 -0.00523128619338421 -0.0010219415926563974 7.262071575047716e-05 0.0
493 -2.455619196423908e-05 -0.002294216752692189 -0.005235327786802929 -0.0010225615083875443 7.276544513316306e-05 0.0
494 -2.4543860915907183e-05 -0.0022961745174832054 -0.005239379046777571 -0.0010231805340493317 7.290884614505546e-05 0.0
495 -2.4531265260776045e-05 -0.002298150584460051 -0.005243439829379582 -0.0010237986123217868 7.305090192365203e-05 0.0
496 -2.4518400904229097e-05 -0.002300145110971291 -0.005247509989420018 -0.0010244156853518919 7.319159537501884e-05 0.0
497 -2.4505263686575325e-05 -0.002302158256699491 -0.005251589380440196 -0.0010250316947481544 7.333090917086743e-05 0.0
498 -2.4491849381884898e-05 -0.0023041901836953716 -0.005255677854702261 -0.0010256465815750885 7.346882574557891e-05 0.0
499 -2.447815369679237e-05 -0.002306241056412539 -0.0052597752631794534 -0.001026260286347558 7.360532729316747e-05 0.0
500 -2.446417226926463e-05 -0.0023083110417428357 -0.00526388145554625 -0.0010268727490250094 7.374039576418649e-05 0.0
501 -2.4449900667380123e-05 -0.002310400309052273 -0.005267996280168274 -0.0010274839090055857 7.387401286256052e-05 0.0
502 -2.4435334388019802e-05 -0.0023125090302175575 -0.005272119584091993 -0.0010280937051201197 7.40061600423777e-05 0.0
503 -2.4420468855571683e-05 -0.002314637379663344 -0.005276251213034162 -0.0010287020756259671 7.413681850459156e-05 0.0
504 -2.4405299420579664e-05 -0.002316785534400015 -0.005280391011371148 -0.0010293089582007649 7.426596919368194e-05 0.0
505 -2.4389821358389566e-05 -0.002318953674062176 -0.005284538822127936 -0.0010299142899360184 7.439359279422812e-05 0.0
506 -2.437402986772137e-05 -0.0023211419809478287 -0.005288694486966921 -0.0010305180073305574 7.451966972742956e-05 0.0
507 -2.435792006924581e-05 -0.002323350640058186 -0.005292857846176564 -0.0010311200462838855 7.464418014755e-05 0.0
508 -2.4341487004102704e-05 -0.0023255798391382033 -0.005297028738659724 -0.0010317203420893682 7.476710393829483e-05 0.0
509 -2.4324725632409584e-05 -0.002327829768717832 -0.005301207001921738 -0.001032318829427266 7.48884207091034e-05 0.0
510 -2.4307630831689453e-05 -0.0023301006221539515 -0.005305392472058361 -0.001032915442357668 7.500810979139406e-05 0.0
511 -2.4290197395325223e-05 -0.0023323925956731098 -0.005309584983743372 -0.0010335101143132345 7.512615023469937e-05 0.0
512 -2.4272420030914436e-05 -0.002334705888414909 -0.005313784370215964 -0.0010341027780918228 7.524252080275701e-05 0.0
513 -2.4254293358625767e-05 -0.0023370407024762836 -0.005317990463267918 -0.001034693365848949 7.535719996950079e-05 0.0
514 -2.4235811909496805e-05 -0.0023393972429564445 -0.005322203093230402 -0.001035281809090083 7.547016591497995e-05 0.0
515 -2.4216970123706773e-05 -0.0023417757180027275 -0.005326422088960669 -0.0010358680386628107 7.558139652119181e-05 0.0
516 -2.4197762348785498e-05 -0.0023441763388571137 -0.0053306472778283905 -0.0010364519847488383 7.569086936784434e-05 0.0
517 -2.417818283780505e-05 -0.0023465993199037554 -0.0053348784857017275 -0.0010370335768557968 7.57985617280113e-05 0.0
518 -2.4158225747495836e-05 -0.0023490448787172125 -0.005339115536933135 -0.0010376127438089158 7.590445056372329e-05 0.0
519 0.0012327913109203032 -0.0010360030865307064 -0.002739059553743279 -0.0005639748106036923 0.0005300409397431392 0.0
520 0.0012153526067267655 -0.0010411771052870372 -0.0027323289220381143 -0.0005607790745181012 0.0005227901436496404 0.0
521 0.0012019537933587042 -0.0010431192671963969 -0.002728579950381246 -0.0005591283634355015 0.0005174408044276444 0.0
522 0.001191310970945985 -0.0010430998413476086 -0.0027270995269722794 -0.0005585469195657385 0.0005133794283839337 0.0
523 0.0011825880509887924 -0.0010418835038998114 -0.0027271728624112157 -0.0005586671820508643 0.0005101992686140069 0.0
524 0.0011752338933227592 -0.0010399439921386167 -0.0027282281764369138 -0.0005592248974822965 0.0005076298143708469 0.0
525 0.0011688810596817575 -0.0010375805748889517 -0.0027298494483720265 -0.0005600376570870708 0.000505490471688832 0.0
526 0.0011632817432069092 -0.0010349843372785361 -0.0027317496769988007 -0.0005609829835831597 0.0005036601125473521 0.0
527 0.00115826666472586 -0.001032277598660336 -0.0027337381119330595 -0.000561980502925317 0.0005020570137485899 0.0
528 0.0011537184337413714 -0.0010295382289584813 -0.0027356920787577703 -0.0005629786911467963 0.0005006256128237876 0.0
529 0.0011495541551850101 -0.0010268150777446674 -0.0027375355461204793 -0.0005639454633808729 0.0004993277495535038 0.0
530 0.0011457140108693652 -0.0010241379632426858 -0.0027392237591956064 -0.0005648616649052165 0.0004981368663967707 0.0
531 0.0011421537322738313 -0.0010215242263363978 -0.00274073258320906 -0.0005657166428108457 0.0004970341644488508 0.0
532 0.001138839621891188 -0.0010189830655950153 -0.0027420512635643332 -0.000566505266385426 0.0004960060535197456 0.0
533 0.001135745250250214 -0.0010165184161405386 -0.0027431775742065277 -0.0005672259384709999 0.0004950424593838323 0.0
534 0.0011328492577473974 -0.0010141308631907873 -0.0027441145989628864 -0.0005678792770134178 0.0004941356990934299 0.0
535 0.001130133886368557 -0.0010118189117973634 -0.0027448686139959805 -0.0005684672463969764 0.0004932797328761879 0.0
536 0.0011275839943590705 -0.0010095798259060398 -0.002745447705905026 -0.0005689925889946969 0.0004924696657184107 0.0
537 0.0011251863908748555 -0.0010074101790681072 -0.0027458608781315915 -0.0005694584562555917 0.0004917014145091769 0.0
538 0.0011229293829220423 -0.0010053062122550155 -0.002746117479891715 -0.0005698681719310106 0.0004909714849695351 0.0
539 0.0011208024633578757 -0.0010032640629206258 -0.0027462268472382644 -0.0005702250824959916 0.0004902768213890028 0.0
540 0.001118796092814931 -0.0010012799084369087 -0.002746198083061158 -0.0005705324648813415 0.00048961470465846 0.0
541 0.0011169015443402957 -0.0009993500528786637 -0.0027460399276524067 -0.0005707934716922191 0.0004889826823570068 0.0
542 0.0011151107900805037 -0.0009974709765955673 -0.002745760687944815 -0.0005710111007902282 0.0004883785201335126 0.0
543 0.0011134164163182296 -0.0009956393615814466 -0.0027453682044439693 -0.0005711881805704308 0.0004878001672589485 0.0
544 0.001111811557783385 -0.0009938521013205521 -0.00274486984208127 -0.000571327365221063 0.0004872457316349765 0.0
545 0.0011102898452168344 -0.0009921063008780022 -0.002744272495969358 -0.0005714311362127921 0.00048671346114038066 0.0
546 0.001108845362186853 -0.0009903992710453794 -0.002743582606173375 -0.0005715018075612315 0.0004862017292537081 0.0
547 0.0011074726084959793 -0.000988728519041995 -0.002742806177672143 -0.0005715415332634634 0.0004857090235896217 0.0
548 0.0011061664684003578 -0.0009870917373965868 -0.0027419488030380563 -0.0005715523158749824 0.00048523393644857174 0.0
549 0.0011049221824485057 -0.0009854867920510613 -0.0027410156862541675 -0.0005715360155661441 0.00048477515678463037 0.0
550 0.0011037353221326365 -0.0009839117103411323 -0.0027400116666694532 -0.0005714943592419143 0.0004843314631974871 0.0
551 0.001102601766801165 -0.0009823646692538736 -0.002738941242474969 -0.0005714289494691551 0.00048390171768721056 0.0
552 0.0011015176824495012 -0.0009808439841951402 -0.002737808593331956 -0.0005713412730601747 0.0004834848599974206 0.0
553 0.0011004795021179374 -0.000979348098391591 -0.002736617601944354 -0.0005712327092290174 0.00048307990242972294 0.0
554 0.0010994839076992695 -0.0009778755729828832 -0.0027353718744723477 -0.0005711045372804727 0.00048268592504966746 0.0
555 0.0010985278130078656 -0.0009764250778161159 -0.0027340747597498563 -0.0005709579438193321 0.0004823020712289225 0.0
556 0.0010976083479946948 -0.000974995382928131 -0.002732729367310814 -0.0005707940294845729 0.0004819275434843074 0.0
557 0.0010967228440150064 -0.0009735853506858672 -0.002731338584254564 -0.0005706138152234327 0.00048156159958470484 0.0
558 0.0010958688200704302 -0.0009721939285467873 -0.002729905090996185 -0.0005704182481262965 0.00048120354890363536 0.0
559 0.001095043969957901 -0.0009708201423976574 -0.0027284313759554798 -0.0005702082068462738 0.0004808527489996871 0.0
560 0.001094246150265228 -0.0009694630904291425 -0.002726919749242669 -0.0005699845066286712 0.0004805086024098495 0.0
561 0.0010934733691590564 -0.0009681219375045787 -0.002725372355399811 -0.000569747903975616 0.00048017055364282666 0.0
562 0.0010927237759150697 -0.0009667959099831934 -0.0027237911852563213 -0.0005694991009704894 0.00047983808636062683 0.0
563 0.0010919956511439377 -0.0009654842909604411 -0.002722178086955411 -0.0005692387492858655 0.000479510720737696 0.0
564 0.0010912873976696223 -0.0009641864158907366 -0.0027205347762057747 -0.0005689674538973987 0.00047918801098761096 0.0
565 0.0010905975320191343 -0.0009629016685606331 -0.0027188628458102585 -0.0005686857765247841 0.0004788695430478305 0.0
566 0.0010899246764852315 -0.0009616294773830119 -0.0027171637745205734 -0.0005683942388196333 0.00047855493241350325 0.0
567 0.0010892675517258964 -0.0009603693119854509 -0.002715438935263859 -0.0005680933253186498 0.0004782438221117702 0.0
568 0.0010886249698662937 -0.0009591206800681339 -0.0027136896027845476 -0.0005677834861793567 0.0004779358808083546 0.0
569 0.0010879958280709998 -0.0009578831245089097 -0.0027119169607419257 -0.0005674651397143121 0.0004776308010386303 0.0
570 0.0010873791025560746 -0.0009566562206950693 -0.0027101221083012514 -0.000567138674738615 0.00047732829755570377 0.0
571 0.0010867738430123243 -0.0009554395740631053 -0.002708306066253955 -0.0005668044527444968 0.0004770281057884177 0.0
572 0.0010861791674128408 -0.0009542328178295844 -0.0027064697826996924 -0.0005664628099156401 0.0004767299804025163 0.0
573 0.0010855942571793896 -0.0009530356108974101 -0.0027046141383213 -0.0005661140589931228 0.0004764336939585567 0.0
574 0.0010850183526838846 -0.0009518476359234899 -0.002702739951281239 -0.000565758491003857 0.0004761390356604948 0.0
575 0.0010844507490625388 -0.0009506685975346847 -0.00270084798176623 -0.0005653963768616611 0.0004758458101891784 0.0
576 0.0010838907923217404 -0.0009494982206803182 -0.0026989389362050763 -0.0005650279688503507 0.0004755538366153226 0.0
577 0.0010833378757159721 -0.0009483362491103629 -0.0026970134711827914 -0.0005646535019975216 0.00047526294738682714 0.0
578 0.0010827914363792889 -0.0009471824439693529 -0.0026950721970726336 -0.0005642731953470808 0.0004749729873855775 0.0
579 0.0010822509521931723 -0.0009460365824969784 -0.0026931156814061267 -0.0005638872531379734 0.0004746838130491967 0.0
580 0.0010817159388745703 -0.0009448984568270006 -0.002691144451999764 -0.0005634958658960131 0.00047439529155344644 0.0
581 0.001081185947269085 -0.0009437678728768423 -0.0026891589998556155 -0.0005630992114451724 0.0004741073000512602 0.0
582 0.0010806605608350817 -0.0009426446493208586 -0.002687159781852278 -0.0005626974558443277 0.00047381972496460007 0.0
583 0.0010801393933056772 -0.0009415286166407499 -0.0026851472232408686 -0.0005622907542548722 0.0004735324613256242 0.0
584 0.0010796220865162212 -0.0009404196162473275 -0.0026831217199602153 -0.0005618792517443183 0.00047324541216381866 0.0
585 0.0010791083083857653 -0.0009393174996680112 -0.0026810836407841674 -0.0005614630840305976 0.00047295848793597265 0.0
586 0.0010785977510418643 -0.0009382221277951943 -0.0026790333293130473 -0.0005610423781714021 0.0004726716059960969 0.0
587 0.0010780901290786938 -0.0009371333701907302 -0.0026769711058204906 -0.0005606172532026314 0.000472384690102561 0.0
588 0.0010775851779391114 -0.0009360511044423494 -0.0026748972689660264 -0.0005601878207296676 0.0004720976699598697 0.0
589 0.0010770826524120736 -0.0009349752155680562 -0.0026728120973831208 -0.0005597541854749704 0.0004718104807927375 0.0
590 0.001076582325237235 -0.0009339055954649057 -0.0026707158511516432 -0.000559316445785195 0.000471523062950205 0.0
591 0.0010760839858091806 -0.0009328421423987748 -0.002668608773163036 -0.0005588746941008055 0.00047123536153771266 0.0
592 0.0010755874389743946 -0.0009317847605321367 -0.002666491090386048 -0.0005584290173909625 0.00047094732607524037 0.0
593 0.0010750925039142297 -0.0009307333594868582 -0.0026643630150400776 -0.0005579794975562243 0.0004706589101796315 0.0
594 0.0010745990131079885 -0.0009296878539395376 -0.002662224745682946 -0.0005575262118014472 0.00047037007126948425 0.0
595 -9.473024687440362e-05 -0.002267006456104073 -0.005059825903475609 -0.0009791074835670314 5.026167658254654e-05 0.0
596 -9.128350117085026e-05 -0.0022445257376869556 -0.00508250400992924 -0.0009891690250107275 5.400123214445339e-05 0.0
597 -8.7401706997004e-05 -0.0022299762823025683 -0.0050976167649221475 -0.0009957533898368464 5.702760872469887e-05 0.0
598 -8.338686909478501e-05 -0.0022209423625654577 -0.0051085240960222055 -0.0010002103983220189 5.954830775493553e-05 0.0
599 -7.941245358099133e-05 -0.0022156650554396745 -0.005117010189012578 -0.0010033409048167598 6.169969394473327e-05 0.0
600 -7.557500503555428e-05 -0.002212914761339054 -0.005124059858822818 -0.001005632429650868 6.357353118940756e-05 0.0
601 -7.192510405355302e-05 -0.0022118521136308077 -0.005130238282940355 -0.0010073881290131096 6.523285654902774e-05 0.0
602 -6.848599012105808e-05 -0.002211912308964591 -0.005135881236715413 -0.0010087995905151959 6.67217982375279e-05 0.0
603 -6.526479455209448e-05 -0.0022127186288288998 -0.005141193805700141 -0.0010099892968605723 6.807183104028274e-05 0.0
604 -6.2259326025183e-05 -0.0022140211549929014 -0.0051463037840948226 -0.0010110361566222673 6.930585445235825e-05 0.0
605 -5.9462168453495945e-05 -0.0022156546238323014 -0.005151291826378734 -0.0010119912442241661 7.04408947732374e-05 0.0
606 -5.686314935268106e-05 -0.0022175099546097544 -0.005156209158616685 -0.0010128876932552382 7.148991498748226e-05 0.0
607 -5.445081809672507e-05 -0.002219515223501331 -0.005161088332532752 -0.0010137470034156477 7.246303586688345e-05 0.0
608 -5.221332191073626e-05 -0.0022216230346018004 -0.005165949924930725 -0.001014583101360826 7.33683641746559e-05 0.0
609 -5.013891555508126e-05 -0.0022238021711794907 -0.0051708067895342765 -0.001015404973181827 7.421255694629636e-05 0.0
610 -4.8216248550818525e-05 -0.002226032089507695 -0.005175666789861425 -0.00101621837867138 7.500120782191215e-05 0.0
611 -4.643451776890548e-05 -0.002228299291750587 -0.005180534569938926 -0.001017026970907271 7.573911314367332e-05 0.0
612 -4.478353904182087e-05 -0.002230594937482144 -0.005185412706751493 -0.0010178330287452363 7.643045669725933e-05 0.0
613 -4.325377058605952e-05 -0.0022329132703736133 -0.005190302461589841 -0.00101863793650378 7.707893932503987e-05 0.0
614 -4.183630825703111e-05 -0.0022352505809468265 -0.0051952042696191 -0.0010194424981814336 7.768787110869609e-05 0.0
615 -4.0522864839447895e-05 -0.0022376045217979124 -0.005200118058019995 -0.0010202471432250021 7.82602380602624e-05 0.0
616 -3.9305740785126116e-05 -0.0022399736546550543 -0.005205043451713998 -0.001021052061163333 7.87987513730327e-05 0.0
617 -3.817779087280292e-05 -0.002242357150042698 -0.005209979905384285 -0.0010218572895656396 7.930588466185155e-05 0.0
618 -3.713238946388889e-05 -0.002244754587522817 -0.005214926787250119 -0.0010226627713731465 7.978390285601252e-05 0.0
619 -3.616339592524836e-05 -0.0022471658223347647 -0.005219883431354125 -0.0010234683921410616 8.023488521944856e-05 0.0
620 -3.5265121115515805e-05 -0.002249590895966936 -0.005224849169395078 -0.0010242740041114086 8.06607441741277e-05 0.0
621 -3.4432295420282155e-05 -0.002252029975877884 -0.005229823349361144 -0.00102507944166234 8.106324106599939e-05 0.0
622 -3.3660038572409745e-05 -0.0022544833146270855 -0.005234805345725481 -0.001025884531119483 8.144399965253418e-05 0.0
623 -3.294383134388601e-05 -0.002256951221986876 -0.005239794564320302 -0.0010266890968895867 8.180451784895806e-05 0.0
624 -3.227948910731453e-05 -0.0022594340457825547 -0.005244790443919654 -0.0010274929652028587 8.214617810749018e-05 0.0
625 -3.166313721411451e-05 -0.0022619321586387375 -0.005249792455846406 -0.00102829596630761 8.247025669428771e-05 0.0
626 -3.109118810863006e-05 -0.002264445948752757 -0.005254800102448416 -0.0010290979356696892 8.277793205459808e-05 0.0
627 -3.056032008336188e-05 -0.0022669758134377565 -0.005259812914980995 -0.0010298987145381077 8.30702924062553e-05 0.0
628 -3.0067457575110704e-05 -0.002269522154589598 -0.005264830451231037 -0.0010306981501125437 8.334834266709585e-05 0.0
629 -2.960975290133996e-05 -0.0022720853755043543 -0.005269852293088014 -0.0010314960954661994 8.361301079805658e-05 0.0
630 -2.918456933859397e-05 -0.002274665878655013 -0.0052748780441820116 -0.001032292409323222 8.386515362693295e-05 0.0
631 -2.8789465448891674e-05 -0.002277264064157407 -0.00527990732765572 -0.0010330869557546867 8.410556220591468e-05 0.0
632 -2.8422180565025463e-05 -0.002279880328736954 -0.0052849397841028215 -0.0010338796038338648 8.43349667473241e-05 0.0
633 -2.8080621350951582e-05 -0.0022825150650634613 -0.005289975069684698 -0.001034670227276475 8.455404117556199e-05 0.0
634 -2.7762849358926944e-05 -0.002285168661358759 -0.005295012854424428 -0.0010354587040817239 8.47634073283144e-05 0.0
635 -2.7467069510273273e-05 -0.0022878415012080743 -0.005300052820670107 -0.0010362449161836463 8.496363883624029e-05 0.0
636 -2.7191619431713534e-05 -0.0022905339635244733 -0.005305094661715637 -0.0010370287491180854 8.515526470722725e-05 0.0
637 -2.6934959584091206e-05 -0.0022932464226283074 -0.005310138080565547 -0.00103781009170811 8.533877263872939e-05 0.0
638 -2.6695664124800927e-05 -0.0022959792484129092 -0.005315182788830037 -0.0010385888357689725 8.55146120795208e-05 0.0
639 -2.6472412449537885e-05 -0.0022987328065747267 -0.0053202285057367925 -0.0010393648758326912 8.568319706029123e-05 0.0
640 -2.626398136289811e-05 -0.002301507458890699 -0.005325274957247122 -0.0010401381088917818 8.584490881090719e-05 0.0
641 -2.6069237831148896e-05 -0.0023043035635297404 -0.005330321875264691 -0.0010409084341612253 8.600009818062825e-05 0.0
642 -2.5887132273849037e-05 -0.00230712147538797 -0.005335368996926601 -0.0010416757528576683 8.614908787630429e-05 0.0
643 -2.5716692354262584e-05 -0.0023099615464393657 -0.005340416063967223 -0.001042439967994701 8.629217453235529e-05 0.0
644 -2.5557017231437102e-05 -0.002312824126095606 -0.005345462822146668 -0.0010432009841931003 8.642963062526676e-05 0.0
645 -2.540727223959637e-05 -0.002315709561569831 -0.005350509020736337 -0.0010439587075049205 8.656170624433965e-05 0.0
646 -2.526668396301764e-05 -0.0023186181982405825 -0.005355554412055045 -0.0010447130452503467 8.668863072952463e-05 0.0
647 -2.5134535676968644e-05 -0.0023215503800125947 -0.005360598751050001 -0.0010454639058663595 8.681061418635208e-05 0.0
648 -2.5010163127435143e-05 -0.0023245064496723597 -0.005365641794917549 -0.001046211198766216 8.692784888717934e-05 0.0
649 -2.489295062441729e-05 -0.0023274867492364187 -0.005370683302759215 -0.0010469548342089475 8.704051056730493e-05 0.0
650 -2.478232742542986e-05 -0.0023304916202912486 -0.0053757230352690375 -0.0010476947231779939 8.714875962382435e-05 0.0
651 -2.467776438763056e-05 -0.002333521404323778 -0.00538076075444891 -0.0010484307772683043 8.725274222450859e-05 0.0
652 -2.457877086851301e-05 -0.0023365764430419034 -0.00538579622334865 -0.001049162908581163 8.735259133345817e-05 0.0
653 -2.448489185670158e-05 -0.002339657078684601 -0.005390829205828321 -0.0010498910296261594 8.744842765974542e-05 0.0
654 -2.4395705315700334e-05 -0.0023427636543215794 -0.005395859466340284 -0.0010506150532296923 8.754036053479666e-05 0.0
655 0.001229271780173647 -0.001040893690246246 -0.0027644959137684564 -0.0005608873489544175 0.0005317927557669191 0.0
656 0.0012119540461349968 -0.0010465669339837819 -0.002757729052894011 -0.0005580603664544592 0.0005246465278622802 0.0
657 0.001198807482663631 -0.001048925798712872 -0.00275416318288784 -0.000556612254430602 0.0005194182481646603 0.0
658 0.0011884694106089712 -0.0010493027628395287 -0.0027530065702277063 -0.0005561193499184315 0.0005154748430405359 0.0
659 0.001180064283696583 -0.0010484877628420687 -0.0027534816957272895 -0.0005562496915748176 0.0005124017292425705 0.0
660 0.0011730224225870419 -0.0010469633179569417 -0.0027549772049323103 -0.0005567648356693815 0.0005099265628008499 0.0
661 0.0011669688079016232 -0.001045030092610563 -0.0027570551524351145 -0.0005575013492310805 0.0005078697159088903 0.0
662 0.0011616535883490705 -0.001042877412586395 -0.0027594177612545 -0.0005583506056462969 0.0005061121074281398 0.0
663 0.001156908046541872 -0.0010406247117113446 -0.002761869844947713 -0.0005592421776771953 0.0005045742704331928 0.0
664 0.0011526164101275254 -0.0010383468173698605 -0.0027642875910108542 -0.0005601315387745322 0.0005032027069815623 0.0
665 0.0011486976729222604 -0.0010360898154570509 -0.002766595366340274 -0.0005609914080848357 0.0005019609797018694 0.0
666 0.0011450938082708468 -0.00103388120186895 -0.002768749399044646 -0.0005618058314731172 0.0005008238888921349 0.0
667 0.001141762095719368 -0.0010317364613385265 -0.0027707266453593587 -0.0005625662039101271 0.0004997736627503955 0.0
668 0.0011386701087568957 -0.0010296633627390186 -0.0027725173363254115 -0.0005632686271864926 0.0004987974625891473 0.0
669 0.001135792430557799 -0.001027664773098486 -0.0027741200505172854 -0.0005639121692458688 0.0004978857476768064 0.0
670 0.0011331084947948972 -0.0010257405017403414 -0.002775538486888792 -0.0005644977252384099 0.0004970312023219263 0.0
671 0.0011306011603900265 -0.0010238885060027173 -0.0027767793677531643 -0.0005650272770644475 0.0004962280308174262 0.0
672 0.0011282557657856435 -0.0010221056756701962 -0.002777851086895573 -0.0005655034153946004 0.0004954714931198945 0.0
673 0.0011260594969495095 -0.001020388339290493 -0.0027787628461710383 -0.0005659290338633165 0.0004947575981001695 0.0
674 0.0011240009609458834 -0.001018732587118738 -0.0027795241109304213 -0.000566307135798743 0.0004940828999535751 0.0
675 0.0011220698944420075 -0.001017134473481051 -0.0027801442727335753 -0.0005666407142481625 0.0004934443621702428 0.0
676 0.0011202569610017756 -0.0010155901401789793 -0.0027806324462872414 -0.0005669326795480815 0.0004928392657767417 0.0
677 0.0011185536070010894 -0.0010140958884979972 -0.002780997352876288 -0.0005671858175771501 0.0004922651466168512 0.0
678 0.0011169519564384954 -0.001012648218041041 -0.0027812472591698333 -0.0005674027676722419 0.0004917197517114979 0.0
679 0.0011154447317346865 -0.0010112438444004582 -0.0027813899511531437 -0.0005675860130208716 0.0004912010081872887 0.0
680 0.0011140251920706008 -0.0010098797035611724 -0.002781432730035179 -0.000567737878853965 0.0004907070005192738 0.0
681 0.0011126870837252056 -0.0010085529481960761 -0.002781382421613256 -0.0005678605354060433 0.000490235953308688 0.0
682 0.0011114245987759962 -0.0010072609392073116 -0.0027812453935950033 -0.0005679560036837255 0.0004897862177804006 0.0
683 0.0011102323397672966 -0.0010060012346739915 -0.002781027577343457 -0.0005680261627844214 0.0004893562608142684 0.0
684 0.0011091052887625351 -0.001004771577581975 -0.002780734491790345 -0.0005680727579640489 0.0004889446557353599 0.0
685 0.001108038779726045 -0.0010035698831965287 -0.002780371268093397 -0.0005680974089498023 0.0004885500743557372 0.0
686 0.0011070284735254284 -0.0010023942266029998 -0.002779942674153185 -0.0005681016181870053 0.0004881712799348076 0.0
687 0.0011060703350711323 -0.0010012428307231698 -0.00277945313845352 -0.0005680867788336912 0.00048780712083858945 0.0
688 0.0011051606122571634 -0.001000114054975091 -0.0027789067729148765 -0.000568054182396896 0.00048745652475181263 0.0
689 0.001104295816463214 -0.000999006384655673 -0.0027783073945945474 -0.0005680050259558364 0.000487118493344441 0.0
690 0.001103472704441715 -0.0009979184210699005 -0.0027776585461593397 -0.0005679404189496066 0.0004867920973250682 0.0
691 0.0011026882614550305 -0.0009968488723971288 -0.0027769635151143946 -0.0005678613895271211 0.0004864764718335785 0.0
692 0.00110193968555559 -0.0009957965452653482 -0.002776225351807451 -0.0005677688904692825 0.0004861708121382787 0.0
693 0.001101224372920687 -0.000994760336993714 -0.0027754468862493374 -0.0005676638047004763 0.0004858743696111339 0.0
694 0.0011005399041662247 -0.000993739228458905 -0.0027746307438035497 -0.0005675469504103181 0.0004855864479600202 0.0
695 0.0010998840315729751 -0.0009927322775393997 -0.0027737793598041484 -0.0005674190858083856 0.00048530639970052996 0.0
696 0.001099254667165391 -0.0009917386130924894 -0.0027728949931634904 -0.0005672809135351226 0.00048503362285214676 0.0
697 0.0010986498715882444 -0.0009907574294209446 -0.0027719797390316522 -0.0005671330847518012 0.00048476755784527615 0.0
698 0.0010980678437302663 -0.0009897879811887 -0.002771035540567756 -0.0005669762029316121 0.0004845076846266951 0.0
699 0.0010975069110474272 -0.0009888295787478935 -0.002770064199881513 -0.000566810827372954 0.0004842535199518689 0.0
700 0.0010969655205414672 -0.0009878815838425129 -0.00276906738820031 -0.0005666374764547518 0.0004840046148532632 0.0
701 0.0010964422303518984 -0.0009869434056567787 -0.0027680466553144296 -0.0005664566306524523 0.0004837605522743422 0.0
702 0.001095935701922146 -0.0009860144971791138 -0.002767003438349814 -0.0005662687353320865 0.0004835209448594531 0.0
703 0.0010954446927027984 -0.0009850943518551125 -0.002765939069914896 -0.0005660742033386217 0.00048328543289028207 0.0
704 0.0010949680493569992 -0.0009841825005052194 -0.0027648547856650714 -0.0005658734173936934 0.00048305368235999 0.0
705 0.001094504701435172 -0.0009832785084850975 -0.0027637517313254477 -0.0005656667323166919 0.0004828253831765997 0.0
706 0.0010940536554881418 -0.000982381973068477 -0.0027626309692099656 -0.0005654544770822088 0.0004826002474876197 0.0
707 0.0010936139895895449 -0.0009814925210342058 -0.0027614934842723586 -0.0005652369567258851 0.00048237800811828344 0.0
708 0.0010931848482401824 -0.0009806098064407593 -0.0027603401897220554 -0.0005650144541098238 0.0004821584171161882 0.0
709 0.0010927654376287448 -0.0009797335085728973 -0.0027591719322357933 -0.0005647872315579035 0.0004819412443955461 0.0
710 0.0010923550212247645 -0.000978863330046631 -0.0027579894967937548 -0.0005645555323705955 0.0004817262764745712 0.0
711 0.0010919529156812944 -0.0009779989950597313 -0.0027567936111667587 -0.0005643195822281184 0.00048151331529994217 0.0
712 0.0010915584870261853 -0.0009771402477761213 -0.002755584950079632 -0.0005640795904902173 0.0004813021771526228 0.0
713 0.0010911711471221636 -0.0009762868508335585 -0.002754364139073621 -0.0005638357514001179 0.00048109269162962767 0.0
714 0.0010907903503773056 -0.0009754385839648798 -0.002753131758089551 -0.000563588245199752 0.0004808847006967067 0.0
715 0.0010904155906885195 -0.0009745952427237765 -0.002751888344791628 -0.0005633372391627805 0.00048067805780715577 0.0
716 0.0010900463986019749 -0.0009737566373070713 -0.002750634397650489 -0.0005630828885514489 0.0004804726270823138 0.0
717 0.0010896823386754028 -0.0009729225914658344 -0.0027493703788028685 -0.0005628253375029217 0.0004802682825495775 0.0
718 0.0010893230070281074 -0.0009720929414985886 -0.002748096716703767 -0.0005625647198502365 0.0004800649074339665 0.0
719 0.0010889680290657163 -0.0009712675353201319 -0.0027468138085862234 -0.0005623011598827404 0.00047986239349964504 0.0
720 0.001088617057367282 -0.0009704462316002531 -0.002745522022742437 -0.0005620347730504365 0.00047966064043790727 0.0
721 0.001088269769723461 -0.0009696288989669719 -0.0027442217006391125 -0.0005617656666163655 0.00047945955529846986 0.0
722 0.0010879258673149957 -0.0009688154152693129 -0.00274291315887909 -0.0005614939402608806 0.00047925905196103346 0.0
723 0.0010875850730217382 -0.0009680056668951499 -0.002741596691020218 -0.0005612196866413183 0.00047905905064435833 0.0
724 0.00108724712985293 -0.0009671995481399197 -0.002740272569261883 -0.0005609429919103734 0.0004788594774502265 0.0
725 0.0010869117994901228 -0.0009663969606223082 -0.0027389410460087653 -0.0005606639361962264 0.00047866026393984817 0.0
726 0.0010865788609348065 -0.0009655978127434463 -0.0027376023553206223 -0.0005603825940472077 0.00047846134674045423 0.0
727 0.0010862481092532722 -0.0009648020191862305 -0.002736256714256456 -0.0005600990348436496 0.0004782626671799534 0.0
728 0.0010859193544118374 -0.0009640095004518724 -0.0027349043241206203 -0.0005598133231793062 0.0004780641709476929 0.0
729 0.0010855924201959141 -0.0009632201824307646 -0.0027335453716180852 -0.0005595255192146211 0.00047786580777945753 0.0
730 0.0010852671432070421 -0.0009624339960051686 -0.002732180029925368 -0.0005592356790038895 0.000477667531165035 0.0
731 0.0010849433719322405 -0.0009616508766813305 -0.002730808459683256 -0.0005589438547982435 0.00047746929807671804 0.0
732 0.0010846209658805384 -0.0009608707642488082 -0.0027294308099170377 -0.0005586500953262477 0.0004772710687172799 0.0
733 0.0010842997947819047 -0.0009600936024649943 -0.002728047218889528 -0.0005583544460537656 0.0004770728062860497 0.0
734 0.0010839797378440058 -0.0009593193387629636 -0.0027266578148916957 -0.0005580569494246006 0.0004768744767617647 0.0
735 0.0010836606830627996 -0.0009585479239808964 -0.0027252627169755137 -0.0005577576450833514 0.0004766760487010662 0.0
736 0.0010833425265829614 -0.0009577793121114933 -0.00272386203563318 -0.0005574565700817804 0.0004764774930514708 0.0
737 0.0010830251721046379 -0.0009570134600698862 -0.0027224558734266486 -0.0005571537590699182 0.00047627878297781606 0.0
738 0.0010827085303331569 -0.000956250327478651 -0.002721044325571115 -0.0005568492444730412 0.00047607989370120605 0.0
739 0.001082392518468657 -0.0009554898764687335 -0.0027196274804756927 -0.0005565430566555241 0.0004758808023495742 0.0
740 0.001082077059732706 -0.0009547320714950111 -0.0027182054202445818 -0.0005562352240725953 0.000475681487819026 0.0
741 0.001081762082929237 -0.0009539768791654549 -0.002716778221141476 -0.0005559257734108474 0.00047548193064517945 0.0
742 0.0010814475220374202 -0.0009532242680829185 -0.0027153459540198905 -0.0005556147297183284 0.00047528211288381785 0.0
743 0.001081133315834033 -0.0009524742086985723 -0.002713908684722045 -0.0005553021165250291 0.0004750820180001507 0.0
744 0.0010808194075433081 -0.0009517266731761117 -0.0027124664744483883 -0.0005549879559544216 0.0004748816307660931 0.0
745 0.0010805057445122306 -0.000950981635266028 -0.0027110193801000793 -0.0005546722688267434 0.0004746809371649768 0.0
746 0.0010801922779094147 -0.0009502390701890871 -0.0027095674545963037 -0.0005543550747546291 0.00047447992430314995 0.0
747 0.0010798789624459138 -0.0009494989545284216 -0.0027081107471683347 -0.0005540363922316593 0.00047427858032798745 0.0
748 0.001079565756116342 -0.000948761266129583 -0.0027066493036319687 -0.0005537162387143352 0.00047407689435184034 0.0
749 0.0010792526199588346 -0.0009480259840079184 -0.002705183166639979 -0.0005533946306979902 0.0004738748563814971 0.0
750 0.0010789395178325142 -0.0009472930882628237 -0.0027037123759159924 -0.0005530715837870557 0.0004736724572527659 0.0
751 0.0010786264162111377 -0.0009465625599982457 -0.0027022369684712344 -0.0005527471127601407 0.00047346968856979685 0.0
752 0.0010783132839917995 -0.0009458343812491124 -0.0027007569788052945 -0.0005524212316302617 0.0004732665426488097 0.0
753 0.0010780000923175926 -0.0009451085349131265 -0.0026992724390921563 -0.0005520939537006197 0.00047306301246591634 0.0
754 0.0010776868144131886 -0.0009443850046876171 -0.0026977833793525273 -0.0005517652916162293 0.00047285909160872474 0.0
755 0.0010773734254324342 -0.0009436637750110258 -0.002696289827613551 -0.0005514352574117334 0.000472654774231472 0.0
756 0.0010770599023170301 -0.0009429448310087068 -0.0026947918100566903 -0.000551103862555652 0.00047245005501340065 0.0
757 0.001076746223665587 -0.0009422281584427187 -0.0026932893511547825 -0.0005507711179913587 0.0004722449291201876 0.0
758 0.0010764323696122134 -0.0009415137436653406 -0.0026917824737989872 -0.0005504370341750098 0.00047203939216816545 0.0
759 0.001076118321713954 -0.0009408015735759603 -0.0026902711994164215 -0.0005501016211106731 0.0004718334401911456 0.0
760 0.0010758040628465085 -0.0009400916355811874 -0.0026887555480790597 -0.0005497648883828238 0.0004716270696096717 0.0
761 0.001075489577107516 -0.000939383917557884 -0.002687235538604715 -0.0005494268451864581 0.00047142027720249664 0.0
762 0.0010751748497269753 -0.0009386784078189263 -0.002685711188650503 -0.00054908750035495 0.0004712130600801592 0.0
763 0.0010748598669841638 -0.000937975095081472 -0.0026841825147994303 -0.0005487468623858454 0.00047100541566046756 0.0
764 0.0010745446161306638 -0.000937273968437599 -0.0026826495326406487 -0.0005484049394647491 0.00047079734164578145 0.0
765 -9.27691726241168e-05 -0.0022639725659810007 -0.005109340607128171 -0.0009905158876397596 5.9975320467397215e-05 0.0
766 -8.936348090070968e-05 -0.0022420135219297977 -0.0051337542531257625 -0.000999222455118116 6.334923539644065e-05 0.0
767 -8.550941167369425e-05 -0.0022281821269129983 -0.005150200990746979 -0.0010049344659913786 6.611802373174665e-05 0.0
768 -8.151938903969253e-05 -0.00221993697716879 -0.005162248704724095 -0.0010088585720039699 6.845639709439775e-05 0.0
769 -7.757085402777198e-05 -0.0022154512045925463 -0.005171774265320472 -0.0010116897071190528 7.047712934553208e-05 0.0
770 -7.376138489937286e-05 -0.0022134643294168524 -0.005179807037759713 -0.0010138406103544937 7.225550126221109e-05 0.0
771 -7.014136768189043e-05 -0.0022131270393828347 -0.005186935191738749 -0.0010155628078724335 7.384319843249657e-05 0.0
772 -6.673343017685881e-05 -0.0022138751221472065 -0.005193506932321391 -0.0010170126195677056 7.527658629301743e-05 0.0
773 -6.354403621670253e-05 -0.002215336965643606 -0.005199734156980162 -0.0010182885570470437 7.658184869149412e-05 0.0
774 -6.0570413280980155e-05 -0.002217269075988541 -0.005205748319530669 -0.0010194532733340687 7.777828491031894e-05 0.0
775 -5.78046901980971e-05 -0.0022195123953505833 -0.005211631928415947 -0.0010205468319383 7.888047404814035e-05 0.0
776 -5.5236361465231564e-05 -0.00222196320549229 -0.005217437037120981 -0.0010215949136018752 7.989971729261485e-05 0.0
777 -5.2853745746778746e-05 -0.0022245539433182336 -0.005223196459338319 -0.0010226139772642174 8.084500836044396e-05 0.0
778 -5.064483920838499e-05 -0.002227240629708141 -0.005228930740303061 -0.0010236145435558342 8.172369089449837e-05 0.0
779 -4.8597804836264355e-05 -0.0022299946619965595 -0.005234652565452109 -0.0010246033002485283 8.254190634484387e-05 0.0
780 -4.670124317916943e-05 -0.002232797466219612 -0.005240369580287097 -0.001025584459242353 8.330490096325768e-05 0.0
781 -4.494433234363481e-05 -0.0022356370158195353 -0.00524608620648211 -0.0010265606339563966 8.401723782294553e-05 0.0
782 -4.331689032118603e-05 -0.0022385055655640895 -0.00525180481567625 -0.001027533407659698 8.468294470936205e-05 0.0
783 -4.1809391725163434e-05 -0.002241398175648679 -0.00525752648883149 -0.0010285037019025845 8.530561863654505e-05 0.0
784 -4.041295830638062e-05 -0.002244311749351689 -0.00526325150685936 -0.0010294720153521794 8.588850095348159e-05 0.0
785 -3.91193349186648e-05 -0.0022472444044888003 -0.005268979666547456 -0.0010304385784948487 8.643453243106116e-05 0.0
786 -3.792085793873445e-05 -0.002250195061957919 -0.005274710482828596 -0.001031403453682367 8.694639464073938e-05 0.0
787 -3.681042031529776e-05 -0.0022531631756192395 -0.005280443317159672 -0.0010323665996660443 8.74265418657818e-05 0.0
788 -3.578143570631337e-05 -0.0022561485543305137 -0.00528617745796342 -0.0010333279130648573 8.787722639667193e-05 0.0
789 -3.4827803124324705e-05 -0.002259151244192666 -0.005291912170080567 -0.001034287254863631 8.83005191314033e-05 0.0
790 -3.3943872881137044e-05 -0.0022621714502387325 -0.005297646724293773 -0.0010352444672085237 8.869832677874321e-05 0.0
791 -3.3124414244979996e-05 -0.002265209484048143 -0.005303380414133113 -0.0010361993839263536 8.907240654625286e-05 0.0
792 -3.2364584996596944e-05 -0.0022682657284731566 -0.005309112564651408 -0.001037151836995856 8.942437891681977e-05 0.0
793 -3.165990293691706e-05 -0.002271340613718685 -0.005314842536207724 -0.001038101660418666 8.975573893147811e-05 0.0
794 -3.100621932110229e-05 -0.002274434601002317 -0.005320569725218631 -0.0010390486924297083 9.006786627182873e-05 0.0
795 -3.039969415017758e-05 -0.0022775481713135435 -0.005326293563132554 -0.0010399927766559195 9.036203435173127e-05 0.0
796 -2.983677322842255e-05 -0.002280681817633667 -0.0053320135144240615 -0.0010409337626169645 9.063941857150853e-05 0.0
797 -2.9314166884021855e-05 -0.0022838360395282123 -0.005337729074107314 -0.0010418715058216922 9.09011038495857e-05 0.0
798 -2.8828830247345272e-05 -0.0022870113393841968 -0.0053434397650751414 -0.001042805867623061 9.114809152011422e-05 0.0
799 -2.8377944982266818e-05 -0.002290208219801938 -0.005349145135447221 -0.0010437367149353871 9.13813056668468e-05 0.0
800 -2.7958902369420735e-05 -0.002293427181807365 -0.005354844756031233 -0.0010446639198793965 9.16015989505796e-05 0.0
801 -2.756928764521832e-05 -0.0022966687236549896 -0.005360538217952154 -0.0010455873593960962 9.180975797811166e-05 0.0
802 -2.720686550588344e-05 -0.002299933340061244 -0.005366225130473289 -0.0010465069148543945 9.200650825372346e-05 0.0
803 -2.686956669138908e-05 -0.002303221521754677 -0.005371905119014555 -0.0010474224716673693 9.219251874894747e-05 0.0
804 -2.6555475569973578e-05 -0.0023065337552616123 -0.005377577823362439 -0.0010483339189255427 9.236840612219448e-05 0.0
805 -2.6262818649150616e-05 -0.002309870522867793 -0.005383242896060336 -0.0010492411490515044 9.253473861657512e-05 0.0
806 -2.5989953944595573e-05 -0.0023132323027120817 -0.005388900000964788 -0.0010501440574776089 9.26920396613785e-05 0.0
807 -2.5735361143096964e-05 -0.002316619568979028 -0.0053945488119526265 -0.001051042542347068 9.284079120041333e-05 0.0
808 -2.5497632500380027e-05 -0.00232003279216525 -0.005400189011763626 -0.0010519365042376985 9.298143676835808e-05 0.0
809 -2.5275464419032197e-05 -0.0023234724394000992 -0.005405820290964559 -0.0010528258459072616 9.311438433449719e-05 0.0
810 -2.50676496557205e-05 -0.002326938974805668 -0.005411442347021123 -0.001053710472058908 9.324000893161948e-05 0.0
811 -2.487307011067483e-05 -0.0023304328598842835 -0.005417054883465735 -0.0010545902891252739 9.335865508645169e-05 0.0
812 -2.4690690155949536e-05 -0.0023339545539242533 -0.00542265760915034 -0.0010554652050697327 9.347063906667755e-05 0.0
813 -2.4519550462084653e-05 -0.0023375045144165426 -0.005428250237574452 -0.0010563351292033445 9.357625095846225e-05 0.0
814 0.0012265184872399582 -0.001045163096635751 -0.0027779988170283437 -0.0005558206843152613 0.0005310425541332297 0.0
815 0.0012093543197649592 -0.001051133751261696 -0.002771158770097338 -0.0005533793612053134 0.0005240394242165936 0.0
816 0.0011964365178059545 -0.001053761457815128 -0.0027676778275008912 -0.0005521365063189465 0.000518939080866062 0.0
817 0.0011863535523513127 -0.0010544094564034138 -0.0027667058810712745 -0.0005517300214238081 0.0005151049487884053 0.0
818 0.0011782061075886318 -0.001053877914113677 -0.00276742135022776 -0.0005518691697162094 0.0005121235032549703 0.0
819 0.0011714138314515726 -0.001052651137266055 -0.002769185777679153 -0.0005523438333113864 0.0005097252260392816 0.0
820 0.0011655977386773944 -0.0010510282358603023 -0.0027715463676548824 -0.0005530101373186506 0.0005077336923042632 0.0
821 0.0011605072983941263 -0.001049195874046056 -0.002774198008051896 -0.000553772875174924 0.0005060327709000229 0.0
822 0.0011559745873659915 -0.0010472707033464875 -0.0027769423677141847 -0.0005545707114655889 0.0005045454586189806 0.0
823 0.0011518851664719827 -0.0010453250608145606 -0.0027796546417541805 -0.0005553651694749633 0.0005032201976544277 0.0
824 0.001148159444542833 -0.0010434029735381968 -0.0027822592031600426 -0.0005561328969354457 0.0005020220172099289 0.0
825 0.0011447406894967147 -0.0010415303205001175 -0.0027847126723673835 -0.0005568604036059268 0.000500926791348583 0.0
826 0.0011415872845134377 -0.0010397213649546624 -0.0027869924819729167 -0.0005575405481262507 0.0004999175129777838 0.0
827 0.0011386677093131578 -0.0010379829834285296 -0.002789089289581543 -0.0005581702213755562 0.0004989818737049111 0.0
828 0.0011359572771804168 -0.0010363174120093578 -0.00279100200334046 -0.0005587488321007556 0.0004981106901908505 0.0
829 0.0011334360061050009 -0.0010347240297324837 -0.002792734549104922 -0.0005592773238856287 0.0004972968795288005 0.0
830 0.0011310872239030465 -0.0010332005135369729 -0.0027942937853601886 -0.0005597575412166717 0.000496534790855118 0.0
831 0.0011288966490956562 -0.001031743582181485 -0.002795688168870414 -0.0005601918236465843 0.0004958197681740104 0.0
832 0.0011268517806153635 -0.001030349471266262 -0.00279692690879101 -0.0005605827483781255 0.0004951478633003342 0.0
833 0.0011249414883000544 -0.0010290142326068903 -0.002798019437306989 -0.000560932969081899 0.0004945156463069481 0.0
834 0.0011231557341903774 -0.0010277339192072844 -0.0027989750846264295 -0.0005612451168912614 0.0004939200793399181 0.0
835 0.0011214853792709208 -0.0010265046960601328 -0.0027998028853884085 -0.0005615217414066575 0.0004933584316539952 0.0
836 0.0011199220462403709 -0.0010253229031693578 -0.00280051146916526 -0.000561765277310021 0.0004928282215006076 0.0
837 0.0011184580192263836 -0.0010241850880793697 -0.0028011090044174985 -0.0005619780272532969 0.0004923271755491084 0.0
838 0.0011170861680555037 -0.0010230880191987113 -0.0028016031760939525 -0.0005621621549798137 0.0004918531997975668 0.0
839 0.0011157998890273919 -0.00102202868726138 -0.002802001184098444 -0.0005623196847784178 0.0004914043580541843 0.0
840 0.0011145930569547238 -0.0010210042996788623 -0.002802309754398928 -0.000562452504760162 0.000490978855448226 0.0
841 0.001113459985052532 -0.0010200122708379873 -0.0028025351575051653 -0.0005625623723488886 0.0004905750253224399 0.0
842 0.0011123953904416486 -0.0010190502102897805 -0.00280268323094957 -0.0005626509209609739 0.0004901913184374693 0.0
843 0.0011113943637957526 -0.001018115910051123 -0.0028027594036397737 -0.000562719667227227 0.0004898262937931847 0.0
844 0.0011104523421571258 -0.0010172073317714844 -0.0028027687207487265 -0.000562770018353978 0.0004894786106140916 0.0
845 0.0011095650842673022 -0.001016322594214015 -0.002802715868321476 -0.0005628032793774091 0.0004891470212024481 0.0
846 0.001108728647966674 -0.001015459961306071 -0.00280260519710856 -0.0005628206601661137 0.0004888303644636657 0.0
847 0.0011079393693522468 -0.0010146178308910374 -0.0028024407453473357 -0.0005628232820911998 0.0004885275599736794 0.0
848 0.0011071938434703964 -0.0010137947242363989 -0.002802226260347442 -0.000562812184324039 0.0004882376024998451 0.0
849 0.0011064889063788926 -0.0010129892763057601 -0.002801965218821912 -0.0005627883297473561 0.00048795955691391315 0.0
850 0.0011058216184499645 -0.0010122002267745212 -0.0028016608459582935 -0.0005627526104810514 0.00048769255345291064 0.0
851 0.0011051892488113779 -0.001011426411753468 -0.0028013161332567267 -0.0005627058530335756 0.0004874357832949853 0.0
852 0.0011045892608392406 -0.0010106667561763259 -0.002800933855180777 -0.0005626488230950434 0.00048718849442443515 0.0
853 0.0011040192986280454 -0.001009920266804324 -0.0028005165846774764 -0.0005625822299910935 0.00048694998776488353 0.0
854 0.0011034771743717781 -0.0010091860258007132 -0.002800066707628191 -0.0005625067308177092 0.0004867196135626768 0.0
855 0.0011029608565961305 -0.0010084631848294046 -0.0027995864362934165 -0.0005624229342773778 0.0004864967680046738 0.0
856 0.0011024684591866623 -0.0010077509596346538 -0.0027990778218142786 -0.0005623314042365657 0.0004862808900560935 0.0
857 0.0011019982311618146 -0.0010070486250613432 -0.0027985427658318578 -0.0005622326630237566 0.0004860714585052166 0.0
858 0.0011015485471428188 -0.0010063555104785878 -0.0027979830312827724 -0.0005621271944862789 0.0004858679892025172 0.0
859 0.0011011178984757738 -0.0010056709955724868 -0.002797400252426713 -0.0005620154468231434 0.00048567003248261204 0.0
860 0.001100704884963643 -0.0010049945064765577 -0.0027967959441584974 -0.000561897835210025 0.0004854771707579585 0.0
861 0.0011003082071685106 -0.0010043255122113208 -0.0027961715106541185 -0.0005617747442314535 0.00048528901627383457 0.0
862 0.0010999266592467585 -0.0010036635214068785 -0.002795528253397174 -0.0005616465301342645 0.00048510520901466576 0.0
863 0.0010995591222820434 -0.0010030080792847972 -0.002794867378629078 -0.0005615135229153489 0.0004849254147522654 0.0
864 0.0010992045580830165 -0.0010023587648776034 -0.0027941900042635307 -0.0005613760282558264 0.00048474932322704206 0.0
865 0.0010988620034147385 -0.0010017151884661821 -0.002793497166303318 -0.0005612343293129456 0.00048457664645370986 0.0
866 0.0010985305646346614 -0.0010010769892171852 -0.002792789824794419 -0.0005610886883800796 0.0004844071171434903 0.0
867 0.0010982094127058065 -0.0010004438330039368 -0.00279206886935054 -0.0005609393484245736 0.0004842404872352481 0.0
868 0.0010978977785614838 -0.0009998154103960898 -0.0027913351242785473 -0.0005607865345123671 0.00048407652652840595 0.0
869 0.0010975949487975645 -0.00099919143480421 -0.002790589353333361 -0.0005606304551277511 0.00048391502141094123 0.0
870 0.001097300261669837 -0.000998571640766958 -0.002789832264128668 -0.0005604713033959236 0.00048375577367613145 0.0
871 0.0010970131033753447 -0.00099795578236943 -0.0027890645122283443 -0.0005603092582155525 0.000483598599422094 0.0
872 0.0010967329045981189 -0.0009973436317822285 -0.0027882867049412344 -0.0005601444853079005 0.0004834433280285493 0.0
873 0.0010964591373009128 -0.0009967349779117542 -0.002787499404840745 -0.0005599771381886872 0.0004832898012055746 0.0
874 0.0010961913117457846 -0.0009961296251529304 -0.00278670313302902 -0.000559807359068363 0.0004831378721094371 0.0
875 0.0010959289737275555 -0.0009955273922363987 -0.0027858983721640628 -0.0005596352796860554 0.00048298740452092505 0.0
876 0.0010956717020051273 -0.0009949281111627515 -0.00278508556926688 -0.0005594610220820672 0.00048283827208184477 0.0
877 0.0010954191059169033 -0.000994331626217123 -0.0027842651383245777 -0.0005592846993134561 0.00048269035758572766 0.0
878 0.0010951708231671476 -0.000993737793057903 -0.002783437462704072 -0.0005591064161168723 0.00048254355231891927 0.0
879 0.0010949265177713403 -0.000993146477873844 -0.002782602897390197 -0.0005589262695225504 0.000482397755448598 0.0
880 0.0010946858781492545 -0.000992557556604337 -0.0027817617710607255 -0.0005587443494230169 0.00048225287345443586 0.0
881 0.0010944486153551779 -0.0009919709142180327 -0.0027809143880104096 -0.0005585607390999025 0.00048210881960082517 0.0
882 0.0010942144614356367 -0.0009913864440453603 -0.002780061029934676 -0.0005583755157118843 0.0004819655134468496 0.0
883 0.0010939831679055117 -0.0009908040471608244 -0.002779201957583339 -0.0005581887507466555 0.00048182288039134134 0.0
884 0.0010937545043340929 -0.0009902236318113323 -0.0027783374122936685 -0.0005580005104395559 0.00048168085125054077 0.0
885 0.0010935282570331923 -0.00098964511288705 -0.002777467617411642 -0.0005578108561613282 0.00048153936186605243 0.0
886 0.0010933042278400916 -0.00098906841143161 -0.0027765927796094395 -0.0005576198447772639 0.0004813983527409691 0.0
887 0.0010930822329884718 -0.0009884934541886802 -0.0027757130901067393 -0.0005574275289798483 0.0004812577687021524 0.0
888 0.0010928621020610278 -0.0009879201731821641 -0.0027748287258028497 -0.0005572339575968669 0.0004811175585868119 0.0
889 0.00109264367701792 -0.0009873485053275355 -0.0027739398503260643 -0.0005570391758767561 0.0004809776749516547 0.0
890 0.0010924268112955885 -0.000986778392071932 -0.0027730466150064146 -0.0005568432257529152 0.0004808380738029986 0.0
891 0.001092211368970938 -0.0009862097790609196 -0.0027721491597772216 -0.0005566461460884789 0.0004806987143463628 0.0
892 0.0010919972239860551 -0.0009856426158298907 -0.0027712476140107816 -0.0005564479729030359 0.0004805595587541094 0.0
893 0.0010917842594292551 -0.0009850768555182683 -0.002770342097292908 -0.0005562487395826 0.0004804205719498922 0.0
894 0.001091572366868246 -0.0009845124546048025 -0.0027694327201408255 -0.0005560484770740805 0.00048028172140866267 0.0
895 0.0010913614457317886 -0.0009839493726624769 -0.0027685195846684344 -0.0005558472140653632 0.00048014297697115477 0.0
896 0.0010911514027362372 -0.000983387572131439 -0.0027676027852030515 -0.0005556449771521321 0.0004800043106717881 0.0
897 0.0010909421513537708 -0.0009828270181087093 -0.0027666824088568094 -0.0005554417909923225 0.00047986569657902385 0.0
898 0.0010907336113193094 -0.0009822676781534026 -0.0027657585360563244 -0.0005552376784491867 0.00047972711064729547 0.0
899 0.0010905257081732698 -0.0009817095221063099 -0.002764831241033542 -0.0005550326607237819 0.0004795885305796599 0.0
900 0.0010903183728376306 -0.000981152521922743 -0.0027639005922805724 -0.0005548267574776578 0.0004794499357004171 0.0
901 0.001090111541222817 -0.0009805966515177484 -0.0027629666529712703 -0.0005546199869464874 0.0004793113068369584 0.0
902 0.0010899051538632537 -0.0009800418866226786 -0.0027620294813518525 -0.000554412366045289 0.0004791726262102014 0.0
903 0.001089699155579425 -0.0009794882046523395 -0.0027610891311029007 -0.0005542039104658699 0.0004790338773329655 0.0
