lar-deeufba/potential_fields_with_aruco/src/custom_codes/csv_files/csv_to_eps/csv_files/REPFORCE_APF_OriON.csv
Index Joint1 Joint2 Joint3 Joint4 Joint5 Joint6
0 0.0 0.0 0.0 0.0 0.0 0.0
1 0.0 0.0 0.0 0.0 0.0 0.0
2 0.0 0.0 0.0 0.0 0.0 0.0
3 0.0 0.0 0.0 0.0 0.0 0.0
4 0.0 0.0 0.0 0.0 0.0 0.0
5 0.0 0.0 0.0 0.0 0.0 0.0
6 0.0 0.0 0.0 0.0 0.0 0.0
7 0.0 0.0 0.0 0.0 0.0 0.0
8 0.0 0.0 0.0 0.0 0.0 0.0
9 0.0 0.0 0.0 0.0 0.0 0.0
10 0.0 0.0 0.0 0.0 0.0 0.0
11 0.0 0.0 0.0 0.0 0.0 0.0
12 0.0 0.0 0.0 0.0 0.0 0.0
13 0.0 0.0 0.0 0.0 0.0 0.0
14 0.0 0.0 0.0 0.0 0.0 0.0
15 0.0 0.0 0.0 0.0 0.0 0.0
16 0.0 0.0 0.0 0.0 0.0 0.0
17 0.0 0.0 0.0 0.0 0.0 0.0
18 0.0 0.0 0.0 0.0 0.0 0.0
19 0.0 0.0 0.0 0.0 0.0 0.0
20 0.0 0.0 0.0 0.0 0.0 0.0
21 0.0 0.0 0.0 0.0 0.0 0.0
22 0.0 0.0 0.0 0.0 0.0 0.0
23 0.0 0.0 0.0 0.0 0.0 0.0
24 0.0 0.0 0.0 0.0 0.0 0.0
25 0.0 0.0 0.0 0.0 0.0 0.0
26 0.0 0.0 0.0 0.0 0.0 0.0
27 0.0 0.0 0.0 0.0 0.0 0.0
28 0.0 0.0 0.0 0.0 0.0 0.0
29 0.0 0.0 0.0 0.0 0.0 0.0
30 0.0 0.0 0.0 0.0 0.0 0.0
31 0.0 0.0 0.0 0.0 0.0 0.0
32 0.0 0.0 0.0 0.0 0.0 0.0
33 0.0 0.0 0.0 0.0 0.0 0.0
34 0.0 0.0 0.0 0.0 0.0 0.0
35 0.0 0.0 0.0 0.0 0.0 0.0
36 0.0 0.0 0.0 0.0 0.0 0.0
37 0.0 0.0 0.0 0.0 0.0 0.0
38 0.0 0.0 0.0 0.0 0.0 0.0
39 0.0 0.0 0.0 0.0 0.0 0.0
40 0.0 0.0 0.0 0.0 0.0 0.0
41 0.0 0.0 0.0 0.0 0.0 0.0
42 0.0 0.0 0.0 0.0 0.0 0.0
43 0.0 0.0 0.0 0.0 0.0 0.0
44 0.0 0.0 0.0 0.0 0.0 0.0
45 0.0 0.0 0.0 0.0 0.0 0.0
46 0.0 0.0 0.0 0.0 0.0 0.0
47 0.0 0.0 0.0 0.0 0.0 0.0
48 0.0 0.0 0.0 0.0 0.0 0.0
49 0.0 0.0 0.0 0.0 0.0 0.0
50 0.0 0.0 0.0 0.0 0.0 0.0
51 0.000368380441552473 0.0007357748942061095 0.0008849167737643493 7.541797221031301e-05 0.00020410984220584156 0.0
52 0.0006772914796202184 0.0013264124698485632 0.001591126319552306 0.00013297126457614938 0.00037595894541237265 0.0
53 0.0005992853489372095 0.0011654957599375048 0.0013928897307093082 0.00011302463197437087 0.00032697092810085593 0.0
54 0.0005323682187947066 0.0010161396678953734 0.0012110653560494149 9.642971261380668e-05 0.00029118998582521315 0.0
55 0.00045973195019296793 0.0008623541715185683 0.0010250146204399161 8.020342711366851e-05 0.0002521441738518366 0.0
56 0.0003537075457761197 0.0006608663146099982 0.0007827268846699946 5.95525393638317e-05 0.0001906787511520025 0.0
57 0.0002764516220830225 0.0005081135847953048 0.0006004632232793004 4.5086280850420585e-05 0.0001495790138986968 0.0
58 0.00020051528685079633 0.00036299702578577683 0.00042804853382109897 3.177623133594613e-05 0.00010890090555481538 0.0
59 8.628632825224565e-05 0.00015599761042111644 0.0001833596864251084 1.3271457098510043e-05 4.605824038688618e-05 0.0
60 1.688018799241135e-05 3.0081556849316256e-05 3.530124606807232e-05 2.538908635076987e-06 9.051353103251903e-06 0.0
61 -4.752864032550684e-05 -8.358540287451289e-05 -9.793882954444383e-05 -7.0117308105794475e-06 -2.560081266558886e-05 0.0
62 -0.00014837695495800894 -0.0002577903875803412 -0.00030161528342044134 -2.1531081408923745e-05 -8.028116525282488e-05 0.0
63 -0.0002146335886016177 -0.0003735097384365266 -0.0004357857336470335 -3.0463120853202218e-05 -0.00011418861796182147 0.0
64 -0.0003652706679478826 -0.0006282502053535093 -0.0007323463599734469 -5.1307068179088055e-05 -0.0001953160515425192 0.0
65 -0.0004266241844724989 -0.0007260049266724217 -0.0008456716445295414 -5.94952376753763e-05 -0.00022927121629817457 0.0
66 -0.0004816652512132515 -0.0008117634977620364 -0.0009448933203996957 -6.683376199983873e-05 -0.0002601274334900883 0.0
67 -0.000610952872127319 -0.0010335600818578421 -0.0012002555144819975 -8.352525635529589e-05 -0.00032458800511600723 0.0
68 -0.0006527842934679354 -0.0010938724833961196 -0.0012701586569181403 -8.928722531789383e-05 -0.00034867948956407506 0.0
69 -0.0006894157186518395 -0.0011453352276643795 -0.0013297341309666574 -9.447717635181356e-05 -0.00037017098359505763 0.0
70 -0.0007212335892651917 -0.0011888826105286442 -0.0013800525218292516 -9.914543226434243e-05 -0.0003892228815605009 0.0
71 -0.0007486212550244434 -0.0012253708941191324 -0.0014220950789171072 -0.00010333643458066338 -0.0004060005306283932 0.0
72 -0.0008656735485500702 -0.001424948802569717 -0.0016502928026761586 -0.00011847518152999971 -0.0004623579702882525 0.0
73 -0.0008828567789726146 -0.0014428811944547735 -0.0016716096491018444 -0.00012182367053988467 -0.0004740203567431599 0.0
74 -0.0008968249494356916 -0.001456318843228817 -0.0016875669944557978 -0.0001248227032018289 -0.00048397681851436404 0.0
75 -0.0009078965160198432 -0.0014658275526539073 -0.0016988088200419861 -0.0001274968485885458 -0.000492376112582752 0.0
76 -0.0009163638678107654 -0.0014719034273003402 -0.0017059031306623851 -0.00012986881978634352 -0.0004993573511437684 0.0
77 -0.0010276339072413918 -0.0016617436837212405 -0.001922249737024227 -0.00014505782494302085 -0.0005520378047741535 0.0
78 -0.0010282084625429999 -0.0016536368497513513 -0.0019139105950972805 -0.00014691514911377283 -0.000555136557377337 0.0
79 -0.0010271468949646788 -0.0016439299696450044 -0.0019034368275867425 -0.0001485278794475277 -0.0005572756050092036 0.0
80 -0.001024655722223474 -0.001632896494947788 -0.0018911558351711127 -0.00014991531739412024 -0.0005585617545536847 0.0
81 -0.0010209196104576457 -0.0016207709221366206 -0.0018773520540231788 -0.0001510958583431901 -0.0005590919177796511 0.0
82 -0.0007442358103372681 -0.0011775852334678751 -0.001364004887034737 -0.00011139471988338469 -0.00040940068208281257 0.0
83 -0.0007500748394894439 -0.0011832438785281615 -0.0013699302649184638 -0.00011331705114358355 -0.0004143696128010262 0.0
84 -0.001140938533040967 -0.0018131260067867144 -0.002094389239187553 -0.00017205524251077508 -0.0006225383909276455 0.0
85 -0.0011267475287607166 -0.001784537914895842 -0.00206229961407484 -0.00017227207802157735 -0.0006175999786847035 0.0
86 -0.0011125539500086569 -0.0017568802664882973 -0.0020309132855364682 -0.00017236138825832607 -0.0006125235697503409 0.0
87 -0.0008073896434752536 -0.0012717439100443924 -0.0014702909078672165 -0.00012667910173929113 -0.0004464323736994956 0.0
88 -0.000807446009027756 -0.0012689102837386622 -0.0014664538289968874 -0.0001280211672233843 -0.0004482892076209062 0.0
89 -0.0008064880038277213 -0.0012649322295099387 -0.0014611504799168537 -0.00012919681056416506 -0.0004495532438778612 0.0
90 -0.0008046359360900454 -0.001259969468463459 -0.0014545741727437361 -0.00013021981469951057 -0.0004502876271592886 0.0
91 -0.0008020021479836034 -0.001254168805418163 -0.001446903535108519 -0.0001311037450826054 -0.000450551984106096 0.0
92 -0.0007986901896139342 -0.0012476634599681066 -0.0014383015266060688 -0.00013186169214747545 -0.0004504018351314715 0.0
93 -0.0011932719972745027 -0.0018781957615301532 -0.002160262467889135 -0.00019759952012774712 -0.0006664045076266857 0.0
94 -0.0008635133147411767 -0.0013571057150981326 -0.0015611667264191524 -0.000144933482551188 -0.00048416241314643276 0.0
95 -0.000856715313868281 -0.001344590004367943 -0.0015461636678263716 -0.00014541015724769873 -0.0004821625740513975 0.0
96 -0.0008496630657401178 -0.0013320719551664223 -0.0015309930419049236 -0.00014579086839389499 -0.0004799653728290107 0.0
97 -0.000842424133207648 -0.0013196202136499151 -0.0015157490574255617 -0.0001460890519618289 -0.0004776104903815766 0.0
98 -0.0008350578161349047 -0.0013072933283394097 -0.0015005131486047552 -0.0001463169728941673 -0.0004751331393365014 0.0
99 -0.0008276152332701378 -0.0012951398230257702 -0.0014853540704132993 -0.00014648565270544613 -0.0004725640428803791 0.0
100 -0.0008201396167242021 -0.0012831985605723786 -0.001470328354010066 -0.0001466048438582958 -0.00046992953955596984 0.0
101 -0.0008126667719004534 -0.0012714993331377775 -0.0014554810419757985 -0.00014668304348676453 -0.0004672517887788044 0.0
102 -0.0008052256532707667 -0.001260063610229601 -0.0014408466187338807 -0.000146727538037916 -0.000464549049829235 0.0
103 -0.000797839011009499 -0.0012489053824806654 -0.0014264500596719125 -0.00014674447070352355 -0.00046183600912656525 0.0
104 -0.0007905240713078949 -0.0012380320501984106 -0.0014123079360999055 -0.00014673892450581342 -0.00045912413457591605 0.0
105 -0.0007832932217725271 -0.0012274453179573275 -0.0013984295280337915 -0.0001467150151698257 -0.0004564220403381297 0.0
106 -0.0008688678949291367 -0.001371089138609133 -0.00155888928230194 -0.0001642180879754833 -0.000503192749298806 0.0
107 -0.0008572305804303386 -0.0013527584909736588 -0.0015368910696381731 -0.00016369987200038808 -0.000498027468111308 0.0
108 -0.0008461795578179993 -0.0013355681416604545 -0.0015160609754735976 -0.0001632163599492937 -0.0004931454220143926 0.0
109 -0.0008356862631285882 -0.0013194488224193579 -0.0014963355787634706 -0.00016277060854392235 -0.0004885349158322854 0.0
110 -0.0008257205368630565 -0.0013043317216384145 -0.0014776498954757913 -0.00016236435849945058 -0.0004841827914682887 0.0
111 -0.0008162512598577725 -0.0012901490912023096 -0.0014599383875608335 -0.00016199825925636318 -0.00048007483358812944 0.0
112 -0.0008072469364899215 -0.0012768348165373361 -0.0014431358864652219 -0.00016167207491398145 -0.0004761961452542476 0.0
113 -0.0007986762181501288 -0.0012643249353637837 -0.0014271784190273756 -0.0001613848710897902 -0.00047253148924291375 0.0
114 -0.0007905083632225904 -0.001252558095799126 -0.0014120039292078003 -0.0001611351828360991 -0.00046906559262027095 0.0
115 -0.0007827136330417078 -0.0012414759495150223 -0.0013975528946347058 -0.00016092116419484865 -0.00046578341398893417 0.0
116 -0.0007752636258015238 -0.0012310234796398308 -0.0013837688412326797 -0.00016074072032960628 -0.00046267037426444624 0.0
117 -0.0007681315520433236 -0.0012211492657946306 -0.001370598762003512 -0.0001605916234006385 -0.0004597125528101973 0.0
118 -0.0007612924562383158 -0.001211805690200787 -0.0013579934475196204 -0.00016047161345139808 -0.00045689685129881934 0.0
119 -0.0007547233892994344 -0.0012029490894749431 -0.0013459077361934295 -0.00016037848557929607 -0.00045421112787679226 0.0
120 -0.0007484035367886047 -0.0011945398568179114 -0.001334300692232547 -0.00016031016460144788 -0.0004516443041930822 0.0
121 -0.000742314307292348 -0.0011865424990466218 -0.0013231357186582538 -0.00016026476832519564 -0.00044918644770268294 0.0
122 -0.0007364393850400346 -0.0011789256524949734 -0.001312380612063224 -0.0001602406604159324 -0.0004468288314419279 0.0
123 -0.0007307647504167669 -0.001171662061342634 -0.0013020075650536076 -0.0001602364937368168 -0.0004445639732422635 0.0
124 -0.0007252786716254428 -0.0011647285214942482 -0.0012919931216434817 -0.00016025124492616413 -0.00044238565613216976 0.0
125 -0.0007199716704046713 -0.001158105792762364 -0.0012823180902868379 -0.00016028424088377987 -0.000440288931488353 0.0
126 -0.0007148364644184778 -0.0011517784818174527 -0.0012729674187548733 -0.00016033517775897676 -0.0004382701063424374 0.0
127 -0.000709867888695228 -0.0011457348981501773 -0.0012639300346836942 -0.0001604041329694199 -0.00043632671612571717 0.0
128 -0.0007050627982985655 -0.0011399668851320034 -0.0012551986553132372 -0.00016049157072930742 -0.00043445748403740284 0.0
129 -0.0007004199542495107 -0.001134469628140769 -0.001246769569688284 -0.00016059834152458901 -0.0004326622681436104 0.0
130 -0.0006959398945755904 -0.0011292414416217 -0.001238642396376956 -0.0001607256759391215 -0.0004309419972486347 0.0
131 -0.0006916247922308823 -0.0011242835368678742 -0.0012308198195642105 -0.0001608751732062517 -0.0004292985965212156 0.0
132 -0.0006874783015045685 -0.001119599772218904 -0.0012233073061870248 -0.00016104878483342566 -0.00042773490380298355 0.0
133 -0.0006835053944141155 -0.0011151963872917015 -0.001216112806591967 -0.0001612487936222198 -0.00042625457747336913 0.0
134 -0.0006797121884644402 -0.0011110817227763402 -0.0012092464410177737 -0.0001614777883826384 -0.00042486199669614967 0.0
135 -0.0006761057670537529 -0.0011072659272656855 -0.0012027201740479625 -0.0001617386346199481 -0.0004235621548320739 0.0
136 -0.0006726939937285683 -0.0011037606525540731 -0.0011965474790561201 -0.00016203444145661088 -0.0004223605467751184 0.0
137 -0.0006694853214479039 -0.0011005787388603944 -0.0011907429946025891 -0.00016236852504429084 -0.0004212630509655345 0.0
138 -0.0006664885980210223 -0.0010977338915239233 -0.00118532217475555 -0.00016274436872461525 -0.00042027580685843815 0.0
139 -0.0006637128689482304 -0.0010952403509114372 -0.0011803009354268076 -0.0001631655802165153 -0.00041940508869176083 0.0
140 -0.0006611671790286103 -0.0010931125575772106 -0.001175695299048226 -0.00016363584614577904 -0.00041865717650796646 0.0
141 -0.0006588603743086329 -0.0010913648151458174 -0.0011715210402806749 -0.00016415888429191074 -0.0004180382255449056 0.0
142 -0.0006568009062294648 -0.0010900109539399524 -0.0011677933359409295 -0.0001647383940096908 -0.0004175541353219051 0.0
143 -0.000654996640178748 -0.0010890639990372858 -0.0011645264229370805 -0.00016537800538723353 -0.0004172104200019346 0.0
144 -0.0006534546710437034 -0.0010885358471778898 -0.0011617332686837008 -0.0001660812278252027 -0.0004170120818959795 0.0
145 -0.000652181148764582 -0.001088436957704095 -0.0011594252591691043 -0.0001668513988562781 -0.00041696349027059405 0.0
146 -0.000651181117257231 -0.0010887760634245795 -0.001157611910493149 -0.00016769163415959227 -0.00041706826789490427 0.0
147 -0.0006500930391569517 -0.0010889427059537953 -0.0011556407120601956 -0.00016850486775355427 -0.0004170973845254594 0.0
148 -0.0006493554068918365 -0.0010896770770163116 -0.0011543025233798738 -0.00016941088180540814 -0.00041732933485315316 0.0
149 -0.0006489652682623034 -0.00109097515042295 -0.001153593160925331 -0.00017041132790405854 -0.00041776262943812837 0.0
150 -0.0006489182435513368 -0.0010928305036818284 -0.0011535059797935221 -0.0001715074685973073 -0.00041839475144441125 0.0
151 -0.0006492084349891373 -0.0010952341421665017 -0.001154031710065484 -0.00017270013946456237 -0.00041922208992518873 0.0
152 -0.0006498283816711928 -0.0010981743995981666 -0.0011551583719758374 -0.00017398972164229558 -0.0004202399035072039 0.0
153 -0.0006507690604167462 -0.0011016369165568326 -0.001156871270711535 -0.0001753761255526445 -0.00042144231527894337 0.0
154 -0.0006520199315008978 -0.0011056046960787594 -0.0011591530689660829 -0.00017685878619200395 -0.0004228223386175138 0.0
155 -0.0006535690265389038 -0.0011100582325270954 -0.0011619839325102473 -0.00017843666988970257 -0.0004243719325319309 0.0
156 -0.0006554030741858694 -0.001114975707078762 -0.0011653417412472874 -0.0001801082919816281 -0.0004260820839505051 0.0
157 -0.0006575076578809135 -0.0011203332405994861 -0.001169202355746215 -0.00018187174439819611 -0.0004279429133349304 0.0
158 -0.0006598673987410536 -0.0011261051926085908 -0.0011735399273137962 -0.00018372473177825279 -0.0004299437991546458 0.0
159 -0.000662466155990044 -0.001132264493636185 -0.001178327238436254 -0.00018566461442147818 -0.0004320735161708342 0.0
160 -0.0006652872370427711 -0.001138782997648348 -0.0011835360599828215 -0.00018768845620336532 -0.00043432038220141193 0.0
161 -0.0006683136095572619 -0.0011456318413744608 -0.001189137511914872 -0.00018979307550783577 -0.0004366724080736966 0.0
162 -0.000671528108370074 -0.0011527817982514568 -0.0011951024153084105 -0.00019197509727972845 -0.0004391174457965873 0.0
163 -0.00067491363116602 -0.0011602036161730395 -0.0012014016251324082 -0.00019423100444830365 -0.0004416433305491573 0.0
164 -0.0006780490262755731 -0.001167164669129841 -0.001207266612157337 -0.00019642852736981807 -0.00044397645972862296 0.0
165 -0.0006813204114700479 -0.0011743356596808717 -0.0012134012533500974 -0.00019868882384570653 -0.00044636662166846883 0.0
166 -0.0006847138602718844 -0.0011816925366853906 -0.0012197816629004364 -0.00020100876944412172 -0.00044880379962257546 0.0
167 -0.0006882160067538906 -0.0011892121242483115 -0.0012263848508296175 -0.0002033852675026557 -0.0004512783433022135 0.0
168 -0.0006918141187088736 -0.0011968722573605668 -0.001233188848443497 -0.00020581527539485447 -0.00045378102839274323 0.0
169 -0.0006954961523674883 -0.0012046518861833575 -0.0012401728022642328 -0.00020829582640509165 -0.0004563031032447111 0.0
170 -0.0006992507896959038 -0.0012125311504482348 -0.0012473170382412695 -0.00021082404725611108 -0.00045883632326703023 0.0
171 -0.0007030674597584011 -0.0012204914262700377 -0.0012546030988200008 -0.00021339717148261052 -0.0004613729738897929 0.0
172 -0.0007069363459275676 -0.0012285153482298598 -0.0012620137559534684 -0.00021601254895519436 -0.0004639058831993672 0.0
173 -0.0007108483808845972 -0.0012365868099084628 -0.0012695330034110143 -0.00021866765193427875 -0.000466428425489237 0.0
174 -0.0007147952313965029 -0.0012446909461722847 -0.0012771460318066795 -0.00022136007807701792 -0.00046893451703009355 0.0
175 -0.0007187692748106656 -0.0012528141004755373 -0.0012848391896829973 -0.00022408755083731243 -0.0004714186053578896 0.0
176 -0.0007227635690935438 -0.0012609437802819964 -0.0012925999337834013 -0.0002268479176947946 -0.0004738756533242356 0.0
177 -0.0007267718180816558 -0.0012690686034666403 -0.001300416771367301 -0.00022963914662881514 -0.0004763011190644671 0.0
178 -0.0007307883334273065 -0.0012771782382615684 -0.0013082791970974535 -0.00023245932122258653 -0.0004786909329273447 0.0
179 -0.0004087294942935319 -0.0007149146967558561 -0.0007321104557444527 -0.0001308869290208098 -0.00026757444008144375 0.0
180 -0.0004146255375028723 -0.0007256613250204605 -0.0007425694327394419 -0.0001336097007177509 -0.0002712865755917839 0.0
181 -0.0004202822870219378 -0.0007359873288035968 -0.0007526407429862377 -0.00013628677926445513 -0.00027481226143800523 0.0
182 -0.00048768217270252516 -0.000846071216277867 -0.000856109677978483 -0.000157055093002162 -0.0003198660832373257 0.0
183 -0.000530843799108188 -0.0009148442701549593 -0.0009183143720609731 -0.000170390230655192 -0.00034888227543284484 0.0
184 -0.0005588986549141047 -0.0009586785221330719 -0.00095655639587748 -0.00017928081324983944 -0.00036778021507465357 0.0
185 -0.0005775621874201378 -0.0009874480328414155 -0.0009808744033848167 -0.00018551364030842097 -0.00038031504518071956 0.0
186 -0.0005903178688303833 -0.0010069871466961548 -0.0009969913009090694 -0.00019013547247822787 -0.00038880062261418944 0.0
187 -0.000599293653416801 -0.0010207617830410704 -0.0010081894817579433 -0.0001937629494255282 -0.00039466416366357496 0.0
188 -0.0006058098595451666 -0.0010308675546620515 -0.0010163852794367483 -0.00019676599947316656 -0.00039879908616482655 0.0
189 -0.0006107028553673247 -0.0010386005078308071 -0.0010227234183022562 -0.00019937185442827368 -0.00040177596656920265 0.0
190 -0.0006145139340375895 -0.001044781173789977 -0.0010279045041933492 -0.0002017236138521786 -0.00040396683644490337 0.0
191 -0.0006176004085558899 -0.001049940465447393 -0.0010323673899014707 -0.00020391354645163477 -0.00040561893463638733 0.0
192 -0.0006202021455934414 -0.001054428387320483 -0.0010363926328776393 -0.000206002386485451 -0.0004068992443544961 0.0
193 -0.0006224823298209575 -0.0010584791315706062 -0.0010401625493639914 -0.0002080307830972774 -0.0004079219987721692 0.0
194 -0.0006245530558417327 -0.001062251065236101 -0.0010437969643274988 -0.0002100262730753088 -0.00040876608095660196 0.0
195 -0.000626491783919109 -0.0010658519279139647 -0.0010473750543372798 -0.0002120076420166627 -0.0004094862919894777 0.0
196 -0.0006283521579347947 -0.0010693550975028716 -0.0010509490392808444 -0.00021398772333538888 -0.00041012080681415936 0.0
197 -0.0006301712575763678 -0.001072810321615685 -0.00105455297408802 -0.00021597523801845787 -0.00041069620140227425 0.0
198 -0.0006319745417250525 -0.0010762509332092357 -0.001058208518576908 -0.0002179760297238567 -0.00041123089663528843 0.0
199 -0.0006337792647206965 -0.0010796987802214279 -0.0010619287968350888 -0.000219993909096437 -0.0004117375483914477 0.0
200 -0.0006355968635518914 -0.0010831676375815866 -0.0010657210204695173 -0.00022203123968846984 -0.00041222472354440765 0.0
201 -0.0006374346405885525 -0.0010866655934174453 -0.0010695882952001113 -0.00022408934955081339 -0.0004126980847339045 0.0
202 -0.000639296957789892 -0.0010901967313658241 -0.0010735308780696873 -0.00022616882318072316 -0.0004131612330411601 0.0
203 -0.0006411860885814874 -0.001093762323891941 -0.0010775470593903165 -0.0002282697101884869 -0.00041361631007754405 0.0
204 -0.0006431028278581849 -0.0010973616825475131 -0.0010816337851331126 -0.00023039167532922268 -0.00041406442956567807 0.0
205 -0.0006450469299859029 -0.0011009927656770936 -0.0010857870979814371 -0.0002325341068787461 -0.00041450598735508145 0.0
206 -0.0006470174238806911 -0.0011046526136049702 -0.0010900024506933011 -0.00023469619520805494 -0.0004149408843689143 0.0
207 -0.0006490128399053803 -0.0011083376605534434 -0.001094274929002131 -0.00023687698992295463 -0.0004153686869732302 0.0
208 -0.000651031373324985 -0.0011120439581829742 -0.0010985994101391939 -0.00023907544152433171 -0.0004157887422553727 0.0
209 -0.000653071002024105 -0.001115767335612448 -0.0011029706753896275 -0.0002412904318566463 -0.0004162002607512502 0.0
210 -0.0006551295712000431 -0.0011195035137082977 -0.0011073834897553112 -0.00024352079641841453 -0.0004166023756439938 0.0
211 -0.0006572048541874778 -0.0011232481864146722 -0.0011118326580486886 -0.0002457653407571914 -0.00041699418494227293 0.0
212 -0.0006592945960223153 -0.0011269970783180064 -0.001116313064090148 -0.00024802285256071417 -0.0004173747813419649 0.0
213 -0.0006613965445207351 -0.0011307459850752666 -0.0011208196977956328 -0.0002502921106153092 -0.0004177432731754231 0.0
214 -0.0006635084723293963 -0.0011344908014921202 -0.001125347673593897 -0.0002525718914837291 -0.0004180987989145767 0.0
215 -0.0006656281924493838 -0.0011382275407092197 -0.0011298922426470936 -0.00025486097452299673 -0.00041844053701570785 0.0
216 -0.000667753569046784 -0.0011419523469959982 -0.0011344488006543687 -0.00025715814569430006 -0.0004187677124024289 0.0
217 -0.0006698825248631495 -0.001145661503958041 -0.0011390128925182455 -0.0002594622004941008 -0.00041907960052709007 0.0
218 -0.0006720130461770146 -0.001149351439462507 -0.0011435802147933417 -0.00026177194624596613 -0.00041937552969240294 0.0
219 -0.000674143186004753 -0.0011530187282225708 -0.0011481466165766678 -0.00026408620392708845 -0.00041965488212732257 0.0
220 -0.00067627106603848 -0.0011566600927187633 -0.0011527080993110922 -0.0002664038096556147 -0.000419917094175 0.0
221 -0.000678394877680166 -0.001160272402944236 -0.001157260815837743 -0.0002687236159298661 -0.00042016165585157124 0.0
222 -0.0006805128824307781 -0.0011638526753230544 -0.0011618010689354167 -0.0002710444926850012 -0.00042038810996273743 0.0
223 -0.0006826234118202701 -0.001167398071050514 -0.0011663253095142967 -0.0002733653282139553 -0.00042059605091286195 0.0
224 -0.0006847248670114814 -0.0011709058940323836 -0.0011708301345806373 -0.0002756850299858974 -0.00042078512330351374 0.0
225 -0.0006868157181726756 -0.0011743735885477824 -0.0011753122850525015 -0.0002780025253855117 -0.0004209550203909397 0.0
226 -0.0006888945036858904 -0.00117779873672305 -0.0011797686434807237 -0.00028031676238924247 -0.000421105482452164 0.0
227 -0.0006909598292381924 -0.0011811790558769102 -0.001184196231710556 -0.000282626710189398 -0.00042123629509502027 0.0
228 -0.0006930103668287576 -0.0011845123957782892 -0.0011885922085066087 -0.00028493135977332413 -0.00042134728753719813 0.0
229 -0.0006950448537143166 -0.0011877967358444068 -0.0011929538671544273 -0.000287229724462154 -0.0004214383308719189 0.0
230 -0.0006970620913083255 -0.0011910301822973578 -0.001197278633045912 -0.0002895208404118015 -0.0004215093363326217 0.0
231 -0.0006990609440440283 -0.001194210965290756 -0.0012015640612515486 -0.0002918037670775496 -0.0004215602535652651 0.0
232 -0.0007010403382080629 -0.0011973374360135889 -0.001205807834079782 -0.000294077587642737 -0.0004215910689142319 0.0
233 -0.0007029992607488205 -0.0012004080637754797 -0.0012100077586222346 -0.00029634140941147997 -0.0004216018037259794 0.0
234 -0.0007049367580621082 -0.0012034214330756405 -0.0012141617642825427 -0.00029859436416502226 -0.00042159251267330424 0.0
235 -0.0007068519347557439 -0.0012063762406568734 -0.0012182679002864173 -0.00030083560848118146 -0.00042156328210229055 0.0
236 -0.0007087439523939784 -0.0012092712925452348 -0.0012223243331703857 -0.00030306432401625753 -0.0004215142284033922 0.0
237 -0.0007106120282224178 -0.0012121055010760034 -0.0012263293442471362 -0.00030527971774885605 -0.0004214454964078076 0.0
238 -0.0007124554338739759 -0.0012148778819065767 -0.0012302813270457537 -0.0003074810221851458 -0.00042135725781007475 0.0
239 6.464226666857547e-05 0.00011019280796294262 0.00011169448886342742 2.8025294480816583e-05 3.812333242905268e-05 0.0
240 6.107385157746146e-05 0.00010403247577507588 0.00010541477658266206 2.6582035324859046e-05 3.59351755449487e-05 0.0
241 5.8597714336249205e-05 9.975949519566406e-05 0.00010107892870684154 2.560781264355658e-05 3.439161257240815e-05 0.0
242 -0.0005419796458490598 -0.0009222967579552289 -0.0009346247731489591 -0.00023782951673547147 -0.00031724946853862454 0.0
243 -0.0005416201534629892 -0.0009216512976178628 -0.0009351503614964882 -0.00023876341118901813 -0.0003160473842582446 0.0
244 -0.0005419433698995075 -0.00092206386528086 -0.0009366473470164276 -0.00023996736373861936 -0.00031526811102739936 0.0
245 -0.0005427457437200233 -0.000923213850906727 -0.0009388233483201764 -0.00024136088074867476 -0.0003147838954589877 0.0
246 -0.000543879743965286 -0.0009248683471886653 -0.0009414646808091106 -0.00024288500688209814 -0.0003145027360966548 0.0
247 -0.0005452390388168294 -0.0009268592884859365 -0.0009444163996250504 -0.00024449682067262624 -0.0003143587469920465 0.0
248 -0.0005467473157072075 -0.0009290660217948495 -0.0009475668024894424 -0.00024616520114787403 -0.0003143049642327157 0.0
249 -0.0005483499914085838 -0.0009314022938508597 -0.0009508357187182813 -0.00024786764312592706 -0.0003143080536854127 0.0
250 -0.0005500081371412199 -0.0009338066719839764 -0.0009541658167350882 -0.00024958789682081017 -0.00031434445679892126 0.0
251 -0.0005516940636091254 -0.0009362355615646154 -0.0009575162303270664 -0.00025131423632518077 -0.0003143976038576245 0.0
252 -0.0005533881313394537 -0.0009386581513926064 -0.0009608579246306011 -0.00025303819862207964 -0.0003144559094840822 0.0
253 -0.0005550764561319785 -0.0009410527728888571 -0.0009641703471772295 -0.0002547536700464161 -0.0003145113362761412 0.0
254 -0.0005567492636239906 -0.000943404287125807 -0.0009674390180633489 -0.00025645622697774385 -0.0003145583684470672 0.0
255 -0.0005583997121053007 -0.0009457022145165663 -0.0009706538013138453 -0.00025814266135271104 -0.00031459327998549925 0.0
256 -0.0005600230518122926 -0.0009479393987206482 -0.0009738076677135502 -0.0002598106399060839 -0.00031461361365826477 0.0
257 -0.0005616160253167073 -0.0009501110535647941 -0.0009768958108438664 -0.00026145845983618335 -0.00031461781056538846 0.0
258 -0.0005631764402854482 -0.000952214083892454 -0.0009799150162251296 -0.000263084873813284 -0.00031460494698476015 0.0
259 -0.0005647028652665625 -0.0009542466019508916 -0.0009828632114360879 -0.000264688964753101 -0.00031457454755751135 0.0
260 -0.0005661944131629217 -0.0009562075831495287 -0.0009857391454172622 -0.00026627005624633516 -0.00031452645272566276 0.0
261 -0.0005676505871364321 -0.0009580966210373721 -0.0009885421598638845 -0.0002678276485007307 -0.00031446072468606373 0.0
262 -0.0005690711709197582 -0.0009599137528465762 -0.0009912720261951204 -0.0002693613725168558 -0.0003143775806666508 0.0
263 -0.0005704561506915622 -0.00096165933518446 -0.0009939288291794907 -0.000270870957282568 -0.00031427734557175373 0.0
264 -0.0005718056593720393 -0.0009633339553418699 -0.0009965128837325506 -0.00027235620625455355 -0.00031416041835143906 0.0
265 -0.0005731199368364229 -0.0009649383678855887 -0.0009990246752880098 -0.0002738169804598863 -0.00031402724809190784 0.0
266 -0.0005743993014261037 -0.0009664734491950605 -0.001001464816915657 -0.0002752531863133269 -0.0003138783169905542 0.0
267 -0.0005756441294769826 -0.0009679401647339401 -0.0010038340183354134 -0.0002766647667920517 -0.0003137141282074021 0.0
268 -0.0005768548405376905 -0.0009693395453616348 -0.001006133063383543 -0.0002780516949998104 -0.00031353519717185484 0.0
269 -0.0005780318866276709 -0.0009706726700662273 -0.001008362793487734 -0.00027941396943132385 -0.0003133420453398275 0.0
270 -0.000579175744366069 -0.000971940653264014 -0.0010105240954188693 -0.0002807516104466714 -0.0003131351956909304 0.0
271 -0.0005802869091436456 -0.0009731446353527362 -0.0010126178920922544 -0.00028206465760726286 -0.0003129151694638178 0.0
272 -0.000581365890752011 -0.0009742857755897373 -0.0010146451355495167 -0.00028335316762608496 -0.0003126824837752353 0.0
273 -0.0005824132100557462 -0.0009753652466379575 -0.0010166068015061175 -0.0002846172127567466 -0.0003124376498723191 0.0
274 -0.0005834293964145353 -0.0009763842303154391 -0.001018503885029658 -0.00028585687949708337 -0.0003121811718413134 0.0
275 -0.0005844149856481811 -0.0009773439142198657 -0.0010203373970413044 -0.00028707226751934704 -0.00031191354564766684 0.0
276 -0.0005853705183980446 -0.0009782454889957941 -0.0010221083614226937 -0.00028826348876478985 -0.00031163525841902315 0.0
277 -0.0005862965387814147 -0.0009790901460802455 -0.001023817812574479 -0.00028943066665877216 -0.0003113467879084493 0.0
278 -0.0005871935932653705 -0.000979879075809871 -0.001025466793317234 -0.00029057393541537236 -0.0003110486020932773 0.0
279 -0.0005880622297081609 -0.0009806134658068833 -0.0010270563530573734 -0.0002916934394096953 -0.00031074115887779017 0.0
280 -0.00058890299653102 -0.0009812944995844547 -0.0010285875461627848 -0.00029278933260246814 -0.0003104249058769011 0.0
281 -0.000589716441993889 -0.000981923355328991 -0.0010300614305085742 -0.0002938617780060572 -0.000310100280264283 0.0
282 -0.0005905031135559787 -0.00098250120482846 -0.001031479066164357 -0.0002949109471842482 -0.00030976770867288255 0.0
283 -0.000591263557307189 -0.0009830292125239826 -0.0010328415142020644 -0.00029593701978031006 -0.0003094276071388038 0.0
284 -0.0005919983174601486 -0.0009835085346678479 -0.0010341498356087847 -0.0002969401830694734 -0.0003090803810818069 0.0
285 -0.0005927079358950808 -0.0009839403185749294 -0.0010354050902927306 -0.00029792063153297237 -0.0003087264253171582 0.0
286 -0.00059339295175154 -0.0009843257019574393 -0.0010366083361731666 -0.00029887856645158196 -0.00030836612409469467 0.0
287 -0.0005940539010622765 -0.0009846658123348526 -0.0010377606283468697 -0.00029981419551707245 -0.00030799985116173196 0.0
288 -0.0005946913164253545 -0.0009849617665122503 -0.0010388630183249964 -0.0003007277324603471 -0.0003076279698469983 0.0
289 -0.0005953057267112952 -0.0009852146701213415 -0.001039916553335141 -0.0003016193966952803 -0.0003072508331632042 0.0
290 -0.0005958976568023463 -0.000985425617218989 -0.0010409222756838608 -0.00030248941297737807 -0.000306868783926098 0.0
291 -0.0005964676273614686 -0.0009855956899388542 -0.0010418812221756576 -0.00030333801107657195 -0.00030648215488818356 0.0
292 -0.0005970161546286375 -0.0009857259581918087 -0.0010427944235843866 -0.00030416542546341657 -0.0003060912688853311 0.0
293 -0.0005975437502424195 -0.0009858174794113658 -0.0010436629041736224 -0.00030497189500809966 -0.0003056964389947537 0.0
294 -0.0005980509210848217 -0.0009858712983404666 -0.0010444876812625383 -0.00030575766269164855 -0.0003052979687028925 0.0
295 -0.0005985381691474979 -0.0009858884468561303 -0.0010452697648340012 -0.0003065229753287375 -0.0003048961520818355 0.0
296 -0.0005990059914176119 -0.000985869943828834 -0.001046010157181897 -0.0003072680833015605 -0.00030449127397305415 0.0
297 -0.000599454879781587 -0.000985816795013421 -0.0010467098525946102 -0.00030799324030417993 -0.000304083610177237 0.0
298 -0.0005998853209452011 -0.0009857299929687084 -0.0010473698370719162 -0.00030869870309684246 -0.00030367342764915726 0.0
299 -0.0006002977963684602 -0.0009856105170029793 -0.0010479910880725393 -0.00030938473126971807 -0.0003032609846965302 0.0
300 -0.0006006927822137907 -0.000985459333142706 -0.0010485745742897664 -0.0003100515870155428 -0.00030284653118189676 0.0
301 -0.000601070749306216 -0.000985277394122113 -0.0010491212554527404 -0.00031069953491069213 -0.00030243030872667304 0.0
302 -0.0006014321631041711 -0.0009850656393911653 -0.0010496320821510314 -0.000311328841704178 -0.00030201255091651206 0.0
303 -0.0006017774836797775 -0.0009848249951398744 -0.0010501079956803541 -0.0003119397761141354 -0.0003015934835072473 0.0
304 -0.0006021071657074051 -0.0009845563743368486 -0.001050549927907333 -0.00031253260863134175 -0.0003011733246307032 0.0
305 -0.0006024216584594546 -0.0009842606767801877 -0.001050958801151374 -0.0003131076113293555 -0.0003007522849997386 0.0
306 -0.0006027214058083956 -0.000983938789159024 -0.0010513355280818912 -0.0003136650576808916 -0.00030033056811195745 0.0
307 -0.0006030068462341098 -0.000983591585124039 -0.001051681011629153 -0.0003142052223800472 -0.00029990837045154643 0.0
308 -0.0006032784128357147 -0.00098321992536552 -0.0010519961449072432 -0.0003147283811700432 -0.00029948588168877884 0.0
309 -0.0006035365333470934 -0.0009828246576975856 -0.0010522818111476922 -0.0003152348106761559 -0.0002990632848767642 0.0
310 -0.0006037816301554199 -0.0009824066171473754 -0.0010525388836424786 -0.0003157247882435412 -0.0002986407566450693 0.0
311 -0.0006040141203220524 -0.0009819666260480987 -0.0010527682256952224 -0.0003161985917796822 -0.00029821846738989035 0.0
312 -0.0006042344156052269 -0.0009815054941349583 -0.0010529706905794889 -0.0003166564996012082 -0.0002977965814604923 0.0
313 -0.0006044429224840468 -0.000981024018643111 -0.0010531471215032694 -0.0003170987902848715 -0.000297375257341683 0.0
314 -0.0006046400421832863 -0.0009805229844068132 -0.0010532983515786954 -0.0003175257425224536 -0.00029695464783209883 0.0
315 -0.000604826170698676 -0.0009800031639592027 -0.001053425203796342 -0.0003179376349794572 -0.00029653490021816796 0.0
316 -0.0006050016988222547 -0.0009794653176320065 -0.00105352849100331 -0.00031833474615738325 -0.00029611615644358245 0.0
317 -0.0006051670121675978 -0.000978910193654857 -0.0010536090158846838 -0.00031871735425950616 -0.0002956985532742245 0.0
318 -0.0006053224911945499 -0.0009783385282535932 -0.0010536675709476278 -0.00031908573705995895 -0.0002952822224584132 0.0
319 -0.0006054685112334034 -0.0009777510457474408 -0.0010537049385079453 -0.00031944017177609784 -0.00029486729088249266 0.0
320 -0.000605605442508234 -0.0009771484586446049 -0.001053721890678519 -0.00031978093494399275 -0.00029445388072167785 0.0
321 -0.000605733650159371 -0.0009765314677362329 -0.001053719189359517 -0.0003201083022970261 -0.0002940421095862059 0.0
322 -0.0006058534942648376 -0.0009759007621884751 -0.0010536975862299887 -0.00032042254864749745 -0.00029363209066277546 0.0
323 -0.0006059653298607758 -0.0009752570196326713 -0.0010536578227408123 -0.0003207239477712313 -0.0002932239328513466 0.0
324 -0.0006060695069607497 -0.0009746009062534974 -0.0010536006301087165 -0.00032101277229511037 -0.0002928177408973183 0.0
325 -0.0006061663705739728 -0.0009739330768751401 -0.0010535267293113914 -0.00032128929358753947 -0.000292413615519175 0.0
326 -0.0006062562607224478 -0.0009732541750454932 -0.0010534368310835829 -0.0003215537816518078 -0.00029201165353166884 0.0
327 -0.0006063395124570762 -0.0009725648331184655 -0.0010533316359141883 -0.00032180650502235337 -0.00029161194796463723 0.0
328 -0.0006064164558727814 -0.0009718656723344747 -0.0010532118340443656 -0.00032204773066392276 -0.00029121458817755287 0.0
329 -0.000606487416122669 -0.0009711573028991774 -0.0010530781054666107 -0.00032227772387360986 -0.0002908196599698913 0.0
330 -0.0006065527134313827 -0.0009704403240606793 -0.0010529311199250044 -0.00032249674818581796 -0.0002904272456874676 0.0
331 -0.0006066126631076778 -0.0009697153241852728 -0.001052771536916586 -0.00032270506528012544 -0.00029003742432483047 0.0
332 -0.0006066675755563189 -0.0009689828808318785 -0.0010526000056939784 -0.0003229029348920741 -0.00028965027162384025 0.0
333 -0.0006067177562894438 -0.0009682435608253997 -0.001052417165269411 -0.0003230906147269093 -0.0002892658601685745 0.0
334 -0.0006067635059374236 -0.000967497920329066 -0.001052223644420144 -0.0003232683603762562 -0.00028888425947665495 0.0
335 -0.0006068051202594332 -0.0009667465049160826 -0.0010520200616955689 -0.0003234364252377945 -0.0002885055360871712 0.0
336 -0.0006068428901537191 -0.0009659898496405762 -0.001051807025425904 -0.0003235950604378848 -0.0002881297536452731 0.0
337 -0.0006068771016677821 -0.0009652284791081846 -0.0010515851337327834 -0.0003237445147572174 -0.00028775697298361215 0.0
338 -0.0006069080360085274 -0.0009644629075463486 -0.001051354974541748 -0.0003238850345594596 -0.00028738725220072824 0.0
339 -0.0006069359695525102 -0.0009636936388745362 -0.0010511171255968071 -0.0003240168637229262 -0.00028702064673652325 0.0
340 -0.0006069611738563552 -0.0009629211667744892 -0.0010508721544771188 -0.00032414024357526466 -0.0002866572094449284 0.0
341 -0.0006069839156675018 -0.0009621459747607445 -0.0010506206186159845 -0.0003242554128311834 -0.0002862969906639126 0.0
342 -0.0006070044569353196 -0.000961368536251487 -0.0010503630653221727 -0.000324362607533199 -0.00028594003828292787 0.0
343 -0.0006070230548227305 -0.0009605893146399346 -0.0010501000318037215 -0.0003244620609954181 -0.0002855863978079237 0.0
344 -0.0006070399617183798 -0.0009598087633663287 -0.0010498320451942458 -0.0003245540037503309 -0.00028523611242402844 0.0
345 -0.0006070554252494882 -0.0009590273259907059 -0.0010495596225818854 -0.00032463866349862315 -0.00028488922305602366 0.0
346 -0.0006070696882954253 -0.0009582454362665287 -0.0010492832710409206 -0.0003247162650619854 -0.00028454576842670723 0.0
347 -0.0006070829890020663 -0.0009574635182152402 -0.0010490034876660791 -0.0003247870303388877 -0.0002842057851132372 0.0
348 -0.0006070955607970591 -0.0009566819862019363 -0.0010487207596096913 -0.0003248511782633369 -0.0002838693076015878 0.0
349 -0.0006071076324059482 -0.0009559012450120656 -0.0010484355641215465 -0.0003249089247665326 -0.00028353636833915977 0.0
350 -0.0006071194278693328 -0.0009551216899294128 -0.0010481483685916807 -0.00032496048274145814 -0.0002832069977856911 0.0
351 -0.0006071311665610017 -0.000954343706815265 -0.0010478596305959489 -0.0003250060620103221 -0.0002828812244625114 0.0
352 -0.0006071430632071289 -0.0009535676721888766 -0.0010475697979444466 -0.0003250458692948346 -0.0002825590750002377 0.0
353 -0.000607155327906572 -0.0009527939533092876 -0.0010472793087328138 -0.0003250801081892888 -0.0002822405741849998 0.0
354 -0.0006071681661522411 -0.0009520229082584275 -0.0010469885913962974 -0.00032510897913637057 -0.00028192574500323904 0.0
355 -0.0006071817788536446 -0.0009512548860256516 -0.0010466980647666937 -0.00032513267940569566 -0.0002816146086851917 0.0
356 -0.0006071963623605281 -0.0009504902265935762 -0.0010464081381319835 -0.0003251514030749765 -0.00028130718474707995 0.0
357 -0.0006072121084877083 -0.0009497292610253404 -0.0010461192112987648 -0.00032516534101381146 -0.0002810034910321135 0.0
358 -0.0006072292045410189 -0.0009489723115531653 -0.0010458316746573058 -0.00032517468087000004 -0.00028070354375032454 0.0
359 -0.00060724783334443 -0.0009482196916682794 -0.0010455459092492529 -0.0003251796070583571 -0.000280407357517319 0.0
360 -0.0006072681732683049 -0.0009474717062121509 -0.0010452622868378952 -0.00032518030075195535 -0.00028011494539198495 0.0
361 -0.0006072903982587702 -0.0009467286514689627 -0.0010449811699808891 -0.0003251769398757208 -0.00027982631891319994 0.0
362 -0.0006073146778682228 -0.0009459908152593638 -0.0010447029121054372 -0.0003251696991023468 -0.0002795414881356033 0.0
363 -0.0006073411772869122 -0.0009452584770353797 -0.0010444278575857653 -0.0003251587498504316 -0.00027926046166445556 0.0
364 -0.0006073700573755984 -0.0009445319079764756 -0.0010441563418228635 -0.00032514426028479136 -0.0002789832466896393 0.0
365 -0.0006074014746992504 -0.0009438113710866992 -0.001043888691326375 -0.0003251263953188717 -0.0002787098490188314 0.0
366 -0.00060743558156175 -0.0009430971212928392 -0.0010436252237985399 -0.00032510531661918856 -0.00027844027310988364 0.0
367 -0.0006074725260415854 -0.0009423894055435671 -0.0010433662482201233 -0.0003250811826117385 -0.0002781745221024498 0.0
368 -0.0006075124520284768 -0.0009416884629094511 -0.0010431120649381854 -0.0003250541484902919 -0.00027791259784888054 0.0
369 -0.0006075554992609137 -0.0009409945246838128 -0.0010428629657556303 -0.0003250243662265124 -0.0002776545009444218 0.0
370 -0.0006076018033645496 -0.000940307814484324 -0.001042619234022397 -0.0003249919845818201 -0.0002774002307567374 0.0
371 -0.0006076514958914204 -0.0009396285483552866 -0.0010423811447282032 -0.00032495714912093263 -0.000277149785454784 0.0
372 -0.0006077047043599559 -0.0009389569348705353 -0.0010421489645967503 -0.0003249200022270186 -0.00027690316203706416 0.0
373 -0.0006077615522957004 -0.0009382931752368285 -0.0010419229521812254 -0.00032488068311837127 -0.00027666035635926444 0.0
374 -0.0006078221592727616 -0.0009376374633977532 -0.0010417033579610904 -0.00032483932786656706 -0.00027642136316132453 0.0
375 -0.0006078866409558624 -0.0009369899861379303 -0.0010414904244399213 -0.00032479606941599376 -0.00027618617609391987 0.0
376 -0.0006079551091430209 -0.0009363509231875745 -0.0010412843862443119 -0.00032475103760472036 -0.0002759547877444088 0.0
377 -0.0006080276718087687 -0.0009357204473272422 -0.0010410854702236577 -0.0003247043591866138 -0.0002757271896622376 0.0
378 -0.0006081044331478899 -0.0009350987244927519 -0.0010408938955507698 -0.0003246561578546518 -0.0002755033723838344 0.0
379 -0.0006081854936195847 -0.0009344859138801172 -0.0010407098738231268 -0.0003246065542653384 -0.0002752833254569797 0.0
380 -0.0006082709499920662 -0.0009338821680505086 -0.001040533609164762 -0.0003245556660641869 -0.0002750670374646956 0.0
381 -0.0006083608953875365 -0.0009332876330351484 -0.0010403652983286614 -0.0003245036079121989 -0.0002748544960486569 0.0
382 -0.0006084554193274255 -0.0009327024484399674 -0.0010402051307994633 -0.00032445049151324097 -0.00027464568793210767 0.0
383 -0.0006085546077779741 -0.0009321267475501449 -0.0010400532888965772 -0.0003243964256423252 -0.0002744405989423482 0.0
384 -0.0006086585431959806 -0.0009315606574342475 -0.0010399099478773893 -0.0003243415161746564 -0.00027423921403274136 0.0
385 -0.000608767304574773 -0.00093100429904807 -0.0010397752760406538 -0.00032428586611544787 -0.00027404151730429525 0.0
386 -0.0006088809674902832 -0.0009304577873379842 -0.0010396494348298316 -0.0003242295756304021 -0.00027384749202679373 0.0
387 -0.0006089996041472608 -0.0009299212313438577 -0.001039532578936435 -0.0003241727420768454 -0.00027365712065952037 0.0
388 -0.0006091232834255166 -0.0009293947343013708 -0.0010394248564031725 -0.0003241154600354215 -0.00027347038487154934 0.0
389 -0.0006092520709261781 -0.0009288783937437132 -0.0010393264087268541 -0.00032405782134230763 -0.0002732872655616242 0.0
390 -0.0006093860290179447 -0.0009283723016026342 -0.0010392373709610138 -0.00032399991512190994 -0.00027310774287763964 0.0
391 -0.000609525216883254 -0.0009278765443087273 -0.0010391578718181047 -0.0003239418278199684 -0.000272931796235713 0.0
392 -0.0006096696905643846 -0.0009273912028909823 -0.0010390880337712864 -0.0003238836432370513 -0.000272759404338877 0.0
393 -0.0006098195030094052 -0.0009269163530754685 -0.0010390279731556406 -0.00032382544256236254 -0.00027259054519537655 0.0
394 -0.0006099747041179504 -0.0009264520653831345 -0.001038977800268788 -0.0003237673044078301 -0.0002724251961365811 0.0
395 -0.0006101353407868348 -0.0009259984052267356 -0.0010389376194708975 -0.00032370930484244977 -0.0002722633338345377 0.0
396 -0.0006103014569553985 -0.0009255554330067399 -0.0010389075292839194 -0.00032365151742680783 -0.00027210493431913726 0.0
397 -0.0006104730936506254 -0.0009251232042062723 -0.001038887622490089 -0.0003235940132477752 -0.00027194997299493 0.0
398 -0.0006106502890319567 -0.0009247017694849961 -0.0010388779862295786 -0.0003235368609533152 -0.0002717984246575735 0.0
399 -0.0006108330784358024 -0.0009242911747719313 -0.001038878702097285 -0.0003234801267873777 -0.0002716502635099331 0.0
400 -0.0006110214944197176 -0.0009238914613571708 -0.0010388898462387 -0.0003234238746248464 -0.000271505463177834 0.0
401 -0.0006112155668062005 -0.0009235026659824338 -0.0010389114894447822 -0.0003233681660064897 -0.0002713639967254634 0.0
402 -0.0006114153227261384 -0.0009231248209305091 -0.0010389436972458798 -0.00032331306017391813 -0.0002712258366704498 0.0
403 -0.0006116207866618136 -0.0009227579541134523 -0.0010389865300045348 -0.0003232586141044725 -0.00027109095499859196 0.0
404 -0.0006118319804895169 -0.0009224020891596218 -0.0010390400430072724 -0.0003232048825460593 -0.0002709593231782764 0.0
405 -0.0006120489235216926 -0.0009220572454994508 -0.0010391042865552252 -0.0003231519180518698 -0.00027083091217456045 0.0
406 -0.0006122716325486485 -0.0009217234384499985 -0.0010391793060536508 -0.00032309977101498545 -0.0002707056924629485 0.0
407 -0.0006125001218797821 -0.000921400679298235 -0.0010392651421002716 -0.0003230484897028305 -0.00027058363404285253 0.0
408 -0.0006127344033843072 -0.0009210889753830281 -0.0010393618305723981 -0.00032299812029144587 -0.00027046470645074175 0.0
409 -0.0006129744865314975 -0.0009207883301758704 -0.0010394694027128658 -0.0003229487068995785 -0.0002703488787729989 0.0
410 -0.0006132203784303985 -0.0009204987433602855 -0.0010395878852147095 -0.0003229002916225486 -0.0002702361196584721 0.0
411 -0.0006134720838690393 -0.0009202202109099599 -0.001039717300304621 -0.00032285291456589724 -0.000270126397330747 0.0
412 -0.0006137296053530903 -0.0009199527251655376 -0.0010398576658251077 -0.000322806613878773 -0.0002700196796001238 0.0
413 -0.0006139929431439809 -0.0009196962749101058 -0.001040008995315381 -0.0003227614257870567 -0.0002699159338753163 0.0
414 -0.0006142620952964874 -0.0009194508454433844 -0.0010401712980909728 -0.0003227173846262122 -0.00026981512717488257 0.0
415 -0.0006145370576957355 -0.0009192164186545603 -0.0010403445793220193 -0.00032267452287383 -0.0002697172261383749 0.0
416 -0.0006148178240936761 -0.000918992973093852 -0.0010405288401102858 -0.0003226328711818799 -0.00026962219703723973 0.0
417 -0.0006151043861449675 -0.0009187804840427179 -0.001040724077564842 -0.0003225924584086305 -0.0002695300057854465 0.0
418 -0.0006153967334423129 -0.0009185789235827881 -0.0010409302848764593 -0.0003225533116502518 -0.00026944061794987337 0.0
419 -0.0006156948535512082 -0.0009183882606634633 -0.0010411474513906701 -0.00032251545627206776 -0.0002693539987604374 0.0
420 -0.0006159987320441479 -0.0009182084611682579 -0.0010413755626795611 -0.0003224789159394782 -0.00026927011311999504 0.0
421 -0.0006163083525342168 -0.0009180394879797898 -0.001041614600612188 -0.0003224437126485013 -0.0002691889256139879 0.0
422 -0.0006166236967081514 -0.0009178813010435519 -0.0010418645434237634 -0.00032240986675597836 -0.0002691104005198764 0.0
423 -0.00061694474435881 -0.0009177338574303784 -0.001042125365783501 -0.00032237739700939616 -0.0002690345018163374 0.0
424 -0.0006172714734170856 -0.0009175971113976713 -0.0010423970388611975 -0.00032234632057634546 -0.0002689611931922492 0.0
425 -0.0006176038599832239 -0.0009174710144493354 -0.0010426795303924822 -0.00032231665307358513 -0.000268890438055449 0.0
426 -0.0006179418783576339 -0.0009173555153945592 -0.001042972804742883 -0.00032228840859575267 -0.0002688221995413052 0.0
427 -0.0006182855010710813 -0.0009172505604052927 -0.0010432768229705388 -0.0003222615997436626 -0.00026875644052106335 0.0
428 -0.0006186346989143712 -0.0009171560930725804 -0.0010435915428877317 -0.0003222362376522389 -0.00026869312361001266 0.0
429 -0.000618989440967442 -0.0009170720544616537 -0.0010439169191211219 -0.0003222123320180408 -0.00026863221117544447 0.0
430 -0.000619156605740683 -0.0009166472056275517 -0.0010438535559951152 -0.00032206692893872995 -0.00026850682000488084 0.0
431 -0.000619345955267878 -0.0009162655871705408 -0.0010438349704000025 -0.0003219347666827729 -0.0002683911126508944 0.0
432 -0.0006202646759404564 -0.0009168995494216504 -0.0010449472405794932 -0.00032215407324457827 -0.0002685757892054934 0.0
433 -0.0006210238894501862 -0.0009173216919572049 -0.0010458306737831163 -0.00032229311160682504 -0.00026869069071057725 0.0
434 -0.000621673678758943 -0.0009176015362087352 -0.0010465598698501113 -0.00032237750184097415 -0.00026875771063433014 0.0
435 -0.0006222492975387936 -0.0009177878086248906 -0.0010471871457315366 -0.00032242521963876024 -0.0002687922379332182 0.0
436 -0.0006227755426540526 -0.0009179146054307484 -0.0010477491434658375 -0.0003224488588097884 -0.0002688050793811072 0.0
437 -0.0006232698271047492 -0.0009180057153362439 -0.0010482714597649585 -0.00032245721938799324 -0.00026880380952233975 0.0
438 -0.0006237443457953168 -0.0009180776602217201 -0.001048771901252576 -0.00032245642557836735 -0.0002687937212823924 0.0
439 -0.00062420760497478 -0.0009181418387289493 -0.001049262779126025 -0.00032245071430307096 -0.00026877849665636405 0.0
440 -0.0006246655037811552 -0.0009182060396555834 -0.0010497525294661586 -0.00032244299214242593 -0.0002687606805228791 0.0
441 -0.0006251220997390562 -0.0009182755114052225 -0.0010502468586272712 -0.0003224352290173092 -0.0002687420156584054 0.0
442 -0.0006255801508515827 -0.0009183537180776874 -0.001050749553402651 -0.00032242873658307257 -0.00026872367972786206 0.0
443 -0.0006260414995748234 -0.0009184428740657606 -0.001051263054194534 -0.0003224243651078157 -0.0002687064529648074 0.0
444 -0.0006265073447864738 -0.000918544321944861 -0.0010517888604513585 -0.0003224226426654184 -0.00026869083680290505 0.0
445 -0.0006269784343664491 -0.0009186587994247952 -0.0010523278173079124 -0.0003224238734850033 -0.00026867713777794025 0.0
446 -0.0006274552014883387 -0.0009187866277386223 -0.0010528803180519233 -0.0003224282073729973 -0.00026866552683107775 0.0
447 -0.0006279378609923099 -0.0009189278443893494 -0.0010534464469387943 -0.00032243568864563513 -0.00026865608118612053 0.0
448 -0.0006284264774482605 -0.0009190822964918853 -0.001054026079734068 -0.0003224462905501058 -0.00026864881388204 0.0
449 -0.0006289210131443482 -0.0009192497062176783 -0.0010546189543069106 -0.0003224599394113839 -0.00026864369456168925 0.0
450 -0.0006294213618443802 -0.0009194297164994874 -0.001055224720015411 -0.0003224765315084426 -0.0002686406640691864 0.0
451 -0.0006299273724609902 -0.0009196219227794801 -0.0010558429720842312 -0.00032249594480935587 -0.0002686396446654795 0.0
452 -0.0006304388655877333 -0.0009198258949006638 -0.0010564732753733184 -0.00032251804707501944 -0.00026864054714495906 0.0
453 -0.0006309556449788219 -0.0009200411920479736 -0.0010571151806578387 -0.00032254270140167875 -0.0002686432757625643 0.0
454 -0.0006314775054586782 -0.0009202673727986427 -0.0010577682356320965 -0.00032256976996068227 -0.00026864773161602086 0.0
455 -0.0006320042383127861 -0.0009205040017407816 -0.001058431992206003 -0.0003225991164726911 -0.00026865381493999894 0.0
456 -0.001289318712145978 -0.0018767971028292767 -0.0021588114930431355 -0.0006576288461683401 -0.000547621644502361 0.0
457 -0.001281872480967571 -0.0018651948530774534 -0.0021480326712524367 -0.0006533178667330899 -0.0005441978531660721 0.0
458 -0.0012766556915994045 -0.0018566205414991023 -0.0021403853960461844 -0.0006501458825886746 -0.0005417207958377643 0.0
459 -0.0012730458145652052 -0.001850246719639786 -0.002135022264918107 -0.0006477984482533919 -0.0005399252392343624 0.0
460 -0.001270585098774482 -0.0018454608213798204 -0.002131310113623756 -0.0006460440060400956 -0.0005386164109604594 0.0
461 -0.0012689414083352423 -0.0018418161395320973 -0.002128784391666353 -0.000644714293232535 -0.0005376531386014307 0.0
462 -0.0012678759913707927 -0.0018389902192083108 -0.0021271084208556133 -0.0006436881449956763 -0.0005369340348257387 0.0
463 -0.001267218369588405 -0.0018367518968952137 -0.0021260402374419763 -0.0006428788489531728 -0.0005363867636786414 0.0
464 -0.0012668474170913803 -0.0018349362197593213 -0.0021254069514817266 -0.0006422246074370902 -0.0005359599676248017 0.0
465 -0.0012666774042984232 -0.0018334258362384288 -0.0021250855238352313 -0.0006416815000457511 -0.0005356173214479513 0.0
466 -0.0012666478486253211 -0.0018321374129861468 -0.0021249886368105244 -0.0006412183656357624 -0.0005353332130540264 0.0
467 -0.0012667162038432723 -0.0018310118285751126 -0.002125054443456026 -0.0006408131162450013 -0.0005350896354258598 0.0
468 -0.001266852628677689 -0.001830007146200836 -0.0021252391959145985 -0.0006404500998336839 -0.0005348739645491811 0.0
469 -0.0012670362604029594 -0.0018290936033528377 -0.002125511975987385 -0.0006401182219674376 -0.0005346773779206687 0.0
470 -0.0012672525690578386 -0.0018282500519797903 -0.0021258509440020014 -0.0006398096122097468 -0.0005344937325649046 0.0
471 -0.0012674914832979127 -0.0018274614352729603 -0.0021262406761974424 -0.0006395186792883514 -0.0005343187708830133 0.0
472 -0.0012677460651420982 -0.0018267170021176765 -0.002126670278564612 -0.0006392414426776537 -0.0005341495595070884 0.0
473 -0.0012680115741200858 -0.0018260090449298372 -0.0021271320526162186 -0.0006389750601917086 -0.0005339840933244601 0.0
474 -0.0012682848071459173 -0.0018253320080864716 -0.002127620552537361 -0.0006387174943175522 -0.0005338210163650537 0.0
475 -0.0012685636333588256 -0.0018246818583970777 -0.0021281319194018503 -0.000638467276628633 -0.0005336594252609216 0.0
476 -0.0012688466666859479 -0.0018240556406836314 -0.0021286634112972895 -0.0006382233414751611 -0.0005334987309902025 0.0
477 -0.0012691330356128846 -0.0018234511640406025 -0.0021292130718591155 -0.0006379849085789866 -0.0005333385617296498 0.0
478 -0.001269422221521545 -0.001822866780313067 -0.0021297794965327342 -0.0006377514001391321 -0.000533178694682789 0.0
479 -0.0012697139453646488 -0.0018223012276356407 -0.002130361667810279 -0.0006375223822854618 -0.0005330190083198546 0.0
480 -0.001270008088395418 -0.0018217535198677497 -0.002130958839133124 -0.0006372975237090923 -0.0005328594489884892 0.0
481 -0.0012703046368752215 -0.0018212228684058845 -0.0021315704531225076 -0.0006370765664104873 -0.0005327000076357139 0.0
482 -0.0012706036436512915 -0.0018207086268380833 -0.0021321960840197125 -0.0006368593049971019 -0.0005325407036389853 0.0
483 -0.0012709052015926893 -0.0018202102517169499 -0.002132835397196571 -0.0006366455720142707 -0.0005323815736310259 0.0
484 -0.0012712094253518199 -0.0018197272747100272 -0.0021334881206998843 -0.0006364352275348661 -0.0005322226638284819 0.0
485 -0.0012715164389624682 -0.0018192592827845648 -0.0021341540252777028 -0.0006362281517564793 -0.0005320640248153967 0.0
486 -0.0012718263675210414 -0.001818805904068948 -0.0021348329103818967 -0.0006360242397235764 -0.0005319057080430888 0.0
487 -0.0012721393317170853 -0.001818366797728387 -0.0021355245943806586 -0.000635823397552317 -0.0005317477635271244 0.0
488 -0.0012724554443447882 -0.0018179416466819196 -0.0021362289077350555 -0.000635625539718922 -0.0005315902383762085 0.0
489 -0.0012727748081853218 -0.0018175301523333928 -0.0021369456882615392 -0.000635430587101838 -0.0005314331758965625 0.0
490 -0.0012730975148315816 -0.0018171320307324265 -0.0021376747778613582 -0.0006352384655590441 -0.000531276615091833 0.0
491 -0.0012734236441549142 -0.001816747009752949 -0.002138416020280462 -0.0006350491048860774 -0.0005311205904324335 0.0
492 -0.0012737532642037527 -0.0018163748269981537 -0.002139169259592664 -0.0006348624380457551 -0.0005309651318061855 0.0
493 -0.001274086431387384 -0.0018160152282257606 -0.00213993433918933 -0.0006346784005924103 -0.0005308102645887134 0.0
494 -0.0012744231908429018 -0.0018156679661479583 -0.0021407111011232634 -0.0006344969302361054 -0.0005306560097908624 0.0
495 -0.001274763576914633 -0.001815332799502624 -0.00214149938569935 -0.0006343179665081025 -0.0005305023842535163 0.0
496 -0.0012751076136974953 -0.0018150094923225642 -0.002142299031236551 -0.000634141450500155 -0.0005303494008694705 0.0
497 -0.0012754553156111284 -0.0018146978133506005 -0.002143109873948207 -0.0006339673246580834 -0.0005301970688184738 0.0
498 -0.0012758066879824026 -0.0018143975355631964 -0.002143931747903317 -0.0006337955326156661 -0.0005300453938060557 0.0
499 -0.0012761617276216234 -0.0018141084357760936 -0.002144764485042838 -0.00063362601905891 -0.0005298943782999708 0.0
500 -0.0012765204233827602 -0.0018138302943126081 -0.002145607915232559 -0.0006334587296134607 -0.0005297440217602107 0.0
501 -0.0012768827567019166 -0.0018135628947208249 -0.002146461866339963 -0.0006332936107499995 -0.0005295943208601341 0.0
502 -0.0012772487021105586 -0.0018133060235294648 -0.0021473261643260894 -0.0006331306097038032 -0.0005294452696972522 0.0
503 -0.0012776182277218593 -0.0018130594700350086 -0.002148200633346331 -0.0006329696744056941 -0.0005292968599929515 0.0
504 -0.001277991295689539 -0.001812823026114403 -0.0021490850958558014 -0.0006328107534222629 -0.000529149081280889 0.0
505 -0.0012783678626395454 -0.0018125964860593196 -0.0021499793727165852 -0.0006326537959038542 -0.000529001921084175 0.0
506 -0.0012787478800751887 -0.0018123796464286036 -0.002150883283304744 -0.0006324987515390695 -0.0005288553650815905 0.0
507 -0.0012791312947567914 -0.0018121723059164314 -0.0021517966456158426 -0.0006323455705148607 -0.0005287093972632594 0.0
508 -0.0012795180490570753 -0.0018119742652342374 -0.002152719276368193 -0.0006321942034814918 -0.000528564000076281 0.0
509 -0.0012799080812935634 -0.0018117853270047334 -0.0021536509911032507 -0.0006320446015217537 -0.0005284191545608288 0.0
510 -0.0012803013260393173 -0.001811605295666721 -0.0021545916042828694 -0.0006318967161239463 -0.0005282748404772671 0.0
511 -0.0012806977144133396 -0.0018114339773895654 -0.0021555409293832622 -0.0006317504991582123 -0.0005281310364248218 0.0
512 -0.0012810971743519237 -0.0018112711799963834 -0.0021564987789856236 -0.0006316059028558786 -0.0005279877199523317 0.0
513 -0.00128149963086219 -0.0018111167128951214 -0.002157464964863419 -0.0006314628797914976 -0.0005278448676615901 0.0
514 -0.0012819050062589858 -0.0018109703870168039 -0.0021584392980664203 -0.0006313213828673292 -0.0005277024553037572 0.0
515 -0.0012823132203862607 -0.0018108320147602907 -0.0021594215890015523 -0.0006311813653000218 -0.0005275604578693001 0.0
516 -0.0012827241908239717 -0.001810701409942991 -0.0021604116475106767 -0.0006310427806092906 -0.0005274188496718971 0.0
517 -0.00128313783308149 -0.00181057838775699 -0.002161409282945409 -0.0006309055826083995 -0.0005272776044267008 0.0
518 -0.0012835540607784442 -0.001810462764730134 -0.0021624143042391 -0.0006307697253962792 -0.0005271366953233518 0.0
519 -0.0012839727858138636 -0.0018103543586916572 -0.002163426519976119 -0.0006306351633511323 -0.0005269960950940913 0.0
520 -0.0012843939185243995 -0.0018102529887419208 -0.0021644457384585075 -0.0006305018511253732 -0.0005268557760772994 0.0
521 -0.0012848173678324045 -0.0018101584752259494 -0.0021654717677701764 -0.0006303697436417897 -0.0005267157102767804 0.0
522 -0.0012852430413845385 -0.0018100706397104081 -0.0021665044158387247 -0.000630238796090795 -0.0005265758694170686 0.0
523 -0.0012856708456815632 -0.0018099893049637196 -0.002167543490494979 -0.0006301089639286709 -0.0005264362249950309 0.0
524 -0.0012861006861999077 -0.0018099142949390382 -0.002168588799530364 -0.000629980202876694 -0.0005262967483280084 0.0
525 -0.0012865324675056162 -0.0018098454347598764 -0.002169640150752253 -0.0006298524689210779 -0.0005261574105987471 0.0
526 -0.0012869660933611108 -0.0018097825507080384 -0.0021706973520372623 -0.0006297257183136074 -0.0005260181828972998 0.0
527 -0.0012874014668253547 -0.0018097254702137832 -0.0021717602113827416 -0.0006295999075729384 -0.0005258790362601429 0.0
528 -0.0012878384903477552 -0.0018096740218478521 -0.00217282853695636 -0.0006294749934864358 -0.0005257399417066465 0.0
529 -0.0012882770658563505 -0.0018096280353153728 -0.002173902137144075 -0.0006293509331125527 -0.0005256008702731269 0.0
530 -0.0012887170948405163 -0.0018095873414512356 -0.002174980820596307 -0.0006292276837836102 -0.0005254617930445791 0.0
531 -0.0012891584784287286 -0.0018095517722170403 -0.002176064396272675 -0.0006291052031090163 -0.0005253226811843117 0.0
532 -0.0012896011174615414 -0.0018095211606992288 -0.0021771526734850792 -0.0006289834489787826 -0.0005251835059615526 0.0
533 -0.0012900449125602103 -0.001809495341108422 -0.0021782454619393805 -0.0006288623795673548 -0.0005250442387772054 0.0
534 -0.0012904897641912382 -0.0018094741487798278 -0.0021793425717757096 -0.0006287419533377052 -0.0005249048511878681 0.0
535 -0.0012909355727270203 -0.0018094574201744829 -0.0021804438136073297 -0.0006286221290456081 -0.0005247653149281976 0.0
536 -0.0012913822385029836 -0.0018094449928814083 -0.0021815489985583083 -0.0006285028657441259 -0.0005246256019317722 0.0
537 -0.0012918296618713103 -0.001809436705620413 -0.002182657938299863 -0.0006283841227882165 -0.0005244856843505045 0.0
538 -0.0012922777432515708 -0.0018094323982455777 -0.002183770445085554 -0.0006282658598394714 -0.0005243455345727294 0.0
539 -0.0012927263831783902 -0.0018094319117492475 -0.002184886331785282 -0.0006281480368709288 -0.0005242051252400268 0.0
540 -0.0012931754823463945 -0.0018094350882665454 -0.0021860054119182066 -0.0006280306141719657 -0.0005240644292628799 0.0
541 -0.0012936249416525517 -0.0018094417710802424 -0.0021871274996845443 -0.0006279135523532143 -0.0005239234198352166 0.0
542 -0.0012940746622361315 -0.00180945180462601 -0.0021882524099963697 -0.0006277968123515112 -0.0005237820704479328 0.0
543 -0.0012945245455163736 -0.001809465034497931 -0.0021893799585073737 -0.0006276803554348389 -0.0005236403549014303 0.0
544 -0.0012949744932280432 -0.001809481307454241 -0.0021905099616416623 -0.0006275641432072536 -0.0005234982473172487 0.0
545 -0.0012954244074549971 -0.0018095004714232628 -0.0021916422366216174 -0.0006274481376137824 -0.0005233557221488427 0.0
546 -0.0012958741906618746 -0.0018095223755094738 -0.00219277660149485 -0.0006273323009452756 -0.0005232127541915516 0.0
547 -0.0012963237457240054 -0.0018095468699996379 -0.0021939128751602304 -0.0006272165958431883 -0.0005230693185918048 0.0
548 -0.0012967729759557093 -0.0018095738063690528 -0.002195050877393133 -0.0006271009853043125 -0.0005229253908556293 0.0
549 -0.0012972217851369644 -0.001809603037287729 -0.002196190428869741 -0.000626985432685398 -0.0005227809468564614 0.0
550 -0.0012976700775386798 -0.0018096344166266495 -0.0021973313511906532 -0.0006268699017077113 -0.0005226359628423509 0.0
551 -0.0012981177579465444 -0.0018096677994639356 -0.002198473466903638 -0.0006267543564614782 -0.0005224904154425533 0.0
552 -0.0012985647316835441 -0.0018097030420909225 -0.0021996165995255917 -0.0006266387614102098 -0.0005223442816735505 0.0
553 -0.001299010904631325 -0.0018097400020182343 -0.0022007605735638613 -0.0006265230813949468 -0.0005221975389445669 0.0
554 -0.0012994561832502987 -0.0018097785379816381 -0.002201905214536708 -0.0006264072816383428 -0.0005220501650625495 0.0
555 -0.0012999004745987029 -0.0018098185099478248 -0.002203050348993141 -0.0006262913277486447 -0.0005219021382366944 0.0
556 -0.0013003436863506096 -0.0018098597791200378 -0.002204195804532051 -0.0006261751857235416 -0.0005217534370825167 0.0
557 -0.0013007857268129322 -0.0018099022079435118 -0.002205341409820643 -0.0006260588219538683 -0.0005216040406254922 0.0
558 -0.0013012265049414987 -0.001809945660110731 -0.002206486994612215 -0.000625942203227174 -0.0005214539283042953 0.0
559 -0.0013016659303562296 -0.0018099900005664853 -0.002207632389763284 -0.0006258252967311426 -0.0005213030799736495 0.0
560 -0.0013021039133555084 -0.0018100350955127607 -0.0022087774272501297 -0.0006257080700568853 -0.0005211514759068307 0.0
561 -0.0013025403649296959 -0.001810080812413345 -0.0022099219401846425 -0.0006255904912020615 -0.0005209990967978022 0.0
562 -0.001302975196773906 -0.0018101270199982365 -0.002211065762829608 -0.0006254725285738611 -0.0005208459237630321 0.0
563 -0.0013034083213000615 -0.0018101735882678194 -0.0022122087306134038 -0.0006253541509918377 -0.0005206919383430008 0.0
564 -0.0013038396516482495 -0.0018102203884967924 -0.002213350680144103 -0.0006252353276905869 -0.0005205371225034079 0.0
565 -0.0013042691016973886 -0.0018102672932378055 -0.0022144914492229803 -0.0006251160283222586 -0.0005203814586360848 0.0
566 -0.0013046965860753171 -0.0018103141763249045 -0.002215630876857515 -0.0006249962229589361 -0.0005202249295596581 0.0
567 -0.0013051220201682238 -0.0018103609128766536 -0.002216768803273795 -0.0006248758820948407 -0.0005200675185199346 0.0
568 -0.0013055453201295223 -0.0018104073792990063 -0.002217905069928385 -0.0006247549766483869 -0.0005199092091900476 0.0
569 -0.0013059664028881922 -0.0018104534532879444 -0.0022190395195197214 -0.0006246334779640928 -0.0005197499856703754 0.0
570 -0.0013063851861565279 -0.0018104990138317542 -0.002220171995998874 -0.0006245113578143086 -0.0005195898324882121 0.0
571 -0.0013068015884374503 -0.0018105439412131235 -0.0022213023445799237 -0.0006243885884008211 -0.0005194287345972501 0.0
572 -0.0013072155290312726 -0.001810588117010885 -0.002222430411749735 -0.0006242651423562794 -0.0005192666773768329 0.0
573 -0.0013076269280420238 -0.0018106314241015224 -0.0022235560452772934 -0.00062414099274548 -0.0005191036466310251 0.0
574 -0.0013080357063833077 -0.0018106737466603768 -0.0022246790942225293 -0.0006240161130664943 -0.0005189396285874836 0.0
575 -0.0013084417857837124 -0.0018107149701625472 -0.00222579940894464 -0.0006238904772516354 -0.0005187746098961443 0.0
576 -0.0013088450887918481 -0.0018107549813835863 -0.0022269168411100247 -0.0006237640596682996 -0.000518608577627753 0.0
577 -0.0013092455387809089 -0.0018107936683998144 -0.0022280312436996426 -0.0006236368351196243 -0.000518441519272199 0.0
578 -0.0013096430599528887 -0.001810830920588413 -0.0022291424710159866 -0.0006235087788450193 -0.0005182734227367084 0.0
579 -0.001310037577342414 -0.0018108666286272364 -0.002230250378689596 -0.0006233798665205485 -0.0005181042763438777 0.0
580 -0.0013104290168201944 -0.0018109006844943165 -0.002231354823685111 -0.000623250074259159 -0.0005179340688295538 0.0
581 -0.001310817305096128 -0.0018109329814671071 -0.0022324556643068907 -0.0006231193786107696 -0.0005177627893405716 0.0
582 -0.001311202369722063 -0.0018109634141214516 -0.0022335527602042183 -0.000622987756562218 -0.0005175904274323564 0.0
583 -0.0013115841390942398 -0.0018109918783302855 -0.002234645972376086 -0.0006228551855370717 -0.0005174169730663947 0.0
584 -0.0013119625424553609 -0.0018110182712620145 -0.002235735163175499 -0.0006227216433952788 -0.0005172424166075605 0.0
585 -0.0013123375098964395 -0.0018110424913787282 -0.0022368201963135033 -0.0006225871084327215 -0.0005170667488213507 0.0
586 -0.001312708972358236 -0.0018110644384340172 -0.0022379009368626427 -0.0006224515593805872 -0.0005168899608709616 0.0
587 -0.0013130768616324985 -0.0018110840134706434 -0.002238977251260171 -0.0006223149754046477 -0.0005167120443142866 0.0
588 -0.0013134411103628428 -0.001811101118817865 -0.002240049007310758 -0.0006221773361043784 -0.0005165329911007771 0.0
589 -0.001313801652045418 -0.0018111156580885672 -0.0022411160741889024 -0.0006220386215119716 -0.000516352793568219 0.0
590 -0.0013141584210292331 -0.001811127536176069 -0.00224217832244087 -0.0006218988120911956 -0.0005161714444393829 0.0
591 -0.0013145113525162948 -0.0018111366592507613 -0.0022432356239863605 -0.0006217578887361616 -0.0005159889368186002 0.0
592 -0.0013148603825614282 -0.001811142934756418 -0.0022442878521197183 -0.0006216158327699375 -0.000515805264188224 0.0
593 -0.001315205448071897 -0.0018111462714063297 -0.0022453348815108503 -0.0006214726259430644 -0.0005156204204050135 0.0
594 -0.0013155464868067504 -0.001811146579179155 -0.00224637658820575 -0.0006213282504319432 -0.0005154343996964213 0.0
595 -0.0013158834373759496 -0.0018111437693145507 -0.0022474128496266814 -0.0006211826888371068 -0.0005152471966567984 0.0
596 -0.001316216239239273 -0.0018111377543085791 -0.0022484435445720356 -0.0006210359241813838 -0.0005150588062435223 0.0
597 -0.0013165448327049757 -0.0018111284479088645 -0.002249468553215821 -0.0006208879399079431 -0.000514869223773037 0.0
598 -0.0013168691589282662 -0.0018111157651095596 -0.0022504877571068596 -0.00062073871987824 -0.0005146784449168303 0.0
599 -0.0013171891599095282 -0.0018110996221460433 -0.0022515010391676083 -0.0006205882483698399 -0.0005144864656973239 0.0
600 -0.001317504778492409 -0.0018110799364894896 -0.00225250828369275 -0.000620436510074166 -0.0005142932824837175 0.0
601 -0.0013178159583616242 -0.0018110566268411165 -0.0022535093763473547 -0.0006202834900941097 -0.0005140988919877386 0.0
602 -0.0013181226440406283 -0.001811029613126313 -0.0022545042041648214 -0.0006201291739415674 -0.0005139032912593485 0.0
603 -0.0013184247808890822 -0.0018109988164885388 -0.0022554926555444963 -0.0006199735475348747 -0.0005137064776823826 0.0
604 -0.0013187223151001294 -0.0018109641592830177 -0.0022564746202489794 -0.000619816597196139 -0.0005135084489701301 0.0
605 -0.001319015193697511 -0.0018109255650702626 -0.002257449989401172 -0.0006196583096484926 -0.0005133092031608651 0.0
606 -0.0013193033645324916 -0.0018108829586093939 -0.0022584186554810153 -0.000619498672013244 -0.0005131087386133159 0.0
607 -0.0013195867762806112 -0.0018108362658512628 -0.0022593805123219354 -0.0006193376718069415 -0.0005129070540020864 0.0
608 -0.0013198653784383093 -0.0018107854139314435 -0.0022603354551070844 -0.0006191752969383677 -0.0005127041483130405 0.0
609 -0.0013201391213193683 -0.0018107303311630282 -0.002261283380365266 -0.0006190115357054403 -0.0005125000208386314 0.0
610 -0.0013204079560511929 -0.0018106709470292336 -0.0022622241859665956 -0.0006188463767920289 -0.000512294671173189 0.0
611 -0.0013206718345709534 -0.0018106071921758712 -0.0022631577711179286 -0.000618679809264702 -0.0005120880992081677 0.0
612 -0.0013209307096216044 -0.0018105389984036705 -0.0022640840363580585 -0.0006185118225694024 -0.0005118803051273657 0.0
613 -0.0013211845347477298 -0.0018104662986604197 -0.0022650028835526376 -0.0006183424065280404 -0.0005116712894020958 0.0
614 -0.001321433264291262 -0.0018103890270329622 -0.002265914215888868 -0.0006181715513350177 -0.0005114610527863276 0.0
615 -0.0013216768533870777 -0.0018103071187390565 -0.0022668179378699687 -0.000617999247553687 -0.0005112495963118003 0.0
616 -0.0013219152579584947 -0.0018102205101191444 -0.002267713955309479 -0.0006178254861127594 -0.0005110369212831173 0.0
617 -0.0013221484347125927 -0.001810129138627908 -0.002268602175325246 -0.0006176502583026245 -0.000510823029272797 0.0
618 -0.0013223763411354388 -0.0018100329428257262 -0.0022694825063332407 -0.0006174735557716182 -0.000510607922116304 0.0
619 -0.001322598935487218 -0.001809931862370039 -0.0022703548580412015 -0.0006172953705222432 -0.0005103916019070701 0.0
620 -0.0013228161767972378 -0.0018098258380065658 -0.002271219141442045 -0.0006171156949073248 -0.0005101740709914847 0.0
621 -0.0013230280248588415 -0.0018097148115604283 -0.0022720752688071126 -0.0006169345216261171 -0.0005099553319638763 0.0
622 -0.0013232344402241804 -0.0018095987259271226 -0.0022729231536791654 -0.0006167518437203459 -0.0005097353876614636 0.0
623 -0.0013234353841989504 -0.0018094775250634507 -0.0022737627108652876 -0.0006165676545702234 -0.0005095142411593137 0.0
624 -0.0013236308188369866 -0.001809351153978307 -0.0022745938564295524 -0.0006163819478903997 -0.0005092918957652742 0.0
625 -0.0013238207069347938 -0.0018092195587233887 -0.0022754165076855405 -0.0006161947177258775 -0.0005090683550149023 0.0
626 -0.0013240050120259946 -0.001809082686383837 -0.0022762305831887145 -0.00061600595844789 -0.0005088436226663906 0.0
627 -0.0013241836983756547 -0.0018089404850687215 -0.002277036002728559 -0.0006158156647497155 -0.0005086177026954701 0.0
628 -0.0013243567309746108 -0.0018087929039015608 -0.002277832687320702 -0.0006156238316424926 -0.0005083905992903404 0.0
629 -0.0013245240755336402 -0.001808639893010664 -0.0022786205591987566 -0.000615430454450966 -0.0005081623168465685 0.0
630 -0.0013246856984776199 -0.0018084814035194598 -0.00227939954180611 -0.0006152355288092173 -0.0005079328599620068 0.0
631 -0.0013248415669396005 -0.001808317387536756 -0.0022801695597875564 -0.0006150390506563638 -0.0005077022334317107 0.0
632 -0.0013249916487547983 -0.0018081477981469023 -0.002280930538980768 -0.0006148410162322167 -0.00050747044224285 0.0
633 -0.001325135912454575 -0.0018079725893999624 -0.002281682406407713 -0.0006146414220729332 -0.0005072374915696456 0.0
634 -0.0013252743272603165 -0.0018077917163017653 -0.0022824250902658883 -0.0006144402650066233 -0.0005070033867682959 0.0
635 -0.0013254068630772877 -0.001807605134803964 -0.002283158519919483 -0.0006142375421489487 -0.0005067681333719246 0.0
636 -0.0013255334904884234 -0.001807412801794014 -0.002283882625890413 -0.000614033250898692 -0.0005065317370855324 0.0
637 -0.0013256541807480985 -0.0018072146750851528 -0.0022845973398492895 -0.000613827388933317 -0.0005062942037809717 0.0
638 -0.0013257689057758356 -0.0018070107134063216 -0.0022853025946062665 -0.000613619954204509 -0.0005060555394919284 0.0
639 -0.001325877638149963 -0.0018068008763920324 -0.0022859983241017667 -0.0006134109449336862 -0.0005058157504089152 0.0
640 -0.0013259803511013006 -0.0018065851245723029 -0.002286684463397241 -0.0006132003596075349 -0.0005055748428743065 0.0
641 -0.0013260770185067362 -0.0018063634193624578 -0.0022873609486657063 -0.000612988196973494 -0.0005053328233773634 0.0
642 -0.0013261676148828216 -0.0018061357230529866 -0.002288027717182302 -0.0006127744560352544 -0.0005050896985492995 0.0
643 -0.0013262521153793296 -0.001805901998799363 -0.0022886847073147493 -0.0006125591360482447 -0.0005048454751583614 0.0
644 -0.0013263304957728172 -0.0018056622106118918 -0.0022893318585137856 -0.0006123422365151216 -0.000504600160104946 0.0
645 -0.0013264027324601134 -0.0018054163233454867 -0.002289969111303464 -0.000612123757181239 -0.0005043537604167228 0.0
646 -0.0013264688024518453 -0.0018051643026895058 -0.002290596407271478 -0.0006119036980301301 -0.0005041062832438004 0.0
647 -0.0013265286833659413 -0.0018049061151575842 -0.0022912136890594235 -0.0006116820592789928 -0.0005038577358539223 0.0
648 -0.0013265823534211014 -0.0018046417280774447 -0.002291820900352981 -0.0006114588413741628 -0.0005036081256276802 0.0
649 -0.0013266297914302828 -0.0018043711095807444 -0.0022924179858720985 -0.000611234044986601 -0.0005033574600537687 0.0
650 -0.0013266709767941743 -0.001804094228592926 -0.00229300489136113 -0.0006110076710073851 -0.0005031057467242713 0.0
651 -0.0013267058894946946 -0.0018038110548231228 -0.002293581563578974 -0.0006107797205432135 -0.0005028529933299868 0.0
652 -0.0013267345100884344 -0.0018035215587540096 -0.0022941479502891163 -0.0006105501949118996 -0.0005025992076557714 0.0
653 -0.0013267568197001787 -0.0018032257116317786 -0.002294704000249762 -0.0006103190956379042 -0.0005023443975759456 0.0
654 -0.0013267728000163682 -0.0018029234854560516 -0.002295249663203845 -0.0006100864244478514 -0.0005020885710497134 0.0
655 -0.0013267824332786227 -0.0018026148529698984 -0.0022957848898691215 -0.0006098521832660813 -0.0005018317361166395 0.0
656 -0.0013267857022772583 -0.0018022997876498616 -0.0022963096319282158 -0.000609616374210208 -0.0005015739008921605 0.0
657 -0.0013267825903447935 -0.0018019782636959918 -0.0022968238420186366 -0.0006093789995866835 -0.0005013150735631276 0.0
658 -0.0013267730813495261 -0.0018016502560219867 -0.002297327473722873 -0.0006091400618864005 -0.0005010552623834115 0.0
659 -0.00132675715968909 -0.0018013157402453326 -0.0022978204815584445 -0.0006088995637802999 -0.000500794475669536 0.0
660 -0.0013267348102840384 -0.001800974692677495 -0.002298302820967958 -0.000608657508114997 -0.0005005327217963587 0.0
661 -0.0013267060185714757 -0.0018006270903141914 -0.0022987744483092365 -0.000608413897908443 -0.0005002700091928049 0.0
662 -0.0013266707704986831 -0.0018002729108256795 -0.0022992353208453995 -0.0006081687363455924 -0.0005000063463376368 0.0
663 -0.0013266290525168133 -0.0017999121325471472 -0.00229968539673504 -0.0006079220267741129 -0.0004997417417552846 0.0
664 -0.001326580851574569 -0.0017995447344691102 -0.0023001246350223582 -0.0006076737727001011 -0.0004994762040117094 0.0
665 -0.0013265261551119454 -0.0017991706962279068 -0.0023005529956273683 -0.000607423977783837 -0.0004992097417103263 0.0
666 -0.0013264649510540093 -0.0017987899980962615 -0.002300970439336152 -0.0006071726458355678 -0.0004989423634879786 0.0
667 -0.0013263972278047072 -0.0017984026209739016 -0.0023013769277911264 -0.0006069197808113145 -0.0004986740780109596 0.0
668 -0.0013263229742406907 -0.0017980085463782242 -0.002301772423481338 -0.0006066653868087031 -0.0004984048939710785 0.0
669 -0.001326242179705229 -0.0017976077564350866 -0.00230215688973286 -0.0006064094680628429 -0.0004981348200817962 0.0
670 -0.0013261548340021188 -0.001797200233869619 -0.0023025302906991784 -0.0006061520289422197 -0.0004978638650743979 0.0
671 -0.0013260609273896707 -0.001796785961997151 -0.0023028925913516733 -0.0006058930739446338 -0.000497592037694231 0.0
672 -0.0013259604505747162 -0.0017963649247141906 -0.0023032437574701287 -0.0006056326076931635 -0.0004973193466969886 0.0
673 -0.0013258533947066741 -0.00179593710648949 -0.0023035837556333017 -0.0006053706349321652 -0.0004970458008450535 0.0
674 -0.0013257397513716871 -0.0017955024923552321 -0.0023039125532096087 -0.0006051071605233207 -0.0004967714089039038 0.0
675 -0.0013256195125867364 -0.0017950610678982004 -0.0023042301183477435 -0.0006048421894416895 -0.0004964961796385516 0.0
676 -0.0013254926707939045 -0.0017946128192511631 -0.0023045364199675233 -0.0006045757267718386 -0.0004962201218100707 0.0
677 -0.0013253592188546238 -0.001794157733084258 -0.0023048314277506993 -0.0006043077777039816 -0.000495943244172159 0.0
678 -0.0013252191500439884 -0.0017936957965964753 -0.0023051151121318493 -0.0006040383475301608 -0.0004956655554677622 0.0
679 -0.001325072458045141 -0.0017932269975072645 -0.0023053874442893808 -0.000603767441640478 -0.0004953870644257623 0.0
680 -0.0013249191369437154 -0.0017927513240482231 -0.0023056483961366044 -0.0006034950655193626 -0.0004951077797577234 0.0
681 -0.0013247591812222891 -0.0017922687649548235 -0.002305897940312814 -0.0006032212247418608 -0.000494827710154683 0.0
682 -0.001324592585754979 -0.0017917793094583431 -0.0023061360501745844 -0.0006029459249700039 -0.0004945468642840285 0.0
683 -0.001324419345802006 -0.0017912829472777688 -0.0023063626997870007 -0.000602669171949176 -0.0004942652507864043 0.0
684 -0.0013242394570043903 -0.0017907796686118982 -0.0023065778639150937 -0.0006023909715045584 -0.0004939828782727031 0.0
685 -0.001324052915378667 -0.0017902694641314765 -0.0023067815180152895 -0.0006021113295375945 -0.0004936997553211015 0.0
686 -0.0013238597173116772 -0.0017897523249714557 -0.0023069736382269695 -0.0006018302520225077 -0.0004934158904741627 0.0
687 -0.0013236598595554208 -0.0017892282427233548 -0.0023071542013641307 -0.0006015477450028605 -0.0004931312922359985 0.0
688 -0.001323453339221972 -0.00178869720942771 -0.0023073231849071174 -0.0006012638145881573 -0.000492845969069492 0.0
689 -0.0013232401537784468 -0.0017881592175666213 -0.0023074805669944425 -0.0006009784669504876 -0.0004925599293935774 0.0
690 -0.00132302030104208 -0.001787614260056452 -0.002307626326414766 -0.0006006917083212312 -0.0004922731815805952 0.0
691 -0.0013227937791753022 -0.001787062330240554 -0.0023077604425988728 -0.0006004035449877835 -0.0004919857339536872 0.0
692 -0.0013225605866809093 -0.001786503421882124 -0.0023078828956117855 -0.0006001139832903348 -0.0004916975947842625 0.0
693 -0.0013223207223973397 -0.001785937529157218 -0.0023079936661450384 -0.0005998230296187148 -0.0004914087722895363 0.0
694 -0.0013220741854939452 -0.001785364646647788 -0.0023080927355089505 -0.0005995306904092526 -0.0004911192746301094 0.0
695 -0.0013218209754663759 -0.0017847847693348642 -0.002308180085625051 -0.0005992369721417003 -0.0004908291099076196 0.0
696 -0.0013215610921320311 -0.001784197892591859 -0.0023082556990186246 -0.0005989418813362055 -0.0004905382861624594 0.0
697 -0.0013212945356255465 -0.0017836040121779256 -0.0023083195588113 -0.0005986454245503154 -0.0004902468113715405 0.0
698 -0.0013210213063943933 -0.001783003124231482 -0.0023083716487138145 -0.0005983476083760467 -0.0004899546934461359 0.0
699 -0.001320741405194492 -0.001782395225263775 -0.0023084119530187926 -0.0005980484394369801 -0.0004896619402297641 0.0
700 -0.001320454833085956 -0.0017817803121526286 -0.0023084404565937395 -0.0005977479243854287 -0.000489368559496157 0.0
701 -0.0013201615914288423 -0.0017811583821362152 -0.0023084571448740328 -0.000597446069899627 -0.0004890745589472662 0.0
702 -0.0013198616818790086 -0.0017805294328069898 -0.0023084620038560776 -0.000597142882680982 -0.0004887799462113428 0.0
703 -0.0013195551063840294 -0.001779893462105709 -0.002308455020090567 -0.0005968383694513696 -0.0004884847288410748 0.0
704 -0.0013192418671791736 -0.0017792504683155602 -0.0023084361806758264 -0.0005965325369504763 -0.00048818891431178424 0.0
705 -0.0013189219667834604 -0.0017786004500563925 -0.0023084054732512823 -0.0005962253919331879 -0.0004878925100196844 0.0
706 -0.0013185954079957707 -0.0017779434062790544 -0.0023083628859910266 -0.0005959169411670262 -0.00048759552328019533 0.0
707 -0.0013182621938910414 -0.0017772793362598439 -0.0023083084075975024 -0.0005956071914296347 -0.0004872979613263222 0.0
708 -0.0013179223278165068 -0.0017766082395950433 -0.002308242027295267 -0.0005952961495063053 -0.00048699983130708687 0.0
709 -0.0013175758133880263 -0.0017759301161955775 -0.002308163734824894 -0.0005949838221875584 -0.0004867011402860242 0.0
710 -0.001317222654486471 -0.001775244966281772 -0.0023080735204369716 -0.0005946702162667679 -0.0004864018952397351 0.0
711 -0.0013168628552541793 -0.0017745527903782169 -0.002307971374886209 -0.000594355338537835 -0.00048610210305649615 0.0
712 -0.0013164964200914654 -0.0017738535893087046 -0.0023078572894256197 -0.0005940391957928977 -0.0004858017705349251 0.0
713 -0.0013161233536532124 -0.0017731473641913137 -0.0023077312558008583 -0.0005937217948201027 -0.00048550090438270857 0.0
714 -0.00131574366084554 -0.001772434116433587 -0.0023075932662446636 -0.0005934031424014199 -0.00048519951121538997 0.0
715 -0.0013153573468224873 -0.0017717138477277628 -0.0023074433134713307 -0.0005930832453104883 -0.00048489759755519784 0.0
716 -0.0013149644169828307 -0.001770986560046182 -0.00230728139067141 -0.0005927621103105323 -0.0004845951698299526 0.0
717 -0.0013145648769669104 -0.0017702522556367322 -0.002307107491506403 -0.0005924397441523032 -0.00048429223437201164 0.0
718 -0.0013141587326535398 -0.0017695109370184162 -0.0023069216101036147 -0.0005921161535720743 -0.0004839887974172757 0.0
719 -0.0013137459901569862 -0.0017687626069770278 -0.00230672374105111 -0.0005917913452896847 -0.00048368486510425224 0.0
720 -0.0013133266558240117 -0.001768007268560915 -0.0023065138793927718 -0.0005914653260066258 -0.00048338044347317354 0.0
721 -0.001312900736230962 -0.0017672449250768336 -0.002306292020623439 -0.0005911381024041673 -0.0004830755384651618 0.0
722 -0.0013124682381809353 -0.0017664755800859086 -0.002306058160684179 -0.0005908096811415369 -0.0004827701559214561 0.0
723 -0.0013120291687009932 -0.001765699237399677 -0.0023058122959576273 -0.0005904800688541345 -0.00048246430158268433 0.0
724 -0.0013115835350394661 -0.0017649159010762628 -0.002305554423263492 -0.0005901492721518073 -0.0004821579810881988 0.0
725 -0.0013111313446632735 -0.0017641255754165842 -0.002305284539854065 -0.0005898172976171449 -0.00048185119997545 0.0
726 -0.0013106726052553466 -0.0017633282649607155 -0.0023050026434099286 -0.0005894841518038416 -0.00048154396367942437 0.0
727 -0.0013102073247120655 -0.0017625239744842847 -0.002304708732035675 -0.0005891498412350811 -0.0004812362775321185 0.0
728 -0.0013097355111408018 -0.001761712708995014 -0.002304402804255798 -0.000588814372401983 -0.0004809281467620805 0.0
729 -0.0013092571728574843 -0.0017608944737293156 -0.002304084859010634 -0.0005884777517620786 -0.00048061957649398834 0.0
730 -0.0013087723183842436 -0.001760069274148997 -0.0023037548956524358 -0.0005881399857378389 -0.00048031057174828464 0.0
731 -0.001308280956447087 -0.0017592371159380266 -0.002303412913941488 -0.0005878010807152315 -0.00048000113744085197 0.0
732 -0.001307783095973666 -0.0017583980049994332 -0.0023030589140423958 -0.0005874610430423382 -0.00047969127838274847 0.0
733 -0.0013072787460910397 -0.0017575519474522174 -0.00230269289652036 -0.000587119879027987 -0.00047938099927997133 0.0
734 -0.001306767916123571 -0.001756698949628442 -0.0023023148623376698 -0.0005867775949404577 -0.0004790703047332914 0.0
735 -0.001306250615590811 -0.0017558390180703305 -0.002301924812850196 -0.000586434197006202 -0.0004787591992381159 0.0
736 -0.0013057268542054634 -0.0017549721595274802 -0.002301522749804006 -0.0005860896914086156 -0.00047844768718440216 0.0
737 -0.000645324390673929 -0.0008672735069624087 -0.001137730136704929 -0.0002896076592269633 -0.00023640321035127713 0.0
738 -0.0006511655437842603 -0.0008749670195715616 -0.0011473359651626833 -0.00029214189948426164 -0.00023832388126425068 0.0
739 -0.0006550101613531911 -0.000880083394847117 -0.0011536881588781714 -0.00029379318305689623 -0.00023953371839528561 0.0
740 -0.0006575340997823581 -0.0008834929019930734 -0.00115789302357842 -0.00029485969107837965 -0.00024027531007591815 0.0
741 -0.0006591825323602461 -0.0008857674453454491 -0.001160675123357191 -0.00029553763723141955 -0.00024070802058647766 0.0
742 -0.0006602515206156815 -0.0008872869797281753 -0.0011625145570489997 -0.00029595747330321044 -0.00024093758951489706 0.0
743 -0.0006609391101814042 -0.0008883056827781604 -0.001163731782631141 -0.000296206490765664 -0.00024103459642948325 0.0
744 -0.0006613781711416632 -0.0008889942582636745 -0.0011645415785218943 -0.00029634331007232585 -0.00024104628971869304 0.0
745 -0.0013347972818364166 -0.0017943696321476043 -0.0023503935294182455 -0.0005979581365785239 -0.0004861906729824289 0.0
746 -0.0013264405763842918 -0.0017834812269048388 -0.002337785642350699 -0.0005941635721381772 -0.00048320118171200145 0.0
747 -0.0013205548608171101 -0.001775679065740229 -0.0023289426967486437 -0.0005914440325320847 -0.00048107176645786345 0.0
748 -0.0013163770497915841 -0.001770021287211692 -0.0023227209641544953 -0.0005894702724249025 -0.0004795375461000646 0.0
749 -0.0013133689159564932 -0.001765839725353882 -0.002318304498266998 -0.0005880094659310064 -0.0004784113060045278 0.0
750 -0.00131115610125912 -0.001762667782534842 -0.0023151214541358885 -0.0005868993742593033 -0.00047756268200309945 0.0
751 -0.0013094806700205042 -0.0017601829912566366 -0.002312775728454442 -0.0005860280442423941 -0.0004769018075406935 0.0
752 -0.0013081660535012316 -0.0017581640289742648 -0.002310995091345118 -0.0005853187262429406 -0.000476367165101575 0.0
753 -0.0013070919389615058 -0.0017564596931995294 -0.0023095934411081227 -0.0005847190364265905 -0.00047591685545216386 0.0
754 -0.0013061766282922629 -0.0017549670040220332 -0.0023084440242117825 -0.000584193328759409 -0.0004755224517500155 0.0
755 -0.0013053647988973903 -0.001753615967876104 -0.0023074607373515616 -0.000583717397145829 -0.00047516473054543034 0.0
756 -0.001304619082425886 -0.0017523590745016776 -0.002306585207618112 -0.0005832748278694251 -0.0004748307323838796 0.0
757 -0.0013039143023503422 -0.0017511641012268424 -0.0023057779263346008 -0.0005828545027628141 -0.00047451174972710245 0.0
758 -0.001303233545649248 -0.0017500092034061102 -0.0023050121925994945 -0.0005824488966996659 -0.0004742019551123503 0.0
759 -0.0013025654917152446 -0.0017488795739655277 -0.0023042699889735856 -0.0005820529197530594 -0.0004738974683987358 0.0
760 -0.0013019025994187468 -0.001747765174833165 -0.0023035391788859792 -0.0005816631311778839 -0.00047359572380224963 0.0
761 -0.001301239878253085 -0.0017466591982755982 -0.0023028116050066846 -0.0005812772064672257 -0.00047329504099215465 0.0
762 -0.001300574056238073 -0.0017455570242021529 -0.0023020818003092157 -0.000580893576309402 -0.00047299433479870066 0.0
763 -0.0006418106543899755 -0.0008613028205734469 -0.0011362605031564276 -0.00028662004536617736 -0.000233386143172559 0.0
764 -0.0006476406966508633 -0.0008689546963512236 -0.001145865037943982 -0.0002891459421910914 -0.0002353163656774545 0.0
765 -0.0006514633637393465 -0.0008740207032105415 -0.0011521824350091225 -0.0002907904405269295 -0.00023653770633575076 0.0
766 -0.0006539600504060499 -0.0008773771688045739 -0.0011563338191579865 -0.00029185226334665145 -0.00023729263526931876 0.0
767 -0.0006555784658530675 -0.0008795984842428978 -0.001159051626873144 -0.00029252746572604497 -0.00023774006005209384 0.0
768 -0.0006566156667514034 -0.0008810653140354618 -0.0011608200225737616 -0.00029294607323254393 -0.0002379851860725229 0.0
769 -0.0006572699387068138 -0.0008820317171380281 -0.0011619614595930717 -0.00029319489229543306 -0.00023809809694778428 0.0
770 -0.000657674058322993 -0.0008826679498796303 -0.0011626916155565738 -0.0002933320949643477 -0.00023812562804665987 0.0
771 -0.0006579170159528981 -0.0008830883155222882 -0.0011631550075424022 -0.00029339672547861 -0.00023809910115493444 0.0
772 -0.0006580583879162658 -0.0008833695445218631 -0.0011634484356901028 -0.00029341498155842095 -0.00023803943165291282 0.0
773 -0.0013297343989768836 -0.0017851944407568537 -0.0023510688489435647 -0.0005928087567147558 -0.000480787219037625 0.0
774 -0.0013210457634889468 -0.0017738485128088442 -0.0023377718373455564 -0.0005889234794939076 -0.00047777178959937134 0.0
775 -0.001314898296056021 -0.001765678986697529 -0.002328372766769301 -0.0005861373949237834 -0.00047563190393250747 0.0
776 -0.0013105025984683925 -0.0017597118786941987 -0.002321681207894089 -0.0005841123026874832 -0.0004740962382324654 0.0
777 -0.0013073030002832232 -0.0017552575129729426 -0.0023168495016169933 -0.0005826094366261787 -0.0004729733566670451 0.0
778 -0.0013049139523934091 -0.0017518353638709594 -0.0023132849762875505 -0.0005814627689853856 -0.0004721302567174539 0.0
779 -0.0013030705284573993 -0.001749114165606292 -0.0023105781770129752 -0.0005805580030644835 -0.00047147549224788087 0.0
780 -0.0013015919018895031 -0.0017468671479319944 -0.002308448477562697 -0.0005798169790365125 -0.0004709466446624192 0.0
781 -0.0013003552384717898 -0.0017449397951469546 -0.002306704586630618 -0.0005791864881037678 -0.00047050133413223145 0.0
782 -0.0012992774005297968 -0.0017432271476634517 -0.0023052165995199286 -0.0005786304173186185 -0.00047011090594822603 0.0
783 -0.0012983022878331589 -0.0017416580514536314 -0.0023038965387010306 -0.0005781243076762067 -0.0004697560557537984 0.0
784 -0.0012973921515720647 -0.0017401843309725277 -0.0023026849463383967 -0.000577651617273378 -0.00046942382512323266 0.0
785 -0.0012965216675516129 -0.001738773392483906 -0.0023015417101215027 -0.0005772011702494835 -0.0004691055504486994 0.0
786 -0.0012956739072807336 -0.001737403191672383 -0.002300439814536715 -0.0005767654220047527 -0.0004687954682652969 0.0
787 -0.0006385019873329252 -0.0008560741523370389 -0.0011338461467835137 -0.0002842007179347609 -0.00023101866014791993 0.0
788 -0.00064428569570623 -0.000863648496209062 -0.0011433842776687943 -0.00028670970447893055 -0.00023294818378592872 0.0
789 -0.0006480621362603603 -0.000868640465792176 -0.0011496236777181462 -0.0002883416767899655 -0.0002341728043469659 0.0
790 -0.000650513956352176 -0.0008719273473666091 -0.0011536917926999403 -0.00028939458608921487 -0.00023493397305329703 0.0
791 -0.0006520889286461563 -0.0008740831443790923 -0.0011563239431293631 -0.0002900636350843571 -0.00023538967772804913 0.0
792 -0.0006530836724319924 -0.0008754876126181735 -0.0011580054024422372 -0.0002904780655778684 -0.0002356443589150537 0.0
793 -0.0006536958839508138 -0.0008763937903997997 -0.0011590588594079074 -0.0002907240237276127 -0.00023576749622340607 0.0
794 -0.0006540577672310279 -0.0008769709927202722 -0.0011596998411027187 -0.00029085915496814116 -0.0002358054666697235 0.0
795 -0.0006542578294786132 -0.0008773327372470158 -0.0011600725852372014 -0.00029092210049268117 -0.00023578925668149125 0.0
796 -0.000654355275567246 -0.0008775551418968477 -0.0011602736119043426 -0.00029093876057643687 -0.00023573954564458363 0.0
797 -0.0006543895999457452 -0.0008776891651080274 -0.0011603673770626054 -0.00029092646446501837 -0.00023567008826280516 0.0
798 -0.000654387017184216 -0.0008777688046040579 -0.0011603967433276847 -0.00029089676437661616 -0.00023558997936001875 0.0
799 -0.0013240088173722164 -0.0017761300023726853 -0.002347874821515435 -0.0005885060689307568 -0.00047650933412863726 0.0
800 -0.0013151170416279324 -0.001764500600753133 -0.002334122336582492 -0.0005845804940359197 -0.00047349582693360264 0.0
801 -0.0013087951949106896 -0.00175608607063192 -0.0023243316161674172 -0.0005817625103147624 -0.00047136177568000975 0.0
802 -0.0013042414345048557 -0.001749897016678588 -0.0023172877255435 -0.0005797101251826101 -0.00046983335436656746 0.0
803 -0.0013008922937320492 -0.0017452340073996504 -0.002312127064442074 -0.0005781822448566024 -0.0004687176539302463 0.0
804 -0.0012983575491368256 -0.0017416105945085684 -0.0023082469604590564 -0.0005770114973546009 -0.00046788088251139886 0.0
805 -0.0012963695947994926 -0.0017386920493420968 -0.002305231868541476 -0.0005760828592845488 -0.00046723122647787365 0.0
806 -0.0012947461523657162 -0.0017362496561470673 -0.002302797557642917 -0.0005753178122154066 -0.0004667061440052748 0.0
807 -0.001293363667203576 -0.001734127859258134 -0.0023007506696289294 -0.0005746629974861916 -0.00046626326405283257 0.0
808 -0.0012921387022853553 -0.0017322211822402827 -0.0022989601630833164 -0.0005740822639200261 -0.0004658740053870305 0.0
809 -0.0012910150905404792 -0.0017304582453665633 -0.002297337473592868 -0.0005735511691105477 -0.0004655191633584871 0.0
810 -0.0006350765307160693 -0.000851126084117867 -0.001130289870846811 -0.0002821281411183707 -0.0002290224127031162 0.0
811 -0.0006407900515694972 -0.0008585928163858613 -0.0011397131446583206 -0.00028461308172890025 -0.00023094524403230102 0.0
812 -0.0006445106171188205 -0.0008634976215628925 -0.0011458525850791988 -0.0002862300447974736 -0.0002321707253799513 0.0
813 -0.0006469162402093527 -0.0008667116114543961 -0.0011498311526817434 -0.00028727413877794445 -0.0002329376712409516 0.0
814 -0.0006484512672705072 -0.0008688042191760043 -0.0011523806223271125 -0.0002879385272877368 -0.0002334022271722152 0.0
815 -0.0006494097947261298 -0.0008701518170783633 -0.0011539835047329101 -0.0002883509852198131 -0.000233667541310786 0.0
816 -0.0006499876825348894 -0.0008710049578226206 -0.0011549603825973835 -0.0002885966074963832 -0.00023380219010473775 0.0
817 -0.000650315821426675 -0.000871531154022093 -0.0011555252195343093 -0.0002887322929872701 -0.00023385192618661087 0.0
818 -0.0006504818014725405 -0.0008718426394571258 -0.0011558211285198077 -0.00028879615998216897 -0.00023384731207136224 0.0
819 -0.0006505442076198914 -0.0008720146385727875 -0.0011559438516032972 -0.0002888137495459335 -0.000233808747225237 0.0
820 -0.0006505421347049356 -0.0008720975072872381 -0.001155957334609689 -0.0002888021507992023 -0.00023374980934895404 0.0
821 -0.0006505015587852721 -0.0008721248550725062 -0.0011559041326299603 -0.00028877276176573894 -0.00023367948923523147 0.0
822 -0.0006504396206072648 -0.0008721190030270571 -0.0011558123956879908 -0.0002887331449848078 -0.00023360369188870923 0.0
823 -0.0006503675128968286 -0.0008720946625835125 -0.0011557005734830737 -0.00028868827819804847 -0.0002335262475547453 0.0
824 -0.0006502924296372893 -0.0008720614195559715 -0.001155580590300131 -0.0002886413987933596 -0.00023344959378628522 0.0
825 -0.0013180911470692595 -0.0017677262334726352 -0.002342290608588583 -0.0005850244642537742 -0.00047308658736921035 0.0
826 -0.0013090396486402705 -0.001755856390450588 -0.0023281609204487963 -0.0005810678261817693 -0.0004700808292486521 0.0
827 -0.0013025725260562841 -0.0017472239487540443 -0.002318031223029183 -0.0005782233200749223 -0.00046795529588295864 0.0
828 -0.0012978808375473194 -0.0017408301044703795 -0.002310671231785356 -0.0005761467067270396 -0.0004664349188937612 0.0
829 -0.001294396836125209 -0.00173596963415099 -0.0023052075839500473 -0.0005745955611044227 -0.00046532612436909256 0.0
830 -0.0012917278571458678 -0.001732152677982264 -0.002301031622391499 -0.0005734017751826096 -0.0004644948235123159 0.0
831 -0.0012896049935009314 -0.0017290425821020862 -0.0022977242498966773 -0.0005724499516032644 -0.0004638491207936828 0.0
832 -0.0012878453436192332 -0.001726409597100313 -0.002294999197379916 -0.0005716614063005463 -0.00046332650786066716 0.0
833 -0.0012863251168217362 -0.0017240976494310774 -0.0022926619860687367 -0.0005709827280413715 -0.0004628847021199881 0.0
834 -0.0012849608506913582 -0.0017220010318437177 -0.0022905809961779253 -0.0005703777698700201 -0.00046249523136115294 0.0
835 -0.0006310612526446245 -0.0008455704756402959 -0.0011251018912350234 -0.0002801228103950988 -0.0002271861197782432 0.0
836 -0.0006366760572900793 -0.0008528990418782572 -0.0011343583404789172 -0.00028257784166688577 -0.0002290948393531584 0.0
837 -0.0006403176494515914 -0.0008576923024442199 -0.0011403569073862316 -0.0002841748958361671 -0.00023031451583568774 0.0
838 -0.0006426572952716393 -0.0008608126079211714 -0.0011442118001657754 -0.000285205724490048 -0.00023108098451282496 0.0
839 -0.0006441347216589255 -0.0008628233871813128 -0.0011466487756156866 -0.0002858612089021832 -0.0002315483909199633 0.0
840 -0.0006450408322401554 -0.0008640968453891677 -0.0011481461465048706 -0.00028626755489369234 -0.00023181852753931473 0.0
841 -0.000645569279313826 -0.000864880632782822 -0.0011490215592213325 -0.0002865087752979772 -0.00023195905073187807 0.0
842 -0.0006458494373282201 -0.0008653402470416913 -0.0011494869359322847 -0.00028664102498407776 -0.00023201509226151518 0.0
843 -0.0006459678689065712 -0.0008655865356921664 -0.0011496839896752737 -0.000286701914997729 -0.00023201680106598545 0.0
844 -0.0006459824776798735 -0.0008656937836251171 -0.0011497075235828006 -0.0002867166454695462 -0.00023198430705816716 0.0
845 -0.0006459319215948438 -0.0008657117241881146 -0.001149620874916698 -0.00028670208131457704 -0.0002319310183284307 0.0
846 -0.0006458419114121371 -0.0008656735682294394 -0.0011494662253507392 -0.00028666947797170245 -0.00023186582509200938 0.0
