lar-deeufba/potential_fields_with_aruco/src/csv_files/Joint_states.csv
Index Joint1 Joint2 Joint3 Joint4 Joint5 Joint6
0 0.0 -1.5707 0.0 -1.5707 1.5707 0.0
1 0.007250537210762065 -1.575412726392746 -0.0071388417213210775 -1.5675961753220362 1.5654494923671947 -0.005844246645876569
2 0.011481033768965922 -1.5831936921334682 -0.017361660739664008 -1.5675271453209119 1.5684101142210345 -0.007906658383942906
3 0.017066879628903672 -1.589662549735768 -0.026284415314097236 -1.5660945240898543 1.5719548706585458 -0.010477810408105057
4 0.023914748251330133 -1.594902018655615 -0.03399086861300441 -1.5633881648196684 1.5758177966350042 -0.013252184675611872
5 0.03191408879776872 -1.599008826380146 -0.04057915048421812 -1.559511855365888 1.579759631818096 -0.015961614979200442
6 0.04094048549856167 -1.6020896279478196 -0.04615747478396303 -1.5545792313937798 1.5835645489159957 -0.01837856237610467
7 0.05085905538167652 -1.604257682912623 -0.05084064682413796 -1.5487104217809093 1.5870381168034122 -0.020317773702830735
8 0.06152786921686308 -1.6056301714482963 -0.05474724890447153 -1.542029302185319 1.5900064754998326 -0.021636479036405056
9 0.07280135972630014 -1.6063260190162152 -0.057997375088305485 -1.5346612278538072 1.592316534210267 -0.022233300778732902
10 0.08453366516464367 -1.6064640990995744 -0.060710782720671666 -1.5267311228699387 1.5938369044495728 -0.02204606031517192
11 0.0965818464542213 -1.606161693279613 -0.06300533516888385 -1.5183618167323751 1.5944592367053938 -0.021048679057817276
12 0.10880891197863943 -1.6055331054500803 -0.06499562599685192 -1.509672538202587 1.5940996289206035 -0.019247377782016187
13 0.12108658488342675 -1.6046883504394829 -0.0667916974336867 -1.5007774991650333 1.5926998066047007 -0.016676379431701416
14 0.13329775204044442 -1.6037318647577377 -0.0684977934668534 -1.4917845263522627 1.590227827302646 -0.013393314490101718
15 0.1453385406079071 -1.602761216339247 -0.07021111773299409 -1.4827937246300402 1.5866781277894901 -0.009474514258025292
16 0.15711997666587152 -1.601865818551478 -0.07202059591412813 -1.473896180332447 1.5820708036252258 -0.0050103568539756485
17 0.16856919045973245 -1.6011256789115125 -0.07400566889295694 -1.465172734968539 1.576450081855173 -0.00010080524098319502
18 0.17963014435810035 -1.6006102326925746 -0.07623516408084119 -1.4566928766326621 1.569882014047386 0.005148751708996761
19 0.19026387279959764 -1.600377324204723 -0.07876630625889934 -1.4485138070909092 1.5624514748329172 0.0106312730129361
20 0.20044823816960508 -1.6004724030071924 -0.0816439348803096 -1.440679745793571 1.5542585978485466 0.016241399799853694
21 0.2101772222968201 -1.600927998499204 -0.0848999918639134 -1.4332215277237284 1.5454148145668727 0.021878320485658003
22 0.21945978931919677 -1.6017635249425888 -0.08855333314899749 -1.4261565405945844 1.5360386809827669 0.027448158648644805
23 0.2283183709935435 -1.602985451458552 -0.09260990014916944 -1.4194890297726328 1.5262516825348849 0.032865892175077176
24 0.23678703895758768 -1.6045878499504593 -0.09706326579775365 -1.413210778341596 1.5161741999358798 0.03805682437503147
25 0.24855089823814314 -1.6090313369815514 -0.10454958746670992 -1.4075753372979776 1.508560838530985 0.042957635319962224
26 0.2603886975299121 -1.6131047757541994 -0.11167297230099495 -1.4016427719378006 1.5007127302773744 0.04750829304384714
27 0.2722327461375883 -1.616827882931551 -0.1184524549825057 -1.3954529461800822 1.4925922639530165 0.05176540176303147
28 0.2840176821253105 -1.6202270626259825 -0.12491385721491242 -1.3890505161756492 1.484171157750905 0.0557758520044533
29 0.29568209541860174 -1.6233341628501035 -0.13108850987633552 -1.3824833452826917 1.4754308912072671 0.059576853905889
30 0.30716984186865487 -1.6261850836449956 -0.13701183245341086 -1.3758009161517017 1.4663628524547117 0.06319622906012493
31 0.31843103965817227 -1.628818279653424 -0.14272181411194695 -1.3690527871353144 1.4569682083836766 0.06665294705826963
32 0.3294227527163947 -1.6312732136380883 -0.1482574533420446 -1.362287139874163 1.4472575065615694 0.06995788300617113
33 0.3401093765116647 -1.6335888270914702 -0.15365722183274538 -1.3555494624903632 1.4372500225432296 0.07311476266848956
34 0.35046274977452546 -1.635802098132571 -0.15895762168870195 -1.3488814081030853 1.4269728738838858 0.076121253533517
35 0.3604620217042236 -1.6379467546150446 -0.1641919025885265 -1.3423198613692826 1.4164599316290885 0.07897015395334608
36 0.3700933084508124 -1.6400522019136952 -0.16938899705762062 -1.335896236710704 1.4057505698836943 0.08165062932823595
37 0.37934917551281355 -1.6421427111387839 -0.17457271849097977 -1.3296360213249858 1.3948883027439325 0.08414944442026426
38 0.38822798436940464 -1.6442368960992273 -0.17976124933955162 -1.32355856470083 1.383919364056779 0.08645214421420193
39 0.3967331422359139 -1.6463474881156757 -0.18496692780007226 -1.3176771049910978 1.372891288158605 0.0885441418148235
40 0.40487229323600527 -1.6484813987736515 -0.19019632239215822 -1.3119990120889444 1.3618515484546607 0.09041167992553668
41 0.41265648743675803 -1.6506400437139568 -0.19545056679577616 -1.3065262183627582 1.3508463054961672 0.09204264161743685
42 0.4200993610648641 -1.652819886982419 -0.20072591370884424 -1.3012558013235394 1.3399193076540434 0.09342719552257377
43 0.42721635690380383 -1.6550131561666355 -0.20601445719083145 -1.2961806783764618 1.3291109765092997 0.09455826956248833
44 0.4340240085927808 -1.6572086738282086 -0.2113049683230028 -1.2912903723416065 1.318457696811811 0.09543185534447315
45 0.44053930665511315 -1.659392750376257 -0.2165837888375837 -1.2865718074684138 1.3079913184575764 0.09604715212175256
46 0.44677915798830875 -1.6615500869066797 -0.22183573101834836 -1.2820100988668122 1.2977388664284863 0.09640656459412981
47 0.4527599446631755 -1.6636646427877615 -0.2270449387532447 -1.2775893031527812 1.287722444823186 0.0965155728237441
48 0.45849718256178623 -1.6657204309413631 -0.23219567311211367 -1.2732931041094155 1.2779593134902467 0.09638249523429204
49 0.46400527589484813 -1.6677022129104775 -0.23727299524167378 -1.2691054137472766 1.2684621105705558 0.09601816716658396
50 0.46929736012621676 -1.6695960750952896 -0.24226332885530064 -1.2650108758106722 1.2592391914216057 0.09543555790671607
51 0.47438522333538324 -1.6713898763277188 -0.2471548934726086 -1.2609952651045335 1.2502950536902802 0.09464934861588352
52 0.4792792945173889 -1.6730735647737902 -0.25193800736561034 -1.2570457816965046 1.2416308193519108 0.0936754923042882
53 0.48398868664025185 -1.674639368719698 -0.25660526562259794 -1.2531512438722647 1.2332447469102623 0.09253077504074111
54 0.48852128230362063 -1.676081870982095 -0.2611516037426367 -1.2493021875773374 1.2251327502216522 0.09123239511577444
55 0.4928838504085263 -1.6773979804790662 -0.2655742607450776 -1.2454908829362805 1.2172889041729524 0.08979757402734974
56 0.4970821832028499 -1.678586816985646 -0.2698726580298044 -1.2417112803351467 1.2097059213807875 0.08824321008642906
57 0.5011212442743167 -1.6796495264125288 -0.27404821131708124 -1.2379588995665904 1.2023755879383613 0.08658558229524643
58 0.5050053194095736 -1.6805890442547111 -0.278104093116707 -1.2342306757798729 1.1952891498437979 0.0848401090764863
59 0.5087381636354873 -1.6814098243351352 -0.28204496251411854 -1.2305247755770683 1.1884376449928373 0.08302116355426918
60 0.5123231391407187 -1.682117548792187 -0.2858766777964078 -1.2268403956840266 1.1818121784548106 0.08114194451449176
61 0.515763340094129 -1.6827188335948948 -0.2896060057383474 -1.2231775553295257 1.1754041411568872 0.0792143999839618
62 0.5190617015987344 -1.6832209418681348 -0.29324033937342886 -1.219536891910057 1.1692053740842858 0.07724919861836264
63 0.5222210911239813 -1.6836315151089578 -0.2967874339151153 -1.2159194678110574 1.1632082816831242 0.07525574280351224
64 0.525244381731439 -1.6839583300952747 -0.3002551682790819 -1.2123265944951012 1.1574058993534304 0.07324221655089412
65 0.5281345072418884 -1.684209087034238 -0.30365133748208556 -1.2087596782362369 1.1517919207700853 0.07121566088147155
66 0.5308945001819454 -1.684391232358033 -0.30698347913591695 -1.2052200902452113 1.146360691297174 0.06918206939629086
67 0.5335275138960828 -1.6845118176209337 -0.31025873537944126 -1.2017090624459836 1.1411071739953091 0.06714649706890895
68 0.536036830618645 -1.6845773942378663 -0.3134837499469911 -1.198227608868492 1.1360268946926357 0.06511317589489518
69 0.538425857576606 -1.684593942368669 -0.3166645986913967 -1.1947764715411624 1.1311158723319572 0.0630856318256166
70 0.5406981133466257 -1.6845668311143351 -0.3198067507839791 -1.191356088911432 1.126370540355477 0.06106679832650876
71 0.5428572067313601 -1.6845008063564344 -0.32291505700685685 -1.1879665841943008 1.1217876642848708 0.05905912286856985
72 0.544906810364189 -1.6844000020290897 -0.32599376102672134 -1.1846077706383853 1.1173642599396025 0.05706466362866046
73 0.5468506311146182 -1.6842679703425831 -0.32904652927416034 -1.1812791704886507 1.1130975159529295 0.05508517459227503
74 0.5486923791658382 -1.6841077264476836 -0.33207649501972747 -1.177980044391222 1.1089847234338248 0.05312217808583344
75 0.5504357373889192 -1.6839218032022212 -0.3350863124017146 -1.1747094281004553 1.105023214821778 0.05117702448936806
76 0.5520843323621801 -1.6837123120346997 -0.33807821648145187 -1.1714661735815384 1.101210313222823 0.049250939480326536
77 0.5536417080955761 -1.683481006351224 -0.34105408583910835 -1.1682489919225514 1.0975432928257778 0.04734505962979221
78 0.5551113032329142 -1.6832293444605613 -0.344015504736598 -1.1650564958485299 1.094019350397218 0.045460457516082076
79 0.5564964322315832 -1.6829585495599022 -0.3469638224275077 -1.1618872400393616 1.0906355873547395 0.04359815774567555
80 0.557800270769946 -1.6826696648978023 -0.34990020775461417 -1.1587397578693692 1.0873890015264054 0.041759145390254715
81 0.5590258454137075 -1.6823636027834308 -0.3528256977165634 -1.1556125935891626 1.084276487419668 0.039944368376505286
82 0.5601760273889165 -1.6820411866212772 -0.3557412391855227 -1.1525043293439503 1.0812948436401542 0.0381547353187711
83 0.5612535301629498 -1.6817031856024824 -0.35864772340180107 -1.1494136067554162 1.0784407860102045 0.036391110180440195
84 0.5622609104258814 -1.6813503420682778 -0.3615460132498101 -1.1463391430789145 1.0757109649268786 0.03465430500416188
85 0.5632005719914035 -1.6809833918729242 -0.36443696362751493 -1.1432797421801961 1.073101985555539 0.03294507177845515
86 0.5640747720959011 -1.6806030783126709 -0.3673214354581364 -1.140234300755357 1.0706104295637273 0.03126409432202388
87 0.5648856295624589 -1.6802101603566315 -0.37020030406116017 -1.1372018103459975 1.0682328772466267 0.029611980878213137
88 0.5656351343089251 -1.6798054160208062 -0.37307446270513295 -1.1341813557824865 1.065965929066665 0.027989257929504463
89 0.5663251577108933 -1.6793896417752294 -0.3759448222145548 -1.1311721107269628 1.063806225813702 0.026396365572657194
90 0.5669574633768015 -1.6789636488750443 -0.37881230750577116 -1.1281733309904232 1.061750466778456 0.02483365464400733
91 0.5675337179487256 -1.6785282574682485 -0.38167785189101466 -1.1251843462715108 1.0597954255117958 0.023301385654687194
92 0.5680555016047174 -1.6780842892650343 -0.38454238992450257 -1.1222045509151037 1.0579379629095773 0.021799729488711762
93 0.5685243180030528 -1.677632559464668 -0.38740684947821674 -1.1192333942228807 1.0561750375119896 0.020328769733254023
94 0.5689416034724316 -1.677173868533635 -0.39027214363542934 -1.1162703707716162 1.054503713034649 0.018888506449178336
95 0.5693087353125331 -1.6767089943202818 -0.39313916288402545 -1.113315011113293 1.052921163254266 0.017478861149374754
96 0.5696270391245034 -1.6762386848822965 -0.39600876798501183 -1.110366873148645 1.0514246744541798 0.01609968273039893
97 0.5698977951395958 -1.675763652298887 -0.3988817837890145 -1.1074255343861685 1.0500116456950408 0.014750754096754578
98 0.5701222435555081 -1.6752845676430868 -0.4017589941786847 -1.104490585224777 1.04867958721492 0.013431799224057746
99 0.5703015889236035 -1.6748020572038855 -0.40464113823036246 -1.1015616233321828 1.0474261172832164 0.012142490424458374
100 0.5704370036561838 -1.6743166999744756 -0.4075289076157611 -1.0986382491341262 1.0462489578364558 0.010882455602339846
101 0.5705296307416491 -1.6738290263626552 -0.410422945204655 -1.095720062382411 1.0451459292141454 0.009651285317943951
102 0.5705805857673014 -1.673339518032403 -0.4133238447827099 -1.0928066597325026 1.0441149442921283 0.008448539508923823
103 0.570590958355474 -1.6728486087513457 -0.41623215176422756 -1.0898976332338994 1.0431540022820947 0.007273753752985401
104 0.5705618131194504 -1.6723566860963182 -0.4191483647567882 -1.0869925696179445 1.0422611824316916 0.006126444987141325
105 0.570494190242185 -1.6718640938572256 -0.4220729378223372 -1.0840910502572916 1.0414346378223498 0.005006116629430713
106 0.5703891057740613 -1.6713711349764182 -0.42500628327574685 -1.0811926516678063 1.0406725894236193 0.003912263076333265
107 0.5702475517367064 -1.6708780748652772 -0.42794877486574806 -1.0782969464260994 1.0399733205251482 0.0028443735729246997
108 0.5700704961090327 -1.6703851449500222 -0.43090075119281923 -1.0754035043829637 1.0393351716318928 0.0018019354727322305
109 0.569858882759943 -1.6698925463133942 -0.43386251923262825 -1.0725118940635605 1.0387565358757165 0.000784436920157665
110 0.5696136313801242 -1.6694004533163922 -0.43683435785054936 -1.0696216841581934 1.0382358549679747 -0.0002086309996804979
111 0.5693356374536188 -1.6689090171033845 -0.4398165212113637 -1.0667324450219318 1.0377716156934078 -0.001177772590540961
112 0.5690257722987964 -1.6684183689135719 -0.4428092420074187 -1.063843750116352 1.0373623469258813 -0.002123486295999468
113 0.5686848831982734 -1.6679286231410364 -0.4458127344473568 -1.0609551773415313 1.0370066171311492 -0.0030462638116301585
114 0.5683137936284608 -1.6674398801037573 -0.44882719696532425 -1.0580663102205954 1.0367030323107018 -0.0039465894987847725
115 0.5679133035918759 -1.6669522284984706 -0.45185281462679133 -1.0551767389121274 1.0364502343335171 -0.004824940042789071
116 0.5674841900491872 -1.6664657475327238 -0.45488976122139235 -1.052286061037306 1.036246899598752 -0.005681784302380264
117 0.567027207443162 -1.6659805087377355 -0.45793820104531063 -1.0493938823185525 1.0360917379715744 -0.006517583302315036
118 0.566543088303168 -1.665496577475599 -0.4609982903856011 -1.0464998170346416 1.0359834919359379 -0.0073327903268909905
119 0.5660325439165569 -1.665014014162049 -0.46407017872648776 -1.0436034883036813 1.0359209359116053 -0.008127851078289745
120 0.5654962650519857 -1.6645328752315038 -0.4671540097031943 -1.0407045282101455 1.0359028756876545 -0.008903203869875956
121 0.5649349227193547 -1.6640532138746205 -0.4702499218324511 -1.0378025777953812 1.035928147930552 -0.009659279830622368
122 0.5643491689514152 -1.663575080580375 -0.4733580490506738 -1.0348972869328739 1.0359956197312823 -0.010396503102493153
123 0.5637396375930516 -1.663098523514959 -0.4764785210911921 -1.0319883141102246 1.0361041881625843 -0.011115291017764416
124 0.563106945085637 -1.66262358876882 -0.47961146373106384 -1.0290753261394552 1.0362527798237995 -0.011816054247797898
125 0.5624516912355344 -1.662150320501271 -0.4827569989362145 -1.0261579978161457 1.036440350356919 -0.012499196918664605
126 0.5617744599576789 -1.661678761009446 -0.4859152449311306 -1.023236011546179 1.0366658839229776 -0.013165116692217897
127 0.5610758199870742 -1.6612089507452885 -0.48908631621634724 -1.0203090569567308 1.0369283926328448 -0.013814204813758712
128 0.5661869727638944 -1.6658838542014816 -0.49737502974258685 -1.0179203852134282 1.0398976593500289 -0.014446846129349768
129 0.5723027757809085 -1.669388720300264 -0.5045015107026581 -1.0144181152939786 1.0431391381928006 -0.014923295712485804
130 0.5792449439999998 -1.671813427859216 -0.510555645168441 -1.0099021324357855 1.0463565502688146 -0.015131122412975899
131 0.5868294761204094 -1.673273452719155 -0.5156528264025587 -1.004495513499756 1.0492961565802887 -0.014984653458210347
132 0.5948737606855187 -1.673901984281764 -0.5199260125364351 -0.9983365753309467 1.0517474582873132 -0.014425879845174528
133 0.603202565271745 -1.6738428656525968 -0.5235186360177526 -0.9915718979885491 1.0535429610407139 -0.01342406174711715
134 0.611652970940025 -1.6732443324916662 -0.5265783403284756 -0.9843502745717507 1.0545572947827822 -0.011974098276628611
135 0.6200783070112834 -1.6722535209036142 -0.5292515099602721 -0.9768175242365659 1.054705774465072 -0.010093821824394882
136 0.6283511269105124 -1.6710117243388503 -0.5316785665466817 -0.9691121110317695 1.0539423721433177 -0.007820453272076172
137 0.636365254888371 -1.669650391668867 -0.5339900153571533 -0.9613615257427107 1.052257035197981 -0.0052065019885162815
138 0.6440369317507328 -1.668287867330885 -0.5363032356129976 -0.9536794029376622 1.0496723076597752 -0.0023154099524709225
139 0.6513050967315381 -1.6670268774230421 -0.538720012496818 -0.9461633562598478 1.0462392678467858 0.0007827759330795892
140 0.6581308604516221 -1.6659527625063144 -0.5413248074619224 -0.9388935195017912 1.0420328639960825 0.0040154594181964366
141 0.6644962467952251 -1.6651324490971464 -0.5441837565965744 -0.931931778533084 1.0371467934955323 0.007311090853609935
142 0.6704023052746109 -1.6646141382501949 -0.5473443749311993 -0.9253216701942223 1.0316881197997307 0.010602179167219375
143 0.6758667162439738 -1.664427672352671 -0.5508359286557769 -0.9190889100419635 1.0257718487920104 0.013827656962626837
144 0.6809210263265736 -1.6645855217224985 -0.5546704186127173 -0.9132424931173446 1.019515692244279 0.016934589159924154
145 0.6856076589313757 -1.6650843125922357 -0.558844098918191 -0.9077762928718613 1.0130352320845357 0.0198792571565769
146 0.6899768441467331 -1.6659067995718482 -0.5633394361937495 -0.9026710653806035 1.0064396690371527 0.022627679201071327
147 0.6940836039220176 -1.6670241707490583 -0.5681273997725592 -0.8978967512841913 0.9998282972375458 0.02515564449159969
148 0.6979849133039637 -1.668398564002138 -0.5731699632702338 -0.8934149584927423 0.9932877972326344 0.027448345625084077
149 0.7017371380875651 -1.669985670152 -0.5784226944588714 -0.8891815059209811 0.9868903878693948 0.02949969408872856
150 0.7053938253521433 -1.6717373028288272 -0.5838373141004463 -0.8851489129833133 0.9806928271814096 0.031311399037262246
151 0.7090038978514462 -1.673603826107995 -0.5893641150861271 -0.8812687309721632 0.9747362072705831 0.032891882671694406
152 0.7126102779083687 -1.6755363480289305 -0.5949541498887134 -0.8774936296714883 0.969046451389352 0.034255097546397544
153 0.7162489429149886 -1.6774886093834969 -0.600561115328564 -0.8737791738957572 0.9636353950183072 0.03541930292310872
154 0.7199483940225223 -1.679418520636191 -0.6061428869752867 -0.8700852480251414 0.9585023175980553 0.036405849272415206
155 0.7237295029973337 -1.6812893234621122 -0.6116626790937545 -0.8663771099328005 0.953635787398818 0.03723801233433944
156 0.7276056899707519 -1.6830703753368703 -0.6170898280480897 -0.8626260771261918 0.9490156874199484 0.03793991079412266
157 0.7315833769695035 -1.6847375744912814 -0.6224002160774246 -0.8588098660648219 0.9446153030664661 0.0385355345679824
158 0.735662658380841 -1.6862734574854352 -0.627576367453086 -0.8549126196410253 0.9404033701441394 0.039047903892885774
159 0.7398381293265957 -1.6876670123193698 -0.6326072598463722 -0.8509246674381298 0.9363460019662688 0.03949837286750039
160 0.7440998155879782 -1.688913256487054 -0.6374879003611116 -0.8468420687968287 0.932408434933816 0.039906084825506574
161 0.748434153486181 -1.6900126321300244 -0.6422187185329042 -0.8426659904438163 0.9285565512314444 0.04028758099916747
162 0.7528249742705563 -1.6909702700857967 -0.6468048282888789 -0.8384019691735154 0.9247581542684861 0.04065655844451516
163 0.7572544544826025 -1.6917951718598894 -0.6512552081045115 -0.83405910659005 0.9209839867264584 0.04102376826935596
164 0.7617040009635173 -1.6924993540702367 -0.655581844085987 -0.8296492379393149 0.9172084925202412 0.041397040964725955
165 0.7661550462985774 -1.6930969943355765 -0.6597988750757112 -0.8251861112157264 0.9134103328808632 0.04178142221936392
166 0.7705897372991427 -1.6936036114164754 -0.6639217726491126 -0.8206846065113456 0.9095726734994162 0.0421794001026622
167 0.7749915054559254 -1.6940353060670088 -0.6679665824529177 -0.8161600193515801 0.9056832646296147 0.04259120300154046
168 0.779345514058151 -1.6944080828092292 -0.6719492470307787 -0.8116274257806871 0.9017343395748091 0.04301514720462457
169 0.7836389818012177 -1.694737266904822 -0.6758850243011452 -0.8071011413789404 0.8977223593424587 0.043448013498073104
170 0.7878613871589768 -1.695037025303156 -0.679788010331749 -0.8025942813027588 0.8936476326062687 0.0438854334702206
171 0.792004561545119 -1.6953199953771212 -0.6836707700794873 -0.7981184238879715 0.8895138405746188 0.04432226826932224
172 0.7960626823090202 -1.695597020869667 -0.6875440753831407 -0.7936833763692221 0.88532749598196 0.04475296514088095
173 0.8000321788925632 -1.6958769906962143 -0.6914167457366455 -0.7892970378580654 0.8810973642410161 0.04517187999453288
174 0.8039115670175898 -1.6961667730998948 -0.6952955842469077 -0.7849653518963878 0.8768338728695142 0.04557355732357997
175 0.8077012265982784 -1.6964712351477398 -0.6991853986981573 -0.7806923386652835 0.8725485327108538 0.04595296184751779
176 0.811403139218813 -1.6967933356880986 -0.7030890958028158 -0.7764801952831294 0.8682533913090589 0.0463056591204086
177 0.8150206005452125 -1.6971342786543075 -0.7070078355061449 -0.7723294515637352 0.8639605352097266 0.04662794492941983
178 0.8185579220315709 -1.697493712976226 -0.710941231606511 -0.7682391681084206 0.8596816540989172 0.046916925516769105
179 0.822020134831572 -1.6978699653141782 -0.7148875849191261 -0.7642071636429296 0.8554276757323593 0.04717055244676269
180 0.8254127070431758 -1.6982602923074908 -0.7188441356973759 -0.7602302590335716 0.8512084767200955 0.047387617289808906
181 0.8287412834099355 -1.6986611399648013 -0.7228073229657119 -0.7563045263634369 0.8470326705775185 0.04756771221475703
182 0.832011454487405 -1.6990683991343078 -0.7267730397312426 -0.7524255327417458 0.842907471171396 0.04771116309708736
183 0.8352285601615095 -1.6994776475874975 -0.730736874636976 -0.7485885700699483 0.8388386268874647 0.047818941905306944
184 0.83839753036973 -1.6998843710324758 -0.7346943324017615 -0.7447888637044396 0.8348304185978204 0.04789256497285225
185 0.8415227640022587 -1.7002841572454015 -0.73864102726357 -0.7410217547450758 0.8308857128480139 0.04793398335451473
186 0.8446080453079142 -1.7006728593785663 -0.7425728455119781 -0.7372828524539117 0.8270060606164829 0.04794547086301453
187 0.8476564957390639 -1.7010467262891178 -0.7464860749805 -0.7335681549926633 0.8231918314923351 0.0479295146395664
188 0.8506705580634504 -1.7014024993648786 -0.7503775010011845 -0.729874138196836 0.8194423731159477 0.04788871228510993
189 0.8536520087544351 -1.701737476750811 -0.7542444697501937 -0.7261978134316381 0.8157561861565392 0.047825678714011534
190 0.8566019941362113 -1.7020495470663015 -0.7580849210985262 -0.7225367566686497 0.8121311058771994 0.04774296503078736
191 0.8595210854869649 -1.7023371956312443 -0.7618973940081566 -0.7188891117677777 0.8085644823722401 0.04764299090709625
192 0.862409348262145 -1.7025994868849728 -0.7656810081775878 -0.715253571545825 0.8050533527675755 0.04752799117812221
193 0.8652664207576899 -1.7028360270966278 -0.7694354260523538 -0.7116293405727359 0.8015945999720765 0.047399976704743364
194 0.8680915978519915 -1.7030469116491984 -0.7731607994960704 -0.7080160837804549 0.7981850938861367 0.04726070897422534
195 0.8708839159075996 -1.703232661160306 -0.7768577053944666 -0.7044138649251468 0.794821812254249 0.047111687445225946
196 0.8736422354423584 -1.7033941505136563 -0.7805270742714617 -0.7008230787430498 0.7915019395446283 0.04695414828498301
197 0.8763653187605573 -1.703532534550856 -0.7841701156679297 -0.69724438031683 0.7882229433162355 0.046789072895432354
198 0.8790519003370171 -1.703649173748939 -0.7877882436055058 -0.6936786147559615 0.7849826284684526 0.046617204474639906
199 0.8817007483442403 -1.7037455627177516 -0.7913830049631022 -0.6901267498225065 0.7817791705475015 0.046439070801306166
200 0.8843107162827029 -1.7038232638236968 -0.7949560130632769 -0.6865898136309224 0.7786111299012757 0.04625501145196003
201 0.8868807841994742 -1.7038838477089535 -0.7985088882260505 -0.6830688390418097 0.7754774489323394 0.0460652077500586
202 0.889410089447478 -1.703928841950782 -0.8020432065218368 -0.6795648158755307 0.7723774350047995 0.04586971389001163
203 0.8918979473378896 -1.7039596886122186 -0.8055604574611577 -0.6760786516090447 0.769310731726252 0.045668487863436434
204 0.8943438623662988 -1.7039777109874579 -0.8090620109108001 -0.6726111408008647 0.7662772813659002 0.045461421026399745
205 0.896747530947663 -1.7039840894526548 -0.812549093134077 -0.6691629431238046 0.7632772811012921 0.04524836537253108
206 0.8991088367770507 -1.703979846002151 -0.8160227715231819 -0.6657345695787771 0.7603111356272553 0.045029157806463396
207 0.9014278400465024 -1.703965836784403 -0.8194839473273031 -0.662326376217972 0.757379408430418 0.044803640935328716
208 0.9037047617988291 -1.7039427517514065 -0.8229333554813237 -0.6589385645222525 0.7544827737498786 0.04457168010496999
209 0.9059399646940993 -1.7039111203979798 -0.826371570504283 -0.6555711874533058 0.7516219709271228 0.04433317659586293
210 0.9081339314122787 -1.7038713224887434 -0.8297990173600451 -0.6522241601318911 0.7487977625128936 0.044088077056984254
211 0.910287241824851 -1.7038236026452442 -0.8332159861489976 -0.6488972740739466 0.7460108971604701 0.04383637939124231
212 0.9124005499483459 -1.7037680876865835 -0.8366226495221532 -0.6455902139397935 0.7432620780067677 0.04357813541238179
213 0.9144745615523594 -1.7037048056765136 -0.8400190817701271 -0.6423025758110453 0.7405519369357608 0.04331345067065685
214 0.9165100131422311 -1.7036337057203321 -0.8434052786311137 -0.6390338860975713 0.7378810148414812 0.04304248189436564
215 0.9185076528796114 -1.7035546776680595 -0.8467811769762376 -0.6357836202855115 0.7352497477665358 0.04276543251880533
216 0.9204682238493445 -1.7034675710086884 -0.8501466736598124 -0.632551220859676 0.7326584585906827 0.042482546776293956
217 0.9223924499339872 -1.7033722123765853 -0.8535016429589916 -0.6293361138630266 0.7301073537843689 0.04219410280400019
218 0.9242810244223078 -1.7032684212290297 -0.8568459521656341 -0.6261377236863468 0.7275965246242676 0.04190040519407792
219 0.926134601358576 -1.7031560233878817 -0.8601794750274536 -0.6229554858075211 0.7251259521900819 0.04160177736669567
220 0.9279537895375748 -1.7030348622639004 -0.8635021028611228 -0.6197888573178634 0.722695515421268 0.04129855409456741
221 0.9297391489672242 -1.7029048076957876 -0.8668137532734613 -0.6166373251793666 0.7203050015048736 0.040991074450859
222 0.9314911895567983 -1.7027657624350445 -0.870114376525625 -0.6135004122492947 0.71795411788671 0.04067967539385791
223 0.933210371743441 -1.702617666390618 -0.8734039596577727 -0.6103776811857468 0.7156425052424996 0.040364686144133875
224 0.9348971087419127 -1.7024604988133627 -0.8766825285573231 -0.6072687364090986 0.7133697508082383 0.04004642345522305
225 0.9365517700905944 -1.7022942786496138 -0.8799501482027081 -0.604173224339656 0.711135401544642 0.03972518782880881
226 0.9381746861687685 -1.7021190633263321 -0.8832069213471918 -0.601090832162135 0.7089389766943857 0.039401260681173375
227 0.939766153373866 -1.7019349462485711 -0.8864529859250985 -0.598021285383906 0.7067799793784483 0.03907490243014739
228 0.9413264396704343 -1.7017420532950307 -0.8896885114672938 -0.5949643444578292 0.7046579069654034 0.038746351441294055
229 0.9428557902527204 -1.7015405385910483 -0.8929136948058735 -0.591919800733733 0.702572260031645 0.03841582374869501
230 0.9443544330977895 -1.701330579822562 -0.8961287553317492 -0.5888874719870635 0.7005225498087025 0.03808351344923229
231 0.9458225842239462 -1.7011123733314069 -0.8993339300452599 -0.5858671977508915 0.6985083040839694 0.037749593659224444
232 0.9472604525080762 -1.7008861292037838 -0.9025294686110781 -0.582858834650191 0.696529071581962 0.037414217918048304
233 0.948668243953784 -1.700652066531774 -0.9057156285964431 -0.5798622519068967 0.6945844249038418 0.03707752192419981
234 0.9500461653385551 -1.7004104089940781 -0.9088926710378549 -0.5768773271523088 0.6926739621430323 0.03673962549429048
235 0.9513944272015789 -1.7001613808682736 -0.9120608564473279 -0.5739039426513763 0.6907973073245178 0.03640063464388181
236 0.9527132461635628 -1.6999052035540725 -0.9152204413364124 -0.5709419820124446 0.6889541098352705 0.03606064369997554
237 0.9540028465953274 -1.6996420926563953 -0.9183716753054921 -0.5679913274271822 0.687144043024044 0.03571973736759377
238 0.9552634616729316 -1.6993722556493338 -0.9215147987181421 -0.5650518574593388 0.6853668021514563 0.03537799268644844
239 0.9564953338734556 -1.6990958901178277 -0.9246500409561486 -0.5621234453782527 0.6836221018670232 0.03503548082755682
240 0.9576987149774838 -1.6988131825534947 -0.9277776192304873 -0.5592059580139433 0.6819096733798087 0.03469226869323001
241 0.9588738656520325 -1.6985243076646361 -0.9308977379072754 -0.5562992550953232 0.6802292614748697 0.03434842029668547
242 0.9600210546915272 -1.698229428148033 -0.9340105882954214 -0.5534031890215096 0.6785806215099077 0.034003997909239324
243 0.961140557994911 -1.697928694861522 -0.9371163488342349 -0.5505176050082625 0.6769635165066366 0.033659062973360715
244 0.9622326573545501 -1.6976222473312748 -0.9402151856143309 -0.5476423415469389 0.6753777144303994 0.03331367678864427
245 0.9632976391278492 -1.6973102145257957 -0.94330725316341 -0.5447772311117013 0.6738229857304182 0.03296790098489686
246 0.964335792855909 -1.6969927158295 -0.946392695429482 -0.541922101051637 0.6722991011925527 0.03262179780202748
247 0.9653474098856878 -1.6966698621518752 -0.9494716468973696 -0.5390767746075106 0.6708058301372078 0.03227543020033504
248 0.9663327820434403 -1.696341757113182 -0.9525442337794072 -0.5362410719976362 0.6693429389775674 0.03192886182720657
249 0.9672922003981501 -1.6960084982539745 -0.9556105752276648 -0.5334148115233768 0.6679101901379969 0.03158215686731974
250 0.968225954144616 -1.6956701782229537 -0.958670784522357 -0.5305978106516626 0.6665073413194926 0.031235379803355355
251 0.969134329627138 -1.6953268859054254 -0.961724970198911 -0.527789887039254 0.6651341450885333 0.030888595113157055
252 0.9700176095166214 -1.6949787074625349 -0.9647732370841284 -0.5249908594709581 0.663790348757645 0.030541866927426296
253 0.9708760721465879 -1.6946257272592087 -0.9678156872196577 -0.5222005486913138 0.662475694520308 0.03019525866959674
254 0.9717099910071851 -1.6942680286660696 -0.9708524206583589 -0.5194187781161859 0.6611899197993663 0.029848832696683564
255 0.9725196343909045 -1.6939056947273268 -0.9738835361258716 -0.5166453744170325 0.6599327577666189 0.02950264995681827
256 0.9733052651793862 -1.6935388086926144 -0.9769091315456714 -0.5138801679762282 0.6587039379915419 0.02915676967600579
257 0.9740671407574044 -1.6931674544158692 -0.9799293044309925 -0.5111229932166172 0.657503187178806 0.028811249083518804
258 0.9748055130378358 -1.6927917166285595 -0.9829441521511932 -0.508373688812423 0.6563302299571525 0.028466143182367423
259 0.9755206285800493 -1.6924116810978667 -0.9859537720834026 -0.505632097791712 0.6551847896859776 0.028121504568549973
260 0.9762127287836161 -1.6920274346828426 -0.9889582616626658 -0.5028980675428593 0.6540665892503694 0.02777738330035465
261 0.9768820501394262 -1.6916390653031335 -0.9919577183453423 -0.500171449738906 0.652975351820109 0.027433826816888444
262 0.9775288245210767 -1.6912466618356743 -0.9949522395012818 -0.497452100194443 0.6519108015530484 0.027090879903280827
263 0.9781532795006642 -1.6908503139548947 -0.9979419222504059 -0.4947398786697528 0.6508726642281155 0.026748584698648662
264 0.9787556386747344 -1.690450111931551 -1.0009268632588588 -0.4920346486365131 0.6498606677978249 0.026406980741907053
265 0.9793361219880148 -1.6900461464043914 -1.0039071585089512 -0.48933627701849475 0.6488745428544374 0.02606610504985027
266 0.9798949460445676 -1.6896385081376095 -1.0068829030558382 -0.4866446339194808 0.6479140230077364 0.02572599222157088
267 0.9804323243980635 -1.6892272877755092 -1.0098541907823215 -0.4839595923491818 0.6469788451756987 0.025386674563206386
268 0.9809484678149087 -1.6888125756041263 -1.0128211141614605 -0.481281027956323 0.6460687497920905 0.025048182227151848
269 0.9814435845058903 -1.6883944613277788 -1.0157837640348872 -0.4786088187764022 0.6451834809372178 0.024710543360217815
270 0.9819178803237903 -1.6879730338667462 -1.018742229412946 -0.4759428449999399 0.6443227863996981 0.024373784255700047
271 0.9823715589260124 -1.6875483811805674 -1.0216965973010463 -0.47328298876542557 0.6434864176782369 0.024037929504919973
272 0.9828048219026443 -1.687120590119838 -1.024646952555017 -0.47062913397965 0.6426741299330232 0.023703002144455233
273 0.983217868871527 -1.6866897463079373 -1.0275933777667912 -0.46798116616673996 0.6418856818965628 0.02336902379597397
274 0.9836108975428159 -1.6862559340528338 -1.0305359531804765 -0.46533897234601135 0.6411208357535948 0.023036014796281565
275 0.9839841037562044 -1.6858192362880373 -1.0334747566377878 -0.46270244093773577 0.6403793569992655 0.02270399431586257
276 0.984337681494443 -1.6853797345408825 -1.0364098635509438 -0.4600714616950887 0.6396610142840079 0.02237298046483025
277 0.9846718228770579 -1.6849375089256493 -1.0393413469004593 -0.45744592565991 0.6389655792526823 0.022042990385766813
278 0.9849867181382572 -1.6844926381585368 -1.0422692772547846 -0.45482572513944985 0.6382928263845069 0.021714040333438826
279 0.9852825555929505 -1.6840451995912042 -1.0451937228084498 -0.45221075370099245 0.6376425328392249 0.02138614574179482
280 0.9855595215946138 -1.6835952692594447 -1.0481147494352387 -0.44960090618111354 0.6370144783138459 0.02105932127899686
281 0.9858178004884384 -1.6831429219435607 -1.0510324207529238 -0.4469960787063333 0.6364084449132206 0.02073358089150148
282 0.9860575745628396 -1.6826882312371247 -1.0539467981962243 -0.4443961687220385 0.6358242170366799 0.02040893783839362
283 0.9862790240019788 -1.682231269621024 -1.0568579410948715 -0.44180107502675464 0.6352615812820323 0.020085404717294336
284 0.9864823268415096 -1.6817721085399846 -1.0597659067539675 -0.4392106978091248 0.6347203263673701 0.019762993483214777
285 0.9866676589293099 -1.681310818479103 -1.0626707505341675 -0.4366249386852743 0.6342002430704216 0.01944171546172941
286 0.9868351938925098 -1.6808474690382964 -1.0655725259296032 -0.43404370073459747 0.633701124184581 0.019121581357788645
287 0.9869851031117169 -1.6803821290029646 -1.0684712846418525 -0.4314668885323667 0.6332227644902821 0.01880260126140709
288 0.9871175557029404 -1.6799148664095525 -1.0713670766486556 -0.42889440817793273 0.6327649607400236 0.0184847846513467
289 0.9872327185073837 -1.6794457486050665 -1.0742599502664532 -0.42632616731763434 0.6323275116551239 0.01816814039777869
290 0.9873307560889732 -1.678974842299949 -1.0771499522061667 -0.4237620751618621 0.6319102179321479 0.017852676764761884
291 0.9874118307392422 -1.6785022136140302 -1.0800371276219607 -0.4212020424960179 0.6315128822569108 0.01753840141322056
292 0.9874761024890005 -1.6780279281155455 -1.0829215201529974 -0.4186459816853677 0.6311353093240086 0.017225321404955213
293 0.9875237291260707 -1.6775520508534478 -1.085803171958428 -0.4160938066740026 0.630777305859927 0.01691344320807439
294 0.9875548662182742 -1.6770746463834214 -1.0886821237460482 -0.41354543297830165 0.6304386806479455 0.016602772704099537
295 0.9875696671407972 -1.6765957787881562 -1.0915584147951911 -0.4110007776754228 0.6301192445532493 0.016293315196875286
296 0.9875682831070478 -1.6761155116925412 -1.0944320829745304 -0.4084597593874445 0.6298188105468816 0.01598507542331021
297 0.9875508632021336 -1.6756339082744982 -1.0973031647555278 -0.4059222982618398 0.6295371937274097 0.01567805756588539
298 0.9875175544181314 -1.6751510312722109 -1.100171695222286 -0.4033883159489924 0.6292742113394151 0.015372265266794001
299 0.987468501690385 -1.6746669429884982 -1.103037708078566 -0.40085773557746 0.6290296827881531 0.01506770164352243
300 0.9874038479341509 -1.6741817052930557 -1.1059012356526958 -0.39833048172766533 0.6288034296499483 0.014764369305642785
301 0.987323734080997 -1.6736953796232412 -1.108762308901048 -0.3958064804046496 0.6285952756780944 0.014462270372563079
302 0.9872282991144647 -1.6732080269840213 -1.111620957410706 -0.393285659010463 0.6284050468042071 0.014161406491970861
303 0.9871176801045953 -1.6727197079476102 -1.1144772094018482 -0.39076794631669515 0.6282325711351342 0.013861778858706784
304 0.9869920122410248 -1.6722304826532675 -1.1173310917303116 -0.3882532724375737 0.628077678945653 0.013563388233815116
305 0.9868514288644397 -1.6717404108076226 -1.1201826298907038 -0.3857415688039769 0.6279402026672866 0.013266234963536037
306 0.9866960614962699 -1.6712495516858157 -1.1230318480203447 -0.38323276813862933 0.6278199768736443 0.012970318998030347
307 0.9865260398665736 -1.6707579641336683 -1.1258787689042482 -0.3807268044326728 0.6277168382627447 0.012675639909652554
308 0.9863414919401294 -1.670265706571016 -1.1287234139812692 -0.3782236129237339 0.6276306256367974 0.012382196910622421
309 0.9861425439408084 -1.6697728369962688 -1.131565803351478 -0.37572313007554525 0.6275611798799381 0.012089988869973816
310 0.9859293203743396 -1.6692794129922106 -1.1344059557847666 -0.3732252935591241 0.6275083439343913 0.011799014329692027
311 0.9857019440496168 -1.6687854917329923 -1.1372438887306369 -0.37073004223546113 0.6274719627755156 0.011509271519981176
312 0.9854605360987129 -1.6682911299922363 -1.140079618329084 -0.36823731613963745 0.6274518833861491 0.011220758373629703
313 0.9852052159957857 -1.6677963841521404 -1.1429131594224577 -0.3657470564662556 0.627447954730627 0.010933472539468012
314 0.9849361015750592 -1.6673013102134395 -1.1457445255681589 -0.36325920555605123 0.6274600277287975 0.010647411394932936
315 0.984653309048063 -1.6668059638060801 -1.1485737290520193 -0.36077370688353805 0.627487955230306 0.010362572057772365
316 0.9843569530203062 -1.6663104002004454 -1.151400780902206 -0.35829050504553334 0.6275315919893657 0.010078951396937383
317 0.9840471465075438 -1.6658146743189768 -1.1542256909034896 -0.35580954575041013 0.6275907946401831 0.009796546042720117
318 0.9837240009517826 -1.6653188407480377 -1.1570484676117232 -0.353330775807928 0.6276654216731535 0.00951535239620433
319 0.9833876262371501 -1.66482295374988 -1.1598691183683938 -0.3508541431195053 0.6277553334119009 0.009235366638097302
320 0.9830381307057314 -1.6643270672745818 -1.162687649315113 -0.3483795966688055 0.627860391991194 0.008956584737016491
321 0.9826756211734577 -1.663831234971846 -1.165504065407939 -0.3459070865125275 0.6279804613357359 0.00867900245730154
322 0.98230020294611 -1.6633355102025624 -1.1683183704314328 -0.3434365637713045 0.628115407139797 0.00840261536642015
323 0.981911979835481 -1.6628399460500574 -1.1711305670123766 -0.34096798062063527 0.6282650968476368 0.008127418842031399
324 0.9815110541757227 -1.6623445953309681 -1.1739406566330899 -0.338501290281785 0.6284293996346443 0.007853408078765563
325 0.9810975268398878 -1.661849510605702 -1.1767486396443105 -0.3360364470126124 0.6286081863891129 0.007580578094771526
326 0.980671497256662 -1.661354744188454 -1.179554515277613 -0.33357340609829333 0.6288013296945608 0.0073089237380771855
327 0.9802330634272718 -1.6608603481567656 -1.1823582816573515 -0.3311121238419244 0.6290087038125061 0.007038439692800463
328 0.9797823219425424 -1.6603663743606336 -1.1851599358121376 -0.3286525575550039 0.6292301846656024 0.006769120485241346
329 0.9793193680000768 -1.6598728744311715 -1.1879594736858607 -0.32619466554779525 0.6294656498210522 0.006500960489879236
330 0.9788442954215157 -1.6593798997888505 -1.1907568901482761 -0.32373840711958846 0.6297149784742156 0.006233953935292906
331 0.9783571966698448 -1.658887501651342 -1.1935521790051913 -0.3212837425488798 0.6299780514323462 0.005968094910015061
332 0.9778581628667048 -1.6583957310409958 -1.1963453330082814 -0.31883063308349585 0.6302547510983906 0.005703377368328602
333 0.9773472838096688 -1.6579046387919893 -1.199136343864575 -0.31637904093069036 0.630544961454803 0.005439795136006682
334 0.9768246479894489 -1.65741427555718 -1.201925202245644 -0.31392892924724347 0.6308485680473352 0.005177341915996836
335 0.9762903426069968 -1.6569246918147011 -1.2047118977965379 -0.31148026212959323 0.6311654579687731 0.004916011294044428
336 0.9757444535904694 -1.6564359378743356 -1.2074964191445023 -0.3090330046040289 0.6314955198426002 0.004655796744250997
337 0.9751870656120327 -1.6559480638836972 -1.2102787539075097 -0.3065871226169719 0.6318386438065804 0.004396691634560253
338 0.9746182621044819 -1.6554611198342528 -1.2130588887026397 -0.3041425830253701 0.6321947214962561 0.004138689232163962
339 0.974038125277661 -1.6549751555672103 -1.2158368091543352 -0.30169935358722444 0.6325636460283698 0.0038817827088211514
340 0.9734467361346685 -1.6544902207792964 -1.218612499902558 -0.2992574029522678 0.6329453119842194 0.0036259651460817093
341 0.9728441744878419 -1.654006365028442 -1.2213859446108644 -0.29681670065280913 0.6333396153929637 0.003371229540408854
342 0.9722305189745155 -1.6535236377393903 -1.224157125974418 -0.29437721709475206 0.6337464537148966 0.00311756880819386
343 0.9716058470725507 -1.6530420882092398 -1.2269260257279524 -0.29193892354879764 0.6341657258247139 0.0028649757906586675
344 0.9709702351156418 -1.6525617656129303 -1.2296926246536917 -0.2895017921418321 0.6345973319947934 0.0026134432586424412
345 0.9703237583084007 -1.6520827190086742 -1.2324569025892345 -0.2870657958485028 0.6350411738785124 0.002362963917269924
346 0.9696664907412279 -1.651604997343339 -1.2352188384354084 -0.28463090848297884 0.6354971544936245 0.0021135304105001584
347 0.9689985054049789 -1.651128649457776 -1.2379784101640883 -0.2821971046908928 0.635965178205719 0.0018651353255565478
348 0.9683198742054335 -1.6506537240920955 -1.2407355948259862 -0.2797643599414589 0.6364451507117789 0.0016177711972380521
349 0.9676306679775798 -1.6501802698908858 -1.243490368558402 -0.2773326505197584 0.6369369790238593 0.001371430512115134
350 0.9669309564997218 -1.649708335408367 -1.246242706592938 -0.2749019535191866 0.6374405714528977 0.001126105712612782
351 0.9662208085074222 -1.649237969113477 -1.2489925832631665 -0.2724722468340503 0.6379558375926709 0.000881789200984358
352 0.9655002917072893 -1.6487692193948822 -1.2517399720122515 -0.2700435091523079 0.6384826883039081 0.0006384733431810661
353 0.9647694727906175 -1.6483021345659064 -1.2544848454005157 -0.2676157199484434 0.6390210356985668 0.00039615047262134024
354 0.9640284174468896 -1.6478367628693733 -1.2572271751129502 -0.2651888594764644 0.6395707931242788 0.0001548128938654781
355 0.9632771903771495 -1.647373152482357 -1.2599669319666629 -0.2627629087630167 0.6401318751489661 -8.554711379982698e-05
356 0.9625158553072513 -1.6469113515208316 -1.2627040859182603 -0.26033784960060674 0.6407041975456316 -0.00032493729286128554
357 0.96174447500099 -1.6464514080442214 -1.265438606071162 -0.2579136645409253 0.6412876772773209 -0.0005633654041586189
358 0.9609631112731212 -1.6459933700598435 -1.268170460682845 -0.2554903368882661 0.6418822324822547 -0.0008008392235390548
359 0.9601718250022697 -1.6455372855272408 -1.2708996171720157 -0.2530678506930334 0.6424877824591274 -0.001037366538581985
360 0.9593706761437334 -1.645083202362407 -1.2736260421257126 -0.2506461907453342 0.6431042476525698 -0.0012729551453900115
361 0.958559723742184 -1.6446311684418957 -1.2763497013063343 -0.24822534256865017 0.6437315496387687 -0.0015076128454418695
362 0.9577390259442655 -1.6441812316068198 -1.2790705596585998 -0.2458052924135871 0.6443696111112406 -0.0017413474425043093
363 0.9569086400110921 -1.6437334396667356 -1.2817885813164394 -0.24338602725169806 0.6450183558667524 -0.001974166739599445
364 0.9560686223306463 -1.643287840403416 -1.2845037296098194 -0.24096753476937932 0.6456777087913844 -0.002206078536025246
365 0.9552190284300774 -1.6428444815745122 -1.2872159670715035 -0.23854980336183626 0.6463475958467323 -0.0024370906244264787
366 0.9543599129879012 -1.6424034109171073 -1.2899252554437541 -0.2361328221271187 0.6470279440562393 -0.002667210787914124
367 0.9534913298461001 -1.6419646761511582 -1.292631555684977 -0.23371658086022465 0.6477186814916578 -0.00289644679723201
368 0.9526133320221225 -1.6415283249828352 -1.2953348279763115 -0.23130107004727204 0.6484197372596344 -0.003124806407968559
369 0.9517259717207852 -1.6410944051077572 -1.298035031728174 -0.22888628085973753 0.6491310414884155 -0.0033522973578132935
370 0.9508293003460747 -1.6406629642141226 -1.3007321255867519 -0.22647220514876154 0.6498525253146692 -0.0035789273638564072
371 0.9499233685128492 -1.6402340499857442 -1.3034260674404605 -0.22405883543952104 0.6505841208704221 -0.003804704119931515
372 0.9490082260584426 -1.639807710104983 -1.3061168144263566 -0.22164616492566672 0.6513257612701081 -0.004029635293999762
373 0.9480839220541687 -1.6393839922555904 -1.3088043229365218 -0.21923418746382717 0.6520773805977275 -0.0042537285255763065
374 0.9471505048167282 -1.6389629441254525 -1.311488548624411 -0.2168228975681771 0.6528389138941143 -0.004476991423197507
375 0.946208021919519 -1.6385446134092445 -1.3141694464111748 -0.21441229040507007 0.6536102971443116 -0.004699431561929017
376 0.945256520203849 -1.6381290478109942 -1.3168469704919556 -0.21200236178773443 0.6543914672650529 -0.004921056480914487
377 0.9442960457900555 -1.6377162950465551 -1.319521074342162 -0.20959310817103183 0.6551823620923497 -0.0051418736809643005
378 0.9433266440885302 -1.6373064028459918 -1.322191710723722 -0.20718452664627673 0.6559829203691839 -0.0053618906221842115
379 0.9423483598106513 -1.6368994189558768 -1.32485883169132 -0.20477661493611624 0.6567930817333049 -0.005581114721643598
380 0.9413612369796273 -1.6364953911415012 -1.3275223885986174 -0.20236937138946812 0.6576127867051311 -0.0057995533510831155
381 0.9403653189412491 -1.636094367188999 -1.33018233210446 -0.19996279497651592 0.6584419766757553 -0.0060172138346607715
382 0.9393606483745572 -1.635696394907384 -1.3328386121790732 -0.19755688528375956 0.6592805938950526 -0.006234103446736847
383 0.9383472673024221 -1.6353015221305025 -1.3354911781102483 -0.19515164250911984 0.6601285814598914 -0.006450229409697113
384 0.9373252171020423 -1.6349097967188997 -1.3381399785095196 -0.1927470674570939 0.6609858833024471 -0.006665598891812927
385 0.9362945385153587 -1.6345212665615998 -1.3407849613183342 -0.19034316153396236 0.6618524441786164 -0.006880219005139465
386 0.9352552716593914 -1.6341359795778025 -1.343426073814218 -0.18793992674304316 0.6627282096565322 -0.007094096803450201
387 0.9342074560364959 -1.6337539837184918 -1.3460632626169349 -0.1855373656799927 0.6636131261051785 -0.007307239280207791
388 0.9331511305445449 -1.6333753269679598 -1.3486964736946452 -0.18313548152815143 0.6645071406831038 -0.007519653366570908
389 0.9320863334870328 -1.6330000573452468 -1.3513256523700623 -0.18073427805393202 0.6654102013272316 -0.00773134592943651
390 0.9310131025831094 -1.6326282229054927 -1.3539507433266087 -0.17833375960224873 0.6663222567417676 -0.007942323769517045
391 0.9299314749775399 -1.6322598717412051 -1.3565716906145722 -0.17593393109198546 0.6672432563872014 -0.008152593619451915
392 0.928841487250595 -1.6318950519834408 -1.3591884376572665 -0.17353479801150212 0.6681731504694021 -0.008362162141953686
393 0.9277431754278728 -1.6315338118029006 -1.361800927257193 -0.1711363664141758 0.6691118899288048 -0.008571035927987358
394 0.9266365749900514 -1.6311761994109413 -1.3644091016022095 -0.16873864291397722 0.6700594264296893 -0.008779221494983608
395 0.9255217208825767 -1.6308222630604994 -1.3670129022717044 -0.1663416346810792 0.6710157123495467 -0.008986725285084794
396 0.9243986475252839 -1.63047205104693 -1.3696122702427769 -0.16394534943749597 0.6719807007685329 -0.009193553663423644
397 0.9232673888219545 -1.6301256117087617 -1.3722071458964296 -0.1615497954527533 0.6729543454590086 -0.009399712916434749
398 0.9221279781698111 -1.6297829934283654 -1.3747974690237676 -0.15915498153958593 0.6739366008751635 -0.009605209250198154
399 0.9209804484689488 -1.6294442446325377 -1.3773831788322115 -0.15676091704966236 0.6749274221427229 -0.009810048788815091
400 0.9198248321317062 -1.6291094137930013 -1.3799642139517225 -0.15436761186933518 0.6759267650487352 -0.010014237572815365
401 0.9186611610919756 -1.6287785494268192 -1.3825405124410417 -0.15197507641541622 0.6769345860314392 -0.010217781557597111
402 0.9174894668144536 -1.6284517000967258 -1.385112011793945 -0.14958332163097407 0.677950842170209 -0.010420686611897585
403 0.9163097803038333 -1.6281289144113742 -1.3876786489455155 -0.14719235898115438 0.6789754911755758 -0.010622958516295855
404 0.915122132113938 -1.6278102410254993 -1.3902403602784328 -0.1448022004490201 0.6800084913793252 -0.01082460296174684
405 0.9139265523567985 -1.627495728639998 -1.3927970816292827 -0.14241285853141228 0.6810498017246677 -0.011025625548147074
406 0.9127230707116729 -1.6271854260019265 -1.3953487482948874 -0.14002434623482865 0.6820993817564812 -0.011226031782931682
407 0.9115117164340119 -1.6268793819044145 -1.3978952950386572 -0.1376366770713197 0.6831571916116261 -0.01142582707970275
408 0.9102925183643679 -1.6265776451864982 -1.4004366560969657 -0.1352498650544016 0.684223192009329 -0.011625016756889713
409 0.9090655049372514 -1.6262802647328685 -1.4029727651855484 -0.13286392469498326 0.6852973442416356 -0.011823606036440318
410 0.9078307041899311 -1.6259872894735414 -1.4055035555059276 -0.13047887099730895 0.6863796101639309 -0.012021600042543892
411 0.9065881437711836 -1.6256987683834432 -1.4080289597518632 -0.12809471945491271 0.6874699521855264 -0.012219003800385871
412 0.9053378509499894 -1.625414750481916 -1.4105489101158295 -0.12571148604658552 0.6885683332603119 -0.012415822234933798
413 0.904079852624177 -1.6251352848321434 -1.4130633382955227 -0.12332918723235325 0.6896747168774712 -0.0126120601697552
414 0.9028141753290162 -1.6248604205404926 -1.4155721755003956 -0.12094783994946484 0.6907890670522623 -0.012807722325867282
415 0.9015408452457605 -1.6245902067557787 -1.4180753524582235 -0.11856746160838891 0.6919113483168586 -0.013002813320617972
416 0.9002598882101397 -1.6243246926684485 -1.4205727994217001 -0.11618807008881904 0.6930415257112514 -0.013197337666599397
417 0.8989713297208023 -1.6240639275096824 -1.4230644461750668 -0.11380968373568569 0.6941795647742129 -0.013391299770592967
418 0.8976751949477096 -1.6238079605504194 -1.4255502220407719 -0.11143232135517377 0.6953254315343183 -0.013584703932546233
419 0.8963715087404803 -1.623556841100301 -1.4280300558861658 -0.10905600221074652 0.6964790925010257 -0.013777554344582587
420 0.8950602956366879 -1.623310618506537 -1.4305038761302291 -0.10668074601917193 0.6976405146558149 -0.013969855090042229
421 0.8937415798701096 -1.6230693421526914 -1.432971610750334 -0.10430657294655353 0.6988096654433804 -0.01416161014255594
422 0.8924153853789278 -1.622833061457392 -1.4354331872890436 -0.10193350360436364 0.6999865127628823 -0.014352823365151167
423 0.8910817358138861 -1.6226018258729589 -1.4378885328609436 -0.09956155904547667 0.7011710249592498 -0.014543498509389996
424 0.8897406545463963 -1.6223756848839574 -1.4403375741595141 -0.09719076076020475 0.7023631708145406 -0.014733639214540135
425 0.8883921646766018 -1.6221546880056728 -1.4427802374640344 -0.09482113067233196 0.703562919539352 -0.014923249006778215
426 0.8870362890413925 -1.6219388847825078 -1.4452164486465289 -0.09245269113514824 0.7047702407642846 -0.01511233129842567
427 0.8856730502223763 -1.6217283247863032 -1.4476461331787474 -0.090085464927481 0.7059851045314581 -0.015300889387217437
428 0.8843024705538037 -1.6215230576145818 -1.450069216139186 -0.08771947524972415 0.7072074812860767 -0.015488926455603347
429 0.8829245721304481 -1.6213231328887163 -1.452485622220144 -0.08535474571986404 0.7084373418680452 -0.015676445570082305
430 0.8815393768154399 -1.6211286002520229 -1.454895275734824 -0.0829913003695014 0.7096746575036342 -0.015863449680569585
431 0.8801469062480579 -1.6209395093677768 -1.457298100624464 -0.0806291636398681 0.7109193997971942 -0.01604994161979698
432 0.8787471818514737 -1.6207559099171551 -1.4596940204655173 -0.07826836037783899 0.7121715407229163 -0.01623592410274613
433 0.8773402248404539 -1.620577851597104 -1.4620829584768642 -0.07590891583193705 0.7134310526166412 -0.016421399726114765
434 0.8759260562290163 -1.620405384118134 -1.4644648375270692 -0.073550855648333 0.7146979081677142 -0.016606370967816673
435 0.8745046968380424 -1.6202385572020375 -1.4668395801416745 -0.0711942058668362 0.7159720804108861 -0.016790840186514368
436 0.8730761673028464 -1.6200774205795379 -1.469207108510535 -0.06883899291687898 0.7172535427182599 -0.016974809621185614
437 0.8716404880806987 -1.6199220239878631 -1.4715673444951927 -0.06648524361349184 0.7185422687912809 -0.017158281390723014
438 0.870197679458307 -1.6197724171682488 -1.473920209636292 -0.06413298515327007 0.7198382326527721 -0.017341257493567307
439 0.8687477615592523 -1.6196286498633683 -1.4762656251610335 -0.06178224511033065 0.7211414086390127 -0.01752373980737397
440 0.8672907543513815 -1.6194907718146927 -1.478603511990668 -0.05943305143225993 0.7224517713918592 -0.017705730088713765
441 0.8658266776541554 -1.6193588327597814 -1.480933790748032 -0.057085432436050555 0.7237692958509101 -0.01788722997280659
442 0.8643555511459536 -1.6192328824295006 -1.4832563817651203 -0.05473941680402785 0.7250939572457111 -0.01806824097328922
443 0.8628773943713349 -1.6191129705451737 -1.4855712050906986 -0.052395033579764806 0.7264257310880038 -0.0182487644820165
444 0.861392226748253 -1.6189991468156641 -1.4878781804979577 -0.050052312163986555 0.7277645931640134 -0.018428801768896757
445 0.8599000675752296 -1.6188914609343883 -1.490177227492202 -0.04771128231046173 0.729110519526779 -0.018608353981760344
446 0.8584009360384823 -1.6187899625762618 -1.4924682653185801 -0.04537197412188289 0.7304634864885222 -0.01878742214626251
447 0.8568948512190082 -1.6186947013945803 -1.4947512129698524 -0.043034418045734206 0.7318234706130582 -0.018966007165819945
448 0.8553818320996239 -1.6186057270178318 -1.4970259891941955 -0.04069864487014612 0.7331904487082436 -0.019144109821580747
449 0.8538618975719603 -1.6185230890464464 -1.499292512503045 -0.03836468571973803 0.7345643978184653 -0.01932173077242876
450 0.8523350664434134 -1.6184468370494787 -1.5015507011789737 -0.03603257205144701 0.7359452952171678 -0.019498870555021194
451 0.8508013574440503 -1.6183770205612298 -1.5038004732836079 -0.03370233565034433 0.7373331183994182 -0.01967552958386044
452 0.8492607892334703 -1.6183136890778018 -1.506041746665575 -0.031374008625437655 0.7387278450745103 -0.019851708151399174
453 0.8477133804076216 -1.6182568920535942 -1.5082744389684917 -0.02904762340546033 0.7401294531586063 -0.020027406428179347
454 0.846159149505572 -1.618206678897736 -1.5104984676389803 -0.02672321273464739 0.7415379207674163 -0.02020262446300495
455 0.8445981150162356 -1.6181630989704585 -1.5127137499347232 -0.024400809668497586 0.7429532262089142 -0.020377362183148208
456 0.8430302953850531 -1.6181262015794073 -1.5149202029325461 -0.022080447569521704 0.7443753479760924 -0.020551619394589174
457 0.8414557090206276 -1.6180960359758965 -1.5171177435365364 -0.01976216010297775 0.7458042647397515 -0.020725395782288925
458 0.8398743743013138 -1.6180726513511026 -1.5193062884861883 -0.01744598123259233 0.747239955341328 -0.02089869091049606
459 0.8382863095817623 -1.6180560968322037 -1.5214857543645812 -0.015131945216268743 0.7486823987857579 -0.02107150422308645
460 0.8366915331994169 -1.6180464214784607 -1.5236560576065854 -0.012820086601781272 0.7501315742343766 -0.02124383504393587
461 0.8350900634809667 -1.618043674277243 -1.5258171145070951 -0.010510440222456853 0.7515874609978543 -0.021415682577326147
462 0.8334819187487514 -1.6180479041400004 -1.5279688412292893 -0.008203041192843012 0.7530500385291682 -0.02158704590838348
463 0.8318671173271204 -1.6180591598981813 -1.5301111538129177 -0.00589792490436363 0.7545192864166094 -0.02175792400355014
464 0.8302456775487446 -1.6180774902990978 -1.5322439681826103 -0.0035951270209615025 0.7559951843768261 -0.021928315711088314
465 0.8286176177608813 -1.6181029440017407 -1.5343672001562125 -0.0012946834747290413 0.7574777122479018 -0.022098219761616546
466 0.8269829563315938 -1.6181355695725417 -1.5364807654531392 0.0010033695384740506 0.7589668499824685 -0.022267634768678136
467 0.8253417116559214 -1.6181754154810875 -1.5385845797027509 0.003298995563413775 0.7604625776408556 -0.022436559229341825
468 0.8236939021620034 -1.6182225300957864 -1.5406785584527503 0.005592157889886795 0.7619648753842726 -0.022604991524834122
469 0.8220395463171555 -1.6182769616794854 -1.5427626171775948 0.007882819557136485 0.7634737234680286 -0.022772929921203236
470 0.8203786626338978 -1.6183387583850422 -1.5448366712869268 0.010170943358279503 0.764989102234784 -0.02294037257001432
471 0.8187112696759358 -1.618407968250852 -1.5469006361340185 0.012456491844742248 0.7665109921078394 -0.02310731750907586
472 0.8170373860640927 -1.618484639196331 -1.5489544270242304 0.014739427330707494 0.7680393735844567 -0.023273762663196796
473 0.8153570304821941 -1.6185688190173542 -1.5509979592234815 0.017019711897569584 0.7695742272292168 -0.023439705844974342
474 0.8136702216829036 -1.618660555381656 -1.5530311479667311 0.019297307398398633 0.7711155336674096 -0.023605144755611807
475 0.8119769784935107 -1.6187598958241858 -1.5550539084664674 0.021572175462412763 0.7726632735784599 -0.02377007698576656
476 0.8102773198216697 -1.618866887742427 -1.5570661559212047 0.023844277499457275 0.774217427689387 -0.02393450001642769
477 0.8085712646610904 -1.618981578391677 -1.559067805523985 0.026113574704491327 0.7757779767682977 -0.024098411219822594
478 0.8068588320971792 -1.6191040148802902 -1.5610587724708846 0.02838002806207975 0.7773449016179146 -0.02426180786035294
479 0.8051400413126317 -1.6192342441648855 -1.5630389719695215 0.030643598350890897 0.7789181830691372 -0.024424687095558863
480 0.8034149115929768 -1.619372313045519 -1.5650083192475621 0.032904246148198965 0.7804978019746379 -0.024587045977111494
481 0.8016834623320708 -1.6195182681608247 -1.5669667295612284 0.03516193183438986 0.7820837392024915 -0.024748881451833335
482 0.799945713037543 -1.6196721559831215 -1.5689141182037993 0.037416615597470455 0.7836759756298383 -0.024910190362745784
483 0.7982016833361921 -1.6198340228134913 -1.5708504005141077 0.03966825743757962 0.7852744921365811 -0.02507096945014385
484 0.7964513929793331 -1.6200039147768268 -1.5727754918850294 0.041916817171500906 0.7868792695991159 -0.025231215352697275
485 0.794694861848095 -1.6201818778168517 -1.5746893077719624 0.04416225443717544 0.7884902888840969 -0.025390924608577736
486 0.7929321099586695 -1.6203679576911139 -1.576591763701295 0.04640452869821436 0.7901075308422336 -0.025550093656611428
487 0.7911631574675101 -1.6205621999659543 -1.5784827752788608 0.04864359924840928 0.7917309763021229 -0.025708718837457074
488 0.7893880246764828 -1.6207646500114505 -1.580362258198377 0.05087942521624148 0.7933606060641134 -0.02586679639480801
489 0.7876067320379662 -1.6209753529963382 -1.5822301282498648 0.0531119655693858 0.7949964008942046 -0.026024322476619004
490 0.7858193001599035 -1.6211943538829126 -1.5840863013280526 0.05534117911921129 0.7966383415179781 -0.026181293136355865
491 0.784440146545079 -1.6228004710915405 -1.5873453593918 0.05724434311073522 0.7985358120267716 -0.02633770433426846
492 0.7832494383130542 -1.6240787192821353 -1.5902322955784876 0.059377961605459634 0.8005920091992773 -0.026472466983296715
493 0.7822057440740428 -1.6250732972963897 -1.5927991049355044 0.061712599028318244 0.8027273646507952 -0.026568932346984913
494 0.781269488504409 -1.6258306051853397 -1.5950987219261874 0.06421588111482532 0.804876706237586 -0.026616576841125835
495 0.7804040941682653 -1.6263965111988279 -1.5971822811254444 0.06685459513009874 0.8069887185430884 -0.026610171207861782
496 0.7795767347276961 -1.6268143973770874 -1.599097222837741 0.06959628067695356 0.8090249575074321 -0.026548909301677574
497 0.7787587734879909 -1.6271238554494398 -1.6008860914106944 0.0724103843091833 0.8109585858483435 -0.026435536457527678
498 0.7779259498608888 -1.627359901541066 -1.6025858767498 0.07526905220481037 0.8127729525254591 -0.026275510774862704
499 0.777058366439518 -1.6275525910631803 -1.6042277674242091 0.07814762864213762 0.8144601067460596 -0.026076223618783177
500 0.7761403213870552 -1.6277269341165708 -1.6058372065590545 0.08102491881849383 0.8160193131501141 -0.02584629856345003
501 0.7751600245230811 -1.6279030310894582 -1.6074341638827188 0.08388326531269938 0.817455617529604 -0.025594981255244197
502 0.7741092304070376 -1.628096365176943 -1.6090335563738951 0.0867084794038743 0.8187784996335311 -0.025331626563147396
503 0.772982817424679 -1.628318202390724 -1.6106457652588952 0.08948966184645969 0.820000639684882 -0.02506528412436282
504 0.7717783380273575 -1.6285760603312294 -1.6122772088871613 0.0922189424462855 0.8211368171051371 -0.024804379098213907
505 0.7704955616178454 -1.6288742150701903 -1.6139309398965072 0.0948911635838185 0.8222029529533381 -0.024556481638873272
506 0.7691360279940566 -1.6292142215874643 -1.6156072417991092 0.09750352935300179 0.8232153014072221 -0.024328156249027486
507 0.7677026257196825 -1.6295954279387772 -1.6173042053446298 0.10005523893652522 0.8241897901239771 -0.024124880697252826
508 0.7661992063218622 -1.6300154672057723 -1.6190182692853485 0.10254712000915615 0.8251415045242557 -0.023951023458018222
509 0.7646302418954507 -1.6304707146589066 -1.6207447138611695 0.10498127522459604 0.8260843070099991 -0.02380986853695331
510 0.7630005306138002 -1.6309567006692645 -1.622478098671672 0.10736075215086398 0.8270305789284034 -0.02370367694426759
511 0.7613149518975606 -1.6314684728388902 -1.6242126397140517 0.10968924438771875 0.82799107078149 -0.02363377484987516
512 0.7595782706491243 -1.6320009035917467 -1.6259425232527531 0.11197082908008135 0.8289748447616374 -0.023600659479275927
513 0.7577949880679272 -1.6325489420321166 -1.62766215680379 0.11420974370561855 0.8299892931278503 -0.023604114988005433
514 0.7559692351375595 -1.6331078111606587 -1.6293663597938517 0.11641020293510937 0.8310402161394738 -0.023643331798839994
515 0.7541047039069121 -1.633673153466194 -1.6310504983226681 0.11857625460047365 0.8321319441112839 -0.02371702413072266
516 0.7522046111368083 -1.6342411294273194 -1.6327105698685842 0.12071167239539754 0.8332674895014459 -0.023823541638339833
517 0.750271688694996 -1.6348084745344997 -1.634343244714506 0.12281988189035531 0.8344487166384165 -0.02396097217800152
518 0.7483081951894721 -1.6353725210847145 -1.635945871350061 0.12490391575636375 0.8356765185862163 -0.024127233693626612
519 0.7463159436628016 -1.6359311912405565 -1.6375164531710058 0.12696639372875923 0.836950992606858 -0.0243201540620005
520 0.7442963406606337 -1.6364829677399544 -1.6390536035153067 0.1290095227579861 0.8382716075938975 -0.024537538443946513
521 0.7422504325749422 -1.637026848261295 -1.6405564855256876 0.1310351129350993 0.8396373586378111 -0.02477722425960946
522 0.7401789557949227 -1.6375622888668082 -1.6420247425927503 0.13304460508940058 0.8410469054840553 -0.02503712434894312
523 0.7380823878346255 -1.638089141237486 -1.643458424288404 0.13503910638078315 0.8424986930240914 -0.025315259203645194
524 0.7359609972153471 -1.6386075876407311 -1.6448579118138795 0.13701943070216852 0.8439910531045282 -0.02560977937741517
525 0.7338148904410069 -1.6391180767914904 -1.6462238461148195 0.1389861412277809 0.8455222878519771 -0.025918979311956143
526 0.7316440549028037 -1.6396212630205929 -1.647557060998776 0.14093959295926572 0.8470907354049865 -0.026241303871345753
527 0.7294483969785235 -1.6401179504798808 -1.6488585228556765 0.1428799736103973 0.848694819440819 -0.026575348871671105
528 0.7272277749501987 -1.6406090435110339 -1.6501292779456151 0.14480734161638145 0.850333084209484 -0.026919856839726693
529 0.7249820266533712 -1.6410955037929895 -1.6513704076873015 0.1467216604459357 0.8520042169675386 -0.027273709146506248
530 0.7227109919964878 -1.64157831446363 -1.6525829919540587 0.14862282872891977 0.8537070597667267 -0.02763591554918828
531 0.7204145306561598 -1.6420584510816025 -1.653768080056537 0.15051070598872343 0.8554406125229023 -0.028005602048820067
532 0.7180925353701881 -1.6425368590469234 -1.6549266688531192 0.15238513398915063 0.8572040291919532 -0.028381997837928715
533 0.7157449413228439 -1.6430144369252324 -1.656059687269174 0.1542459538743736 0.8589966087318195 -0.02876442197928908
534 0.7133717321532709 -1.643492025010068 -1.657167986412973 0.15609301940305337 0.860817782350518 -0.02915227032912448
535 0.7109729431250968 -1.643970398399814 -1.6582523344372908 0.15792620665995277 0.8626670983437189 -0.029545003098844287
536 0.70854866197992 -1.6444502638509126 -1.6593134153001812 0.15974542067650443 0.8645442056235308 -0.029942133341632104
537 0.707392771718122 -1.648642952518591 -1.6639986125472312 0.16062087303734665 0.8671454333836321 -0.030343216555361457
538 0.7067051922058508 -1.6518357797600638 -1.6675829552209744 0.1621518005758472 0.8701543129454332 -0.030719605554447155
539 0.7063692304676383 -1.6542118074419443 -1.6702821690339773 0.16422974799712553 0.8733485689734022 -0.031015647431255244
540 0.7062829443111165 -1.655946903070972 -1.6722968313880473 0.16674719229155072 0.8765583034432692 -0.031194366749364735
541 0.706358976292217 -1.657199167337153 -1.673802980382333 0.1696038777310282 0.8796584039920641 -0.03123496890719193
542 0.706523705261675 -1.6581043912187698 -1.6749488475641785 0.1727099828617376 0.8825611147206105 -0.03113004633356334
543 0.7067161313343466 -1.6587752797863666 -1.6758552337820642 0.1759872922882159 0.8852093068941264 -0.030882754173205334
544 0.7068866854805389 -1.6593027610145903 -1.6766177851159507 0.17936921265083391 0.8875705911517483 -0.030504146783495768
545 0.7069960398018309 -1.6597582706914116 -1.6773100677496824 0.18280017597234763 0.8896322397691466 -0.030010792774783388
546 0.7070139439875787 -1.6601963537908797 -1.6779868111066214 0.18623475363211017 0.8913968309306413 -0.02942272696934207
547 0.7069180958693316 -1.6606572300456026 -1.67868699636442 0.18963665900562174 0.8928785222653842 -0.028761755246856802
548 0.7066930509879918 -1.6611691614193247 -1.6794366514522363 0.1929777293320322 0.8940998743998736 -0.02805010072119758
549 0.7063291781434018 -1.6617505660264635 -1.6802513141533653 0.19623692911627202 0.8950891616505913 -0.027309363498004363
550 0.7058216705608301 -1.6624118766375102 -1.6811381737065338 0.19939939341158391 0.895878120384611 -0.026559757972034966
551 0.7051696237883341 -1.6631571641078107 -1.6820979203205577 0.20245551917651955 0.8965000945685809 -0.025819588520148876
552 0.7043751912545175 -1.6639855514271142 -1.6831263354666421 0.2054001097808013 0.8969885429896592 -0.025104924580246418
553 0.7034428267119367 -1.6648924416585242 -1.6842156523174148 0.2082315775578884 0.897375874581222 -0.024429438163431908
554 0.7023786199796145 -1.6658705780746652 -1.685355710185594 0.21095120979314183 0.897692578348552 -0.023804369974385124
555 0.7011897289730943 -1.6669109500784973 -1.6865349218170689 0.2135625035882215 0.8979666135828128 -0.023238593975119393
556 0.6998839074459992 -1.6680035552248733 -1.6877410689634198 0.21607057426917736 0.898223025191011 -0.02273875408322519
557 0.6984691245582209 -1.6691380261062656 -1.6889619399611655 0.21848164043962978 0.8984837486351028 -0.022309450536055122
558 0.6969532696191296 -1.6703041307840278 -1.6901858227634694 0.22080258666587882 0.8987675695074646 -0.021953457142738178
559 0.6953439332983825 -1.6714921563526086 -1.6914018674851539 0.22304060243720827 0.8990902042999509 -0.02167195409975364
560 0.693648255310733 -1.6726931865875494 -1.6926003334920237 0.22520289377848046 0.8994644714011846 -0.021464764207176412
561 0.691872828032456 -1.6738992859843442 -1.6937727369365894 0.22729646194580794 0.8999005246072718 -0.021330583157159907
562 0.6900236455981148 -1.6751036035050217 -1.6949119151008523 0.22932794216583038 0.9004061252078636 -0.021267197055495585
563 0.6881060886218994 -1.6763004098162404 -1.6960120237907963 0.23130349445356752 0.9009869327417047 -0.021271682476102127
564 0.686124935638648 -1.677485081661988 -1.697068483307931 0.23322873815654863 0.9016467985482948 -0.021340586143108166
565 0.6835743228297299 -1.6772573936755077 -1.6967623739545672 0.23547294537797483 0.9021244639697966 -0.021470082801229536
566 0.680799577245961 -1.6774324137471008 -1.696843670950518 0.2374126912730833 0.9025526645521845 -0.021662122015670478
567 0.6778388427948784 -1.6778912383450908 -1.6971863833182899 0.2391093263493094 0.903009798896787 -0.02193732956143421
568 0.6747234363449703 -1.6785431829249569 -1.6976946381096454 0.24061254409470162 0.9035525523522442 -0.022306737454113414
569 0.6714789795506961 -1.6793196012800309 -1.69829619098067 0.2419626056235704 0.9042204596444613 -0.022774420732366588
570 0.6681264070941194 -1.6801691972646144 -1.6989374047101062 0.24319205403952113 0.9050397086025914 -0.02333948552279398
571 0.6646828434621751 -1.6810543549258685 -1.6995792728686974 0.24432709358089585 0.9060262612041874 -0.02399757372985044
572 0.6611623479805354 -1.681948202281253 -1.7001942243015435 0.24538873052348903 0.9071883754987 -0.024742001021986114
573 0.6575765344933878 -1.6828322352086 -1.7007635394045586 0.24639372936671095 0.9085286129302612 -0.025564613282807416
574 0.6539350768943097 -1.6836943898757832 -1.7012752631923502 0.24735541560810273 0.9100454125577587 -0.026456425562467488
575 0.6502461144985551 -1.6845274854046774 -1.7017225299299512 0.24828434607336705 0.9117343077779311 -0.02740809276892257
576 0.6465165722573699 -1.6853279762416322 -1.7021022308874212 0.24918886344752403 0.9135888533333402 -0.028410250520663052
577 0.6427524104957073 -1.6860949638056497 -1.7024139672296834 0.25007554996311276 0.9156013215434393 -0.02945375636612415
578 0.6389588176736053 -1.6868294236634502 -1.7026592377252652 0.2509495943712228 0.9177632176352796 -0.030529855154081128
579 0.6351403580282512 -1.6875336098288967 -1.7028408175140084 0.2518150855448688 0.9200656553827936 -0.031630287231378416
580 0.6313010841469702 -1.6882106026754211 -1.7029622902490416 0.2526752450673159 0.9224996263893962 -0.032747354047069244
581 0.6274446227497938 -1.6888639716371145 -1.703027701657302 0.2535326099250022 0.9250561894765748 -0.033873952452384816
582 0.6235742403402356 -1.689497528340643 -1.7030413078860906 0.2543891750425178 0.9277266008330668 -0.035003586355704226
583 0.6196928939703172 -1.6901151499575178 -1.7030073968214978 0.2552465039727836 0.9305024007976669 -0.03613036230437074
584 0.6158032711762798 -1.6907206563010062 -1.7029301648054394 0.2561058146798677 0.9333754692978277 -0.03724897392447052
585 0.6119078221659647 -1.691317727457778 -1.7028136348139178 0.25696804608741824 0.9363380589227878 -0.038354678873873636
586 0.6080087865558704 -1.691909851525724 -1.7026616052037746 0.2578339099476283 0.9393828122443074 -0.03944327098326867
587 0.6041082163383173 -1.6925002943438523 -1.7024776206322112 0.25870393162714644 0.942502768186854 -0.04051104951547668
588 0.6002079962793349 -1.693092084987292 -1.7022649587637348 0.2595784826051651 0.9456913608819721 -0.04155478691543604
589 0.5963098625799813 -1.6936880123116511 -1.7020266279711893 0.2604578068232688 0.94894241342404 -0.04257169601087744
590 0.5924154203551635 -1.6942906290217508 -1.7017653724792896 0.26134204249973325 0.9522501281980713 -0.04355939732341302
591 0.5885261602754721 -1.6949022606642776 -1.701483682354125 0.2622312406042296 0.9556090749109144 -0.044515886934667535
592 0.5846434745633491 -1.6955250176519454 -1.7011838064669007 0.26312538086397913 0.9590141770743253 -0.04543950520086888
593 0.5807686724224423 -1.6961608089620206 -1.7008677671031376 0.26402438592242944 0.9624606974221923 -0.04632890650533294
594 0.5769029948983486 -1.696811356551716 -1.7005373752901265 0.2649281340816275 0.9659442225638895 -0.04718303016865005
595 0.5730476291124152 -1.69747820982779 -1.7001942462086324 0.2658364709170218 0.9694606470579158 -0.04800107259130583
596 0.5692037217720267 -1.698162759722664 -1.699839814266157 0.26674921994798245 0.9730061570169062 -0.048782460675555556
597 0.5653723918364875 -1.6988662520844235 -1.6994753475594093 0.26766619247041196 0.9765772133136374 -0.04952682655713883
598 0.5615547422040269 -1.6995898001987857 -1.6991019615592116 0.26858719660270597 0.980170534438044 -0.050233983668836336
599 0.5577518702803044 -1.700334396339576 -1.6987206319243955 0.2695120455577629 0.9837830790504503 -0.05090390415402426
600 0.5539648772904817 -1.7011009222996294 -1.6983322064016702 0.27044056512769843 0.98741202828109 -0.051536697647196074
601 0.5501948762043521 -1.7018901588932092 -1.6979374158030245 0.2713726003513598 0.9910547678368964 -0.052132591438438625
602 0.5464429981564309 -1.7027027944490631 -1.6975368840760345 0.27230802132540594 0.9947088699908924 -0.052691912039063066
603 0.5427103972598187 -1.7035394323337156 -1.697131137499109 0.27324672811599415 0.9983720755454805 -0.053215068165324834
604 0.5382230276021873 -1.702661586705641 -1.6950765598471058 0.27466210883217834 1.0016993542433315 -0.05370253515596855
605 0.533651189464676 -1.702551367021318 -1.6937737355398013 0.275675926951179 1.0049214366921106 -0.05414774347399768
606 0.5290199884936181 -1.702900966992074 -1.6929050531800331 0.2764342653858004 1.0081345123819436 -0.05459229134003107
607 0.524349735013609 -1.7035253820004195 -1.6922785315962554 0.2770284511663113 1.0113964693132915 -0.05505737569546658
608 0.5196573626808101 -1.7043132804060033 -1.6917783102346684 0.2775167429515776 1.014740826397884 -0.05555201572681761
609 0.5149574740185714 -1.7051978632856108 -1.6913348468020126 0.27793723023308775 1.0181856405986696 -0.05607791041762068
610 0.5102630094451972 -1.7061393589344473 -1.6909068539759857 0.2783155860102699 1.0217391056743799 -0.056632374358704204
611 0.5055856340824175 -1.707114414303327 -1.6904702934289804 0.2786697549600695 1.0254030467740558 -0.0572101443337302
612 0.5009359403854617 -1.7081096386345216 -1.690011653933589 0.27901279253169664 1.0291751035105152 -0.0578045090749417
613 0.49632354149482244 -1.709117670988096 -1.6895238454423975 0.27935458053730133 1.0330501066743056 -0.058408027866449844
614 0.491757105976442 -1.7101347888976768 -1.6890036940391508 0.2797028592821864 1.0370209642395403 -0.059012996776917556
615 0.48724436597102716 -1.7111594587560088 -1.6884504158077989 0.2800638455745465 1.0410792510107914 -0.05961175826972591
616 0.48279211792661203 -1.7121914603457629 -1.6878646873985201 0.28044260212368943 1.0452156199646327 -0.060196912084343086
617 0.4784062266763231 -1.7132313596599018 -1.6872480783600887 0.28084325999958887 1.049420105931974 -0.06076146233955863
618 0.4740916382655095 -1.7142801913587467 -1.686602701175831 0.2812691563278311 1.0536823631169296 -0.06129892187690133
619 0.4698524035944001 -1.7153392660567026 -1.6859309911137934 0.28172292486572703 1.057991860230893 -0.06180338644036329
620 0.46569171292380046 -1.7164100509390463 -1.685235562744831 0.28220656185344284 1.0623380464207375 -0.062269586254692685
621 0.4616119401340694 -1.7174940928120097 -1.6845191114417728 0.2827214800649376 1.0667104949772126 -0.06269291961444629
622 0.4576146950322269 -1.7185929653992211 -1.6837843413690268 0.2832685581404839 1.071099028325483 -0.0630694714199475
623 0.45370088176917195 -1.7197082304823077 -1.6830339095096072 0.2838481887255272 1.075493825959775 -0.06339601868852733
624 0.4498707614232898 -1.7208414071844593 -1.6822703800859855 0.28446032682992756 1.0798855161205307 -0.06367002461317503
625 0.44612401693545034 -1.7219939464649041 -1.681496186522485 0.28510453862524215 1.0842652517072617 -0.06388962253800239
626 0.4424598187806952 -1.7231672094576456 -1.6807135996362859 0.28578005027455927 1.088624770913894 -0.06405359114815527
627 0.4388768899924867 -1.7243624491142657 -1.6799247015209846 0.28648579611855834 1.0929564432075742 -0.06416132215672005
628 0.4353735693906976 -1.72558079499643 -1.6791313649151702 0.28722046547929664 1.097253301453445 -0.06421278176959158
629 0.4319478720901223 -1.7268232411999151 -1.6783352379292469 0.28798254739685153 1.1015090611649705 -0.06420846719796056
630 0.4285975465752354 -1.7280906373988205 -1.6775377339625452 0.28877037272449574 1.105718128006135 -0.064149359456415
631 0.42532012781690787 -1.7293836829493294 -1.676740026555482 0.28958215313962343 1.1098755947780328 -0.06403687362973219
632 0.4221129860779779 -1.7307029239289495 -1.6759430488308942 0.290416016759547 1.1139772291867391 -0.06387280771479027
633 0.41897337120816835 -1.7320487529310367 -1.6751474971057627 0.29127004017297337 1.1180194537151724 -0.0636592910494851
634 0.41589845236610773 -1.733421411394184 -1.6743538382068803 0.29214227680510824 1.1219993189141098 -0.063398733232814
635 0.41288535322797754 -1.7348209942227244 -1.6735623200012 0.29303078162618995 1.125914471392122 -0.06309377432416324
636 0.409931182848767 -1.7362474564451322 -1.6727729846491777 0.293933632290912 1.1297631177260439 -0.06274723698967599
637 0.4070330624328379 -1.7377006216569186 -1.6719856841014364 0.2948489468613617 1.1335439854370144 -0.06236208114312089
638 0.404188148344583 -1.7391801919990282 -1.671200097379649 0.2957748983204455 1.1372562820857597 -0.061941361510991555
639 0.4013936517462674 -1.7406857594278347 -1.6704157492067686 0.2967097261275227 1.140899653437609 -0.06148818843906745
640 0.3986468552875476 -1.74221681803595 -1.6696320295761529 0.2976517451038085 1.1444741415354103 -0.06100569215223183
641 0.3959451272888319 -1.7437727771827956 -1.6688482138716887 0.29859935196220455 1.1479801433994719 -0.060496990582409885
642 0.39328593385823774 -1.745352975190127 -1.6680634831711294 0.29955102981432685 1.1514183709503973 -0.05996516079213851
643 0.3906668493597762 -1.7469566933513314 -1.6672769443829039 0.3005053509961899 1.154789812625762 -0.05941321394432992
644 0.38808556560968 -1.7485831699959649 -1.6664876498839423 0.3014609785527714 1.1580956970378138 -0.05884407370284384
645 0.385539900120476 -1.7502316143447032 -1.6656946163441535 0.3024166667102368 1.1613374588996477 -0.05826055789395349
646 0.38302780364123834 -1.751901219886789 -1.6648968424438866 0.30337126064291214 1.1645167073346638 -0.05766536321591885
647 0.3805473671609011 -1.7535911770141508 -1.6640933252154826 0.3043236958105972 1.1676351965814928 -0.05706105275271888
648 0.3780968284535524 -1.7553006846552592 -1.663283074770032 0.30527299710139666 1.170694799016785 -0.056450046028382744
649 0.37567457815462685 -1.7570289606685647 -1.6624651272063207 0.3062182779672671 1.1736974803437512 -0.05583461132992225
650 0.37327916526941357 -1.7652088347092343 -1.6729884634827414 0.3051201804904809 1.1766207545711853 -0.05521686002895978
651 0.37350806811084325 -1.7729694692753508 -1.6813119182554306 0.3049397756334751 1.1812759613811799 -0.05515779597341715
652 0.37641570563924875 -1.780632721438994 -1.6879814981577546 0.30566507641801294 1.1872233879283476 -0.055354632303501496
653 0.3790938969054717 -1.7829806419003251 -1.6883286406182312 0.30886628754284995 1.1929964052658575 -0.05555502712920872
654 0.3818203019053791 -1.7842527334686213 -1.687538713846359 0.3127467943039511 1.1981873414660589 -0.055338458826374656
655 0.38460297093393925 -1.7853419567350006 -1.6866807193424487 0.31689311114693747 1.2027135414950811 -0.05466058765193259
656 0.3873968437295095 -1.7864406963986652 -1.6859701706950885 0.3211822008001414 1.2065651450963732 -0.053559256276067516
657 0.39014602265610016 -1.7875838088551945 -1.685432218008673 0.3255567007589003 1.2097535807267599 -0.052089525998775546
658 0.3927948912091863 -1.788773536600669 -1.6850530054323216 0.32997376286594055 1.2122999506657093 -0.05030876171312032
659 0.39529173692348396 -1.7900076867237462 -1.6848132644519922 0.33439399458837143 1.2142324053842457 -0.04827325765236431
660 0.39759034743552757 -1.7912853660564834 -1.6846948239889303 0.33877964639526714 1.2155853815942452 -0.04603740672002302
661 0.3996508670796842 -1.7926075782563293 -1.6846811150192345 0.34309485366740833 1.2163990506452893 -0.04365336009270338
662 0.3988638714300324 -1.7889967112081204 -1.6801661588501466 0.34875373725434 1.2157869683187572 -0.041170739118964655
663 0.3981285441195031 -1.7894692209178757 -1.680373802101752 0.35252631240173427 1.21462226674258 -0.03846055324096286
664 0.39706668455535576 -1.7905866269042092 -1.681245707452157 0.355788169506716 1.2132497818792007 -0.035880832891787916
665 0.39562118626464443 -1.7918199887240036 -1.682147698242786 0.3587441491089779 1.2117687532731491 -0.03350260624913028
666 0.3937913446938007 -1.7930950683850895 -1.6829828468731152 0.3614196382441606 1.210238850001218 -0.031351455483678986
667 0.39158618897282627 -1.7943964499464928 -1.6837255029644207 0.36381929148291875 1.2087115090981349 -0.029443552695686763
668 0.3917357718498792 -1.800911755471315 -1.689167585671606 0.364427632026085 1.2082139172576214 -0.02779043713379919
669 0.39128136020663784 -1.8034158855237488 -1.6897930729930184 0.36655189847306 1.2079571475072515 -0.026563786140883634
670 0.39056222902267274 -1.8052798943541468 -1.6896025490206208 0.36881608665165866 1.2076583914754868 -0.025460447018368502
671 0.38962904915079594 -1.8070469648643421 -1.689233418837236 0.37099238847590854 1.2072937448029486 -0.024441263829724977
672 0.38849337752549307 -1.808817022054539 -1.6887977114060513 0.3730355830831187 1.206881355433163 -0.023509408353503906
673 0.3871611003189774 -1.810607060024069 -1.6883100614775979 0.3749359735784209 1.2064461972063911 -0.02267417266560011
674 0.3856383800475455 -1.812418124406887 -1.6877671492566861 0.3766919337445127 1.2060132762971227 -0.02194423051233983
675 0.38393265393571374 -1.8142482145839685 -1.6871629609720842 0.3783045324259111 1.205606185036243 -0.02132641321439589
676 0.3820526894064874 -1.8160948194086475 -1.6864917515034308 0.37977638617818543 1.2052467143074626 -0.020825552730746346
677 0.3800644394875619 -1.8180750968360386 -1.685801269246721 0.3810972790488659 1.2049615546513646 -0.02044454008921856
678 0.377916934868325 -1.8199985985081797 -1.684955824038665 0.3823162391677451 1.2047628928633023 -0.02018692159256926
679 0.37562715618093284 -1.8219194107791263 -1.6840182992836459 0.3834157048170613 1.204661225141376 -0.02004697437782375
680 0.37320833201966613 -1.8238461396745935 -1.682998786462572 0.38439755406064824 1.2046692581511387 -0.02002188599401097
681 0.37067346925277644 -1.8257791299434531 -1.6818982542477672 0.3852677882142545 1.2047984474278115 -0.020108248402934632
682 0.36803590338507997 -1.8277174081508232 -1.6807166320317128 0.3860335807518218 1.2050583755359066 -0.02030151859719368
683 0.36530928265575596 -1.8296599635939579 -1.679454251441854 0.3867026394800093 1.2054566658430554 -0.020596032894675504
684 0.3625074424764656 -1.8316059696829343 -1.6781120506381388 0.38728300244452896 1.2059990047994664 -0.020985124667540683
685 0.3596442573412559 -1.8335548057714783 -1.6766915498143657 0.38778291684729393 1.2066891935208652 -0.021461261467758595
686 0.35673348808180705 -1.8355060406532175 -1.6751947862469139 0.3882107358210444 1.207529214036713 -0.02201618563661438
687 0.3537886299436861 -1.837459409159339 -1.673624244847561 0.3885748210920889 1.2085193076705718 -0.022641055051702486
688 0.3508227650775444 -1.8394147890045602 -1.6719827915676353 0.3888834496399996 1.2096580653217708 -0.023326582891441974
689 0.3478484228646555 -1.8413721800609404 -1.6702736111891985 0.38914472459733424 1.2109425297417549 -0.024063175574282822
690 0.34487745136866976 -1.8433316867786818 -1.6685001494928275 0.38936649126037126 1.2123683096952818 -0.024841067922883063
691 0.3440330303328361 -1.8489997826801137 -1.6700163585564403 0.3884672577784056 1.2146741920280277 -0.025650454425631016
692 0.3429287384020888 -1.851713567066593 -1.66810898722264 0.38884805216181517 1.2171419545859177 -0.026591448285134264
693 0.3418276753961489 -1.8539233051000095 -1.6656403210440223 0.38949827424523775 1.2195643258886986 -0.027430291925345872
694 0.3407690798529317 -1.8560642888084624 -1.66311267176391 0.3902324394108146 1.2219010461002648 -0.028132990217033645
695 0.33974898878660387 -1.8582090387611236 -1.6606076280815238 0.391012925813823 1.2241406559996075 -0.028702004244273206
696 0.33875591030540647 -1.8603685845982518 -1.658135596062691 0.391826950769266 1.226277917458187 -0.029146366774826696
697 0.33777734546841465 -1.8625440589935212 -1.6556954389617389 0.3926656433789278 1.2283100907823281 -0.029476515885332864
698 0.3368009794665681 -1.8647349906814066 -1.6532840704896354 0.3935207670469494 1.2302362736758543 -0.029703356811443805
699 0.3358149658278061 -1.866940576678383 -1.6508979527178944 0.39438429220784527 1.2320572062853907 -0.02983800588921221
700 0.3348080585997528 -1.8691598834706409 -1.6485333591312257 0.3952483981221512 1.2337751372698833 -0.029891644611127
701 0.33376971318851467 -1.871391894273337 -1.6461864577426975 0.39610553123898073 1.2353936925989704 -0.029875397276402416
702 0.33269017390341876 -1.8736355347646425 -1.643853366314702 0.39694846627446534 1.2369177404119995 -0.02980022003716397
703 0.33156055066665874 -1.8758896949161836 -1.6415302000622056 0.3977703626614132 1.2383532523501368 -0.029676799715506928
704 0.3303728850826154 -1.8781532488697281 -1.6392131143444688 0.39856481536550886 1.2397071625583438 -0.02951546209722499
705 0.3291202056965754 -1.8804250728426999 -1.6368983426620876 0.3993258998597578 1.2409872255209742 -0.029326089514128507
706 0.32779657216101704 -1.8827040608440282 -1.6345822300864352 0.4000482111315315 1.2422018737803453 -0.029118047506977485
707 0.3263971079569922 -1.884989137997315 -1.632261262285772 0.40072689659341737 1.2433600764863026 -0.028900120351312727
708 0.324918021272426 -1.887279271318744 -1.6299320903676462 0.40135768275654876 1.2444711996501416 -0.02868045524017837
709 0.3233566136291254 -1.8895734778683033 -1.6275915518121888 0.4019368955129026 1.2455448689320059 -0.028466514946998412
710 0.3217112758908244 -1.8918708302880067 -1.6252366878266995 0.4024614738644358 1.2465908357790816 -0.028265038832918442
711 0.3199814713901073 -1.8941704598611742 -1.6228647575083388 0.4029289769360708 1.2476188477526478 -0.028082012109499285
712 0.31816770609306905 -1.8964715573675732 -1.6204732492538394 0.4033375841225412 1.2486385239324787 -0.02792264331309856
713 0.31627148598015614 -1.8987733721580076 -1.6180598898928902 0.40368608825357316 1.2496592363600922 -0.027791349984518234
714 0.3142952621522061 -1.9010752100090855 -1.6156226520316113 0.4039738817258225 1.250689998565697 -0.027691752569246966
715 0.3058409132672857 -1.9024175467867301 -1.6133878535625261 0.40447041674641365 1.2497340883203387 -0.027626676552820757
716 0.2981871332195577 -1.9049602743479102 -1.6120678032995734 0.40415279810546134 1.2496139599314848 -0.02797080192968673
717 0.2910509941795011 -1.907424068788339 -1.610320912846386 0.40359819980495265 1.250263997511836 -0.028720597855243245
718 0.28443093789287444 -1.9098011769411607 -1.608199124815649 0.4028746010093943 1.2515984023329367 -0.029786735229416484
719 0.2783278810659541 -1.9121097771656526 -1.6057742169808338 0.40203297069102334 1.2535341556880257 -0.031086166975413665
720 0.27273874148458804 -1.914367213271914 -1.6031092160065605 0.4011180946950987 1.2559913411495898 -0.032544080516655825
721 0.26765445561077283 -1.9165867443310214 -1.6002562305123331 0.400169835957605 1.2588926552067896 -0.034093866256630065
722 0.26329286511457684 -1.919150232122589 -1.597596674725543 0.3991138041829342 1.2622401221120074 -0.03567690191213612
723 0.25926807607488195 -1.9212857115505113 -1.5943948695008878 0.39825208655002414 1.2658541480738468 -0.037254214218913916
724 0.25569382368204263 -1.9234696546436398 -1.5911869322676864 0.3974257478465633 1.2696832679333176 -0.03875668982764709
725 0.2525207929036507 -1.925643049492727 -1.5879276905558335 0.39667685931723246 1.2736634839631502 -0.04015476767245412
726 0.24971907927860648 -1.9278201626756217 -1.5846479057622953 0.396014203928778 1.2777379841690897 -0.041421292219922155
727 0.2472528059428085 -1.9300025402071836 -1.5813620019073442 0.39544674296084925 1.2818545187937056 -0.04253624317407534
728 0.24508544981416466 -1.9321930851581468 -1.5780835006927563 0.3949786876202566 1.2859662996874293 -0.043485451474668854
729 0.2431800356464853 -1.9343937626979615 -1.5748227965776613 0.39461087436617215 1.2900321513776587 -0.04426021741321153
730 0.24150012913592353 -1.936606115351156 -1.5715879328918756 0.3943410764153617 1.2940166412643963 -0.044856714294717534
731 0.24001053559488322 -1.9388312206759324 -1.5683847633952255 0.39416452498330984 1.297890053837088 -0.045275392785896734
732 0.23867790177956216 -1.941069749314553 -1.5652172109319322 0.39407437774227766 1.3016282480004822 -0.04552036656964049
733 0.23747118148495408 -1.9433220039866683 -1.5620874961071707 0.3940621712984129 1.3052124097089381 -0.045598804137967804
734 0.23636197914797313 -1.9455879656420114 -1.5589963648190535 0.39411824102993454 1.3086287204610612 -0.04552034038794781
735 0.235324778840311 -1.9478673394259731 -1.5559433070195556 0.3942321061141724 1.311867960996241 -0.04529652048044153
736 0.2343370702329246 -1.9501595991594238 -1.5529267654143502 0.3943928167299263 1.314925068889585 -0.04494028489040795
737 0.23337938405997216 -1.952464028324411 -1.5499443318272588 0.3945892619917813 1.3177986672172737 -0.04446550173313257
738 0.23243525050764802 -1.9547797568264884 -1.5469929300538534 0.39481043786731174 1.3204905797158089 -0.04388654990069016
739 0.23149109416777802 -1.9571057935796812 -1.544068984580383 0.39504567509811744 1.3230053459279416 -0.043217954457264895
740 0.23053607889420397 -1.9594410554813422 -1.5411685748931612 0.39528482788140756 1.3253497478068463 -0.04247407407729103
741 0.22956191511108473 -1.9617843935071846 -1.5382875751934844 0.39551842479074756 1.3275323571938182 -0.04166883902534482
742 0.2285626409556131 -1.964134616570821 -1.5354217793038725 0.3957377840681239 1.3295631115557376 -0.04081553721504878
743 0.22753438722060057 -1.966490513569253 -1.532567010512396 0.3959350959600036 1.331452923430405 -0.03992664519410817
744 0.22647513452836593 -1.9688508737795924 -1.5297192161301527 0.3961034751670847 1.3332133272400994 -0.03901370043822582
745 0.22538446963497147 -1.9712145055534225 -1.5268745466627205 0.3962369867216751 1.334856165544007 -0.03808721105864863
746 0.2242633463256675 -1.9735802531103424 -1.5240294197132522 0.39633064870670304 1.3363933154394945 -0.03715659890209108
747 0.2231138550809399 -1.9759470111712638 -1.5211805690145428 0.3963804152069248 1.3378364547035788 -0.03623017201723969
748 0.22193900460145521 -1.9783137371866715 -1.5183250792929468 0.39638314276268444 1.3391968663859561 -0.03531512255170435
749 0.220742517388718 -1.980679460987393 -1.5154604079627247 0.39633654340751573 1.3404852799069875 -0.03441754630299553
750 0.21952864087677582 -1.98304329179344 -1.5125843949057345 0.39623912713880655 1.3417117462523762 -0.03354248035590607
751 0.21830197507601004 -1.9854044226382601 -1.5096952617873598 0.396090136417545 1.3428855445598187 -0.032693955478919866
752 0.21706731729222895 -1.9877621323819994 -1.506791602483162 0.3958894750356984 1.3440151172288854 -0.03187506020964424
753 0.2158295241890704 -1.990115785583204 -1.5038723662383726 0.39563763343968217 1.3451080306220047 -0.031088013822736602
754 0.21459339123613097 -1.9924648305642136 -1.5009368351577086 0.3953356123623076 1.3461709584332595 -0.030334245635422665
755 0.2133635494004231 -1.9948087960373897 -1.497984597535829 0.3949848463959149 1.3472096848591415 -0.02961447836031545
756 0.2121443787722756 -1.9971472866585975 -1.495015518402871 0.3945871289352081 1.3482291247934417 -0.0289288134600796
757 0.21093993865373165 -1.9994799778463954 -1.4920297084908904 0.3941445397266854 1.3492333583748537 -0.028276816692677845
758 0.20975391347066186 -2.0018066101582046 -1.4890274926419311 0.39365937607880513 1.3502256773335772 -0.027657602259967162
759 0.20858957369874365 -2.0041269834573074 -1.486009378491363 0.3931340886097362 1.3512086407094512 -0.02706991418752425
760 0.20744975082298636 -2.0064409510452252 -1.4829760260828722 0.3925712222354244 1.3521841376490447 -0.026512203771214268
761 0.20633682518872445 -2.008748413879725 -1.479928218912222 0.39197336292897283 1.3531534551344524 -0.02598270212733387
762 0.20525272545841336 -2.0110493149537714 -1.4768668367601585 0.3913430906138275 1.3541173486543479 -0.02547948707870893
763 0.20419893827222454 -2.013343633877516 -1.4737928305619585 0.3906829383901003 1.3550761139996417 -0.025000543798638513
764 0.2031765266286534 -2.0156313816837854 -1.4707071994708172 0.38999535813866154 1.3560296585520484 -0.02454381881697056
765 0.20218615545890486 -2.017912595866164 -1.4676109702017694 0.3892826924047947 1.3569775706327099 -0.02410726716606937
766 0.20122812286754851 -2.02018733565518 -1.464505178688387 0.3885471523355892 1.3579191856868529 -0.02368889260672063
767 0.20030239555085902 -2.022455677539651 -1.4613908540424034 0.387790801335601 1.358853648295264 -0.023286781022629342
768 0.1994086469799343 -2.024717711044262 -1.458269004773284 0.3870155440156283 1.3597799692192105 -0.022899127204719382
769 0.19854629704282567 -2.0269735347789664 -1.4551406071979411 0.3862231199407033 1.3606970768970872 -0.022524255360880086
770 0.19771455197195725 -2.0292232527791345 -1.452006595948384 0.38541510163565246 1.3616038630133955 -0.022160633781638205
771 0.1969124435329566 -2.0314669711569144 -1.4488678564659785 0.38459289627895205 1.3624992219489904 -0.021806884166617746
772 0.1961388666114565 -2.033704795083412 -1.445725219354506 0.3837577505065731 1.3633820840920068 -0.021461786170490747
773 0.19539261449874398 -2.03593682611844 -1.442579456450354 0.3829107577549289 1.3642514431385473 -0.02112427776099777
774 0.19467241133925323 -2.0381631598998835 -1.4394312784568617 0.3820528675935058 1.365106377639182 -0.02079345199676047
775 0.1939769413577719 -2.0403838841989215 -1.4362813339814715 0.38118489653062737 1.3659460671506867 -0.0204685508307512
776 0.1933048746277703 -2.042599077340793 -1.433130209808901 0.38030753981748894 1.3667698034322378 -0.02014895652855294
777 0.19265488927148455 -2.0448088069842623 -1.4299784322413058 0.3794213838235518 1.367576997182341 -0.01983418126130192
778 0.19202569009527107 -2.047013129246604 -1.4268264693372144 0.37852691860829896 1.3683671808485813 -0.019523855393940696
779 0.19141602375922906 -2.049212088155367 -1.423674733884857 0.3776245503681282 1.3691400080588256 -0.019217714942589025
780 0.190824690657845 -2.051405715403376 -1.4205235869520056 0.3767146134910102 1.3698952502221073 -0.018915588622843166
781 0.19025055374883323 -2.053594030379717 -1.4173733418633998 0.3757973820039213 1.370632790832607 -0.018617384855828888
782 0.1896925446113141 -2.055777040446652 -1.4142242684676827 0.3748730802478033 1.3713526179835043 -0.01832307904282351
783 0.18914966704329078 -2.057954741430708 -1.4110765975682504 0.37394189266090144 1.3720548155615717 -0.018032701363913762
784 0.18862099852363406 -2.0601271182953016 -1.4079305254059375 0.37300397259314955 1.3727395535506792 -0.017746325302889488
785 0.18810568986721998 -2.0622941459623014 -1.40478621809568 0.3720594501113236 1.3734070778251195 -0.01746405705050563
786 0.18760296339532848 -2.0644557902506193 -1.401643815933778 0.37110843878673994 1.3740576997639276 -0.017186025892237847
787 0.18711210992874747 -2.0666120089012643 -1.3985034375067456 0.37015104148426403 1.3746917859669123 -0.01691237564530352
788 0.18663248489003906 -2.068762752660128 -1.395365183546699 0.3691873551934052 1.375309748303492 -0.016643257173394082
789 0.18616350377578866 -2.0709079663919754 -1.3922291404914977 0.3682174749595177 1.3759120344778688 -0.016378821976425855
790 0.1857046372309398 -2.0730475902016736 -1.389095383720212 0.3672414969859185 1.3764991192495823 -0.016119216826661734
791 0.18525540592688375 -2.0751815605413775 -1.3859639804457826 0.3662595209864533 1.377071496407779 -0.015864579401630448
792 0.18481537541404175 -2.0773098112852892 -1.3828349922568328 0.36527165187313654 1.3776296715611402 -0.015615034848106557
793 0.18438415108924716 -2.0794322747564786 -1.3797084773094328 0.3642780008654216 1.378174155773606 -0.015370693199656268
794 0.18396137338914287 -2.0815488826931463 -1.3765844921771526 0.3632786861069166 1.3787054600489383 -0.015131647562484215
795 0.18354671329368555 -2.083659567144502 -1.3734630933739822 0.3622738328724141 1.379224090644742 -0.014897972980069623
796 0.18313986819917624 -2.08576426128911 -1.3703443385697072 0.3612635734434286 1.3797305451786235 -0.014669725885881326
797 0.1827405581983127 -2.0878629001710043 -1.3672282875210937 0.36024804672445904 1.3802253094754553 -0.014446944054818143
798 0.18234852278577074 -2.0899554213511675 -1.3641150027449434 0.3592273976653113 1.3807088550948592 -0.014229646967464685
799 0.18196351799180766 -2.092041765473966 -1.3610045499607304 0.3582017765473983 1.3811816374716424 -0.014017836506324894
800 0.18158531393329264 -2.094121876749881 -1.3578969983312972 0.3571713381842765 1.3816440945985518 -0.01381149790948046
801 0.1806956097853896 -2.095406395349797 -1.3543476375985906 0.3562521057820919 1.3820371355238759 -0.013610600914230341
802 0.17995589346195304 -2.0972162682423923 -1.3513767919237016 0.3551145219898051 1.3824341258383928 -0.013391394815369809
803 0.1792802608086743 -2.0990885806429787 -1.3484816994119488 0.3539342466042731 1.3828644672770036 -0.013197613123434405
804 0.17865439177420375 -2.1009565182117043 -1.3455909475623238 0.3527407531946056 1.383327189271754 -0.013030107179670463
805 0.1780738741249389 -2.1028111512227614 -1.3426961095496628 0.3515415941697449 1.383816967140333 -0.012884063535684892
806 0.17753544644973326 -2.104652148724937 -1.3397979662875534 0.35034052727514836 1.384328087999793 -0.012754444651859008
807 0.17703582661646347 -2.10648043751751 -1.3368985039886658 0.34914024893835616 1.3848551201385089 -0.012636784205673365
808 0.17657163308768803 -2.1082970730134774 -1.3339996932537947 0.3479428547944204 1.3853930637805196 -0.012527279270734604
